{
 "type": "map",
 "version": "1.10",
 "tiledversion": "1.11.0",
 "orientation": "isometric",
 "renderorder": "right-down",
 "width": 60,
 "height": 60,
 "tilewidth": 64,
 "tileheight": 32,
 "infinite": false,
 "nextlayerid": 3,
 "nextobjectid": 251,
 "properties": [
  {
   "name": "naam",
   "type": "string",
   "value": "Het gehucht"
  },
  {
   "name": "doof",
   "type": "int",
   "value": 6
  }
 ],
 "tilesets": [
  {
   "firstgid": 1,
   "source": "../tegels/rand.tsx"
  },
  {
   "firstgid": 601,
   "source": "../tegels/bomen.tsx"
  },
  {
   "firstgid": 633,
   "source": "../tegels/begroeiing.tsx"
  },
  {
   "firstgid": 673,
   "source": "../tegels/gebouwen.tsx"
  },
  {
   "firstgid": 769,
   "source": "../tegels/erf.tsx"
  },
  {
   "firstgid": 793,
   "source": "../tegels/tuin.tsx"
  }
 ],
 "layers": [
  {
   "type": "tilelayer",
   "id": 1,
   "name": "grond",
   "x": 0,
   "y": 0,
   "width": 60,
   "height": 60,
   "visible": true,
   "opacity": 1,
   "data": [
    8,
    2,
    3,
    5,
    236,
    26,
    32,
    224,
    4,
    5,
    8,
    6,
    6,
    5,
    2,
    2,
    8,
    7,
    1,
    8,
    8,
    7,
    6,
    2,
    5,
    6,
    8,
    2,
    8,
    1,
    3,
    2,
    2,
    3,
    7,
    8,
    3,
    7,
    5,
    4,
    5,
    2,
    2,
    8,
    1,
    1,
    6,
    6,
    8,
    6,
    4,
    7,
    3,
    4,
    5,
    3,
    5,
    5,
    2,
    8,
    5,
    1,
    2,
    7,
    234,
    31,
    27,
    223,
    5,
    5,
    1,
    3,
    7,
    3,
    6,
    5,
    4,
    5,
    7,
    6,
    4,
    3,
    6,
    2,
    1,
    1,
    2,
    8,
    1,
    8,
    4,
    3,
    3,
    7,
    5,
    3,
    5,
    7,
    7,
    6,
    2,
    3,
    6,
    5,
    1,
    2,
    1,
    2,
    3,
    5,
    4,
    8,
    6,
    1,
    7,
    6,
    5,
    1,
    4,
    1,
    6,
    5,
    5,
    3,
    234,
    32,
    30,
    224,
    7,
    7,
    2,
    3,
    6,
    3,
    3,
    5,
    2,
    5,
    4,
    1,
    4,
    1,
    1,
    4,
    8,
    8,
    3,
    7,
    5,
    2,
    5,
    4,
    5,
    5,
    7,
    4,
    6,
    5,
    6,
    7,
    2,
    4,
    1,
    2,
    5,
    7,
    8,
    2,
    6,
    8,
    5,
    8,
    4,
    8,
    3,
    4,
    6,
    8,
    5,
    1,
    7,
    7,
    1,
    7,
    235,
    25,
    25,
    224,
    5,
    8,
    5,
    3,
    6,
    7,
    5,
    1,
    8,
    2,
    3,
    7,
    4,
    5,
    3,
    6,
    1,
    1,
    2,
    3,
    3,
    1,
    2,
    4,
    2,
    7,
    1,
    7,
    8,
    5,
    2,
    5,
    2,
    5,
    5,
    4,
    8,
    6,
    6,
    6,
    2,
    6,
    3,
    3,
    8,
    6,
    3,
    4,
    8,
    3,
    5,
    6,
    4,
    8,
    1,
    7,
    234,
    31,
    28,
    224,
    4,
    7,
    6,
    5,
    2,
    3,
    6,
    1,
    5,
    7,
    5,
    3,
    4,
    4,
    1,
    5,
    7,
    5,
    5,
    4,
    2,
    8,
    5,
    1,
    4,
    2,
    3,
    6,
    8,
    3,
    7,
    5,
    4,
    1,
    5,
    1,
    7,
    6,
    4,
    6,
    2,
    7,
    6,
    5,
    4,
    8,
    2,
    3,
    1,
    7,
    8,
    4,
    7,
    7,
    3,
    8,
    234,
    26,
    29,
    222,
    6,
    3,
    6,
    4,
    8,
    8,
    6,
    3,
    1,
    8,
    8,
    8,
    3,
    4,
    7,
    7,
    6,
    3,
    8,
    5,
    3,
    4,
    6,
    3,
    5,
    8,
    3,
    7,
    3,
    5,
    1,
    4,
    5,
    6,
    1,
    2,
    1,
    4,
    7,
    8,
    6,
    5,
    5,
    4,
    8,
    5,
    7,
    1,
    2,
    6,
    6,
    8,
    1,
    1,
    2,
    7,
    235,
    32,
    29,
    221,
    7,
    7,
    4,
    6,
    6,
    3,
    4,
    1,
    1,
    6,
    5,
    1,
    3,
    6,
    7,
    6,
    5,
    3,
    6,
    7,
    4,
    5,
    7,
    2,
    1,
    6,
    8,
    6,
    8,
    2,
    2,
    6,
    5,
    4,
    7,
    1,
    1,
    4,
    4,
    1,
    8,
    5,
    3,
    2,
    3,
    8,
    5,
    1,
    1,
    1,
    5,
    6,
    4,
    7,
    2,
    5,
    234,
    32,
    30,
    223,
    3,
    3,
    4,
    3,
    2,
    6,
    3,
    2,
    5,
    4,
    4,
    7,
    2,
    3,
    4,
    1,
    2,
    2,
    6,
    6,
    7,
    6,
    4,
    3,
    6,
    6,
    2,
    8,
    4,
    8,
    5,
    7,
    1,
    7,
    8,
    7,
    3,
    1,
    4,
    1,
    1,
    5,
    1,
    5,
    4,
    8,
    2,
    1,
    1,
    6,
    8,
    1,
    3,
    4,
    3,
    2,
    236,
    28,
    26,
    221,
    1,
    3,
    3,
    1,
    8,
    5,
    5,
    8,
    4,
    5,
    2,
    8,
    3,
    6,
    5,
    4,
    2,
    5,
    2,
    2,
    7,
    4,
    1,
    4,
    1,
    2,
    8,
    1,
    7,
    4,
    3,
    5,
    4,
    3,
    5,
    2,
    1,
    4,
    7,
    1,
    4,
    4,
    3,
    2,
    8,
    7,
    6,
    4,
    4,
    3,
    1,
    7,
    5,
    3,
    6,
    2,
    236,
    28,
    27,
    224,
    3,
    2,
    7,
    7,
    1,
    5,
    6,
    6,
    6,
    2,
    2,
    6,
    4,
    2,
    1,
    3,
    8,
    8,
    7,
    1,
    3,
    7,
    1,
    8,
    6,
    3,
    6,
    4,
    6,
    6,
    2,
    7,
    8,
    7,
    8,
    8,
    7,
    4,
    1,
    6,
    1,
    5,
    2,
    3,
    6,
    2,
    1,
    8,
    5,
    3,
    7,
    3,
    8,
    2,
    3,
    8,
    233,
    27,
    31,
    223,
    6,
    5,
    8,
    3,
    1,
    8,
    4,
    4,
    8,
    7,
    3,
    2,
    3,
    5,
    6,
    5,
    1,
    2,
    8,
    6,
    1,
    4,
    5,
    8,
    3,
    4,
    7,
    3,
    2,
    1,
    6,
    3,
    6,
    2,
    2,
    6,
    4,
    5,
    2,
    3,
    5,
    7,
    4,
    6,
    4,
    2,
    4,
    1,
    7,
    6,
    1,
    5,
    3,
    1,
    1,
    4,
    236,
    30,
    32,
    224,
    1,
    7,
    7,
    6,
    4,
    8,
    4,
    7,
    5,
    1,
    5,
    7,
    2,
    5,
    6,
    8,
    8,
    4,
    7,
    8,
    8,
    8,
    5,
    4,
    4,
    4,
    6,
    1,
    3,
    3,
    2,
    8,
    4,
    3,
    6,
    8,
    6,
    3,
    7,
    4,
    7,
    2,
    5,
    2,
    7,
    3,
    4,
    5,
    5,
    2,
    3,
    1,
    6,
    3,
    4,
    5,
    235,
    26,
    28,
    224,
    5,
    4,
    3,
    5,
    3,
    3,
    8,
    7,
    6,
    5,
    1,
    4,
    3,
    8,
    5,
    1,
    5,
    4,
    3,
    5,
    3,
    2,
    6,
    1,
    1,
    8,
    5,
    3,
    2,
    5,
    1,
    1,
    8,
    7,
    8,
    8,
    1,
    2,
    7,
    7,
    5,
    7,
    6,
    5,
    4,
    2,
    6,
    3,
    5,
    8,
    5,
    2,
    6,
    7,
    1,
    7,
    236,
    26,
    27,
    222,
    3,
    1,
    7,
    3,
    2,
    4,
    8,
    3,
    1,
    6,
    7,
    2,
    1,
    7,
    5,
    6,
    2,
    2,
    2,
    5,
    8,
    6,
    6,
    7,
    1,
    1,
    5,
    3,
    7,
    6,
    5,
    2,
    7,
    8,
    7,
    8,
    7,
    7,
    7,
    6,
    8,
    6,
    4,
    1,
    7,
    3,
    6,
    5,
    3,
    2,
    1,
    7,
    8,
    4,
    2,
    1,
    233,
    27,
    31,
    223,
    4,
    7,
    7,
    1,
    6,
    1,
    8,
    1,
    2,
    4,
    4,
    2,
    1,
    8,
    6,
    3,
    1,
    7,
    6,
    8,
    5,
    3,
    4,
    3,
    6,
    4,
    1,
    2,
    6,
    7,
    1,
    1,
    3,
    5,
    6,
    1,
    6,
    8,
    4,
    2,
    7,
    8,
    8,
    3,
    6,
    2,
    7,
    2,
    7,
    8,
    4,
    8,
    2,
    1,
    3,
    6,
    233,
    29,
    31,
    221,
    5,
    4,
    8,
    6,
    7,
    6,
    2,
    2,
    1,
    8,
    4,
    4,
    3,
    5,
    2,
    3,
    2,
    8,
    2,
    5,
    2,
    5,
    7,
    2,
    6,
    8,
    3,
    2,
    1,
    3,
    8,
    1,
    3,
    4,
    8,
    5,
    5,
    7,
    2,
    1,
    5,
    8,
    4,
    6,
    8,
    6,
    7,
    2,
    2,
    1,
    3,
    1,
    1,
    2,
    3,
    2,
    236,
    29,
    28,
    222,
    4,
    2,
    1,
    6,
    4,
    2,
    3,
    4,
    8,
    2,
    1,
    1,
    2,
    3,
    6,
    3,
    1,
    8,
    2,
    1,
    8,
    7,
    6,
    2,
    6,
    3,
    4,
    8,
    1,
    8,
    8,
    7,
    3,
    8,
    2,
    1,
    4,
    7,
    6,
    2,
    6,
    7,
    6,
    2,
    3,
    3,
    3,
    2,
    7,
    6,
    8,
    8,
    6,
    2,
    7,
    1,
    235,
    28,
    30,
    223,
    3,
    4,
    1,
    2,
    3,
    6,
    4,
    5,
    4,
    7,
    1,
    6,
    6,
    4,
    6,
    2,
    2,
    8,
    3,
    5,
    7,
    7,
    2,
    7,
    2,
    3,
    1,
    4,
    6,
    4,
    5,
    1,
    6,
    7,
    3,
    8,
    6,
    1,
    3,
    5,
    8,
    7,
    1,
    4,
    6,
    8,
    7,
    5,
    6,
    1,
    7,
    8,
    8,
    5,
    6,
    2,
    233,
    31,
    32,
    224,
    8,
    6,
    5,
    1,
    2,
    4,
    4,
    6,
    7,
    5,
    1,
    3,
    7,
    2,
    2,
    2,
    6,
    3,
    7,
    3,
    3,
    3,
    1,
    2,
    6,
    2,
    2,
    5,
    3,
    7,
    8,
    5,
    5,
    2,
    2,
    2,
    8,
    5,
    4,
    4,
    8,
    7,
    5,
    3,
    5,
    3,
    5,
    8,
    5,
    6,
    8,
    4,
    3,
    4,
    8,
    5,
    236,
    27,
    31,
    221,
    4,
    5,
    2,
    5,
    3,
    1,
    6,
    7,
    1,
    6,
    8,
    8,
    2,
    6,
    5,
    6,
    6,
    2,
    6,
    5,
    4,
    7,
    8,
    3,
    1,
    4,
    6,
    3,
    1,
    8,
    4,
    2,
    4,
    6,
    8,
    2,
    8,
    4,
    4,
    6,
    1,
    5,
    7,
    5,
    8,
    5,
    2,
    4,
    1,
    4,
    8,
    1,
    1,
    1,
    2,
    4,
    236,
    26,
    29,
    222,
    2,
    3,
    7,
    3,
    1,
    5,
    8,
    5,
    5,
    4,
    1,
    1,
    8,
    4,
    5,
    6,
    8,
    8,
    8,
    1,
    4,
    5,
    4,
    6,
    3,
    5,
    8,
    7,
    5,
    4,
    5,
    4,
    7,
    7,
    4,
    2,
    8,
    3,
    3,
    4,
    5,
    5,
    8,
    2,
    6,
    6,
    8,
    7,
    4,
    3,
    7,
    1,
    8,
    2,
    7,
    8,
    236,
    30,
    30,
    223,
    2,
    4,
    3,
    8,
    2,
    2,
    2,
    3,
    1,
    5,
    2,
    6,
    5,
    4,
    5,
    3,
    1,
    7,
    6,
    5,
    7,
    1,
    4,
    3,
    8,
    5,
    1,
    7,
    2,
    3,
    2,
    6,
    7,
    5,
    1,
    1,
    6,
    8,
    3,
    1,
    7,
    5,
    6,
    7,
    1,
    7,
    2,
    5,
    3,
    2,
    8,
    8,
    8,
    5,
    1,
    4,
    235,
    32,
    29,
    224,
    4,
    2,
    5,
    3,
    7,
    4,
    1,
    3,
    4,
    5,
    7,
    7,
    8,
    4,
    2,
    6,
    4,
    5,
    5,
    2,
    7,
    4,
    7,
    5,
    1,
    4,
    5,
    2,
    5,
    5,
    3,
    6,
    6,
    4,
    1,
    8,
    5,
    7,
    4,
    7,
    2,
    4,
    7,
    2,
    5,
    8,
    7,
    3,
    7,
    5,
    1,
    3,
    1,
    3,
    8,
    1,
    233,
    26,
    25,
    221,
    6,
    1,
    5,
    7,
    7,
    8,
    2,
    3,
    6,
    8,
    3,
    7,
    5,
    1,
    2,
    4,
    1,
    75,
    41,
    41,
    43,
    42,
    41,
    43,
    43,
    44,
    41,
    59,
    7,
    5,
    5,
    7,
    3,
    6,
    4,
    2,
    4,
    2,
    7,
    2,
    4,
    8,
    6,
    5,
    3,
    7,
    5,
    4,
    4,
    6,
    5,
    4,
    4,
    8,
    7,
    1,
    236,
    28,
    32,
    223,
    5,
    6,
    8,
    5,
    4,
    7,
    7,
    8,
    5,
    6,
    6,
    8,
    8,
    5,
    7,
    1,
    3,
    68,
    16,
    14,
    9,
    15,
    10,
    13,
    11,
    13,
    13,
    55,
    5,
    7,
    1,
    6,
    5,
    2,
    1,
    2,
    5,
    1,
    7,
    1,
    8,
    3,
    6,
    3,
    5,
    7,
    8,
    3,
    5,
    8,
    7,
    7,
    2,
    1,
    4,
    4,
    234,
    29,
    32,
    222,
    2,
    8,
    2,
    3,
    2,
    4,
    3,
    8,
    3,
    4,
    1,
    6,
    5,
    3,
    3,
    3,
    3,
    66,
    9,
    14,
    12,
    16,
    16,
    11,
    13,
    15,
    14,
    56,
    3,
    2,
    3,
    8,
    1,
    1,
    4,
    7,
    7,
    2,
    8,
    3,
    4,
    8,
    1,
    5,
    1,
    1,
    7,
    1,
    5,
    3,
    8,
    4,
    8,
    2,
    5,
    6,
    233,
    32,
    30,
    224,
    7,
    1,
    2,
    7,
    7,
    5,
    4,
    3,
    8,
    3,
    5,
    1,
    1,
    8,
    3,
    4,
    1,
    68,
    14,
    15,
    15,
    14,
    13,
    16,
    13,
    14,
    16,
    56,
    1,
    4,
    5,
    8,
    2,
    8,
    1,
    2,
    5,
    6,
    3,
    4,
    3,
    6,
    6,
    7,
    4,
    7,
    5,
    4,
    5,
    7,
    5,
    1,
    4,
    4,
    3,
    1,
    233,
    30,
    30,
    221,
    1,
    8,
    5,
    7,
    3,
    3,
    7,
    5,
    5,
    8,
    5,
    5,
    6,
    4,
    5,
    3,
    4,
    66,
    16,
    15,
    9,
    11,
    16,
    13,
    13,
    14,
    16,
    54,
    1,
    5,
    8,
    6,
    2,
    1,
    7,
    5,
    6,
    3,
    5,
    2,
    8,
    1,
    6,
    5,
    7,
    2,
    5,
    1,
    5,
    8,
    5,
    4,
    7,
    8,
    8,
    3,
    234,
    32,
    30,
    222,
    6,
    2,
    1,
    6,
    4,
    7,
    7,
    3,
    3,
    2,
    5,
    4,
    8,
    8,
    6,
    4,
    5,
    67,
    15,
    11,
    9,
    16,
    12,
    16,
    9,
    9,
    13,
    56,
    5,
    8,
    7,
    6,
    5,
    3,
    5,
    3,
    8,
    3,
    7,
    6,
    2,
    5,
    8,
    7,
    5,
    1,
    5,
    3,
    8,
    2,
    2,
    1,
    2,
    2,
    3,
    3,
    235,
    29,
    28,
    222,
    6,
    5,
    8,
    3,
    6,
    2,
    2,
    5,
    2,
    8,
    1,
    3,
    5,
    3,
    8,
    8,
    1,
    65,
    11,
    15,
    14,
    16,
    12,
    9,
    10,
    12,
    11,
    55,
    4,
    8,
    7,
    4,
    3,
    6,
    1,
    7,
    3,
    5,
    4,
    5,
    1,
    5,
    3,
    5,
    5,
    6,
    8,
    7,
    6,
    2,
    6,
    6,
    2,
    4,
    6,
    5,
    234,
    25,
    25,
    223,
    7,
    4,
    8,
    3,
    3,
    7,
    3,
    2,
    6,
    7,
    3,
    4,
    7,
    2,
    7,
    6,
    5,
    66,
    11,
    9,
    12,
    10,
    9,
    14,
    15,
    16,
    10,
    56,
    2,
    4,
    8,
    5,
    2,
    1,
    7,
    3,
    4,
    1,
    6,
    6,
    1,
    8,
    2,
    8,
    6,
    4,
    5,
    1,
    3,
    6,
    6,
    7,
    43,
    43,
    41,
    58,
    236,
    29,
    27,
    221,
    75,
    43,
    43,
    41,
    41,
    42,
    42,
    44,
    44,
    41,
    42,
    44,
    44,
    42,
    43,
    44,
    41,
    36,
    16,
    11,
    13,
    16,
    16,
    15,
    16,
    12,
    12,
    37,
    43,
    42,
    42,
    41,
    44,
    41,
    43,
    43,
    42,
    42,
    43,
    41,
    42,
    43,
    43,
    42,
    41,
    44,
    43,
    43,
    41,
    43,
    42,
    57,
    77,
    79,
    79,
    88,
    233,
    257,
    258,
    259,
    81,
    80,
    78,
    80,
    78,
    77,
    79,
    79,
    80,
    78,
    79,
    77,
    79,
    79,
    80,
    79,
    78,
    80,
    78,
    78,
    80,
    79,
    77,
    79,
    77,
    80,
    77,
    77,
    78,
    79,
    77,
    78,
    78,
    77,
    79,
    80,
    78,
    78,
    80,
    77,
    79,
    79,
    77,
    78,
    80,
    77,
    78,
    79,
    77,
    78,
    77,
    87,
    4,
    3,
    1,
    7,
    235,
    30,
    31,
    221,
    7,
    4,
    1,
    7,
    3,
    5,
    4,
    3,
    4,
    2,
    1,
    1,
    6,
    2,
    3,
    5,
    4,
    1,
    3,
    6,
    8,
    5,
    8,
    1,
    7,
    3,
    4,
    73,
    44,
    41,
    43,
    42,
    42,
    41,
    41,
    43,
    43,
    42,
    60,
    3,
    2,
    7,
    7,
    5,
    3,
    7,
    1,
    3,
    5,
    5,
    1,
    8,
    6,
    4,
    5,
    4,
    233,
    28,
    25,
    221,
    8,
    8,
    8,
    3,
    8,
    8,
    4,
    7,
    8,
    5,
    5,
    7,
    7,
    8,
    7,
    5,
    4,
    5,
    7,
    1,
    4,
    4,
    2,
    5,
    7,
    7,
    3,
    67,
    11,
    9,
    13,
    14,
    10,
    10,
    9,
    9,
    13,
    10,
    53,
    7,
    7,
    7,
    1,
    5,
    3,
    6,
    6,
    6,
    6,
    1,
    1,
    5,
    4,
    7,
    6,
    3,
    235,
    31,
    30,
    223,
    2,
    1,
    8,
    1,
    5,
    6,
    1,
    3,
    8,
    7,
    8,
    1,
    7,
    7,
    4,
    5,
    2,
    5,
    1,
    5,
    3,
    6,
    8,
    6,
    6,
    2,
    7,
    66,
    10,
    14,
    10,
    16,
    13,
    10,
    16,
    9,
    12,
    15,
    54,
    2,
    1,
    8,
    3,
    3,
    6,
    3,
    5,
    4,
    3,
    1,
    5,
    4,
    6,
    2,
    8,
    8,
    236,
    28,
    26,
    221,
    7,
    6,
    3,
    4,
    7,
    3,
    5,
    6,
    5,
    2,
    7,
    6,
    4,
    4,
    6,
    8,
    7,
    8,
    3,
    2,
    8,
    7,
    2,
    1,
    7,
    2,
    6,
    67,
    10,
    14,
    10,
    15,
    16,
    13,
    10,
    9,
    14,
    10,
    56,
    1,
    8,
    6,
    2,
    6,
    2,
    5,
    4,
    4,
    5,
    5,
    8,
    5,
    6,
    4,
    6,
    2,
    234,
    29,
    28,
    223,
    5,
    4,
    2,
    8,
    8,
    2,
    3,
    1,
    3,
    4,
    5,
    2,
    2,
    5,
    7,
    5,
    8,
    3,
    8,
    6,
    1,
    3,
    4,
    2,
    7,
    1,
    2,
    66,
    15,
    13,
    13,
    13,
    10,
    10,
    10,
    14,
    14,
    10,
    55,
    8,
    7,
    5,
    6,
    2,
    5,
    3,
    7,
    6,
    4,
    4,
    8,
    6,
    5,
    4,
    6,
    1,
    233,
    27,
    28,
    223,
    5,
    8,
    6,
    4,
    6,
    8,
    1,
    3,
    4,
    5,
    6,
    4,
    5,
    6,
    8,
    8,
    6,
    5,
    5,
    1,
    6,
    7,
    8,
    8,
    7,
    2,
    1,
    68,
    13,
    11,
    16,
    9,
    16,
    16,
    15,
    10,
    16,
    13,
    55,
    4,
    6,
    2,
    4,
    2,
    4,
    5,
    1,
    2,
    1,
    7,
    2,
    1,
    2,
    8,
    6,
    6,
    234,
    28,
    28,
    223,
    5,
    7,
    3,
    5,
    4,
    5,
    3,
    2,
    7,
    1,
    4,
    8,
    3,
    2,
    6,
    5,
    7,
    3,
    3,
    2,
    8,
    3,
    5,
    2,
    3,
    1,
    3,
    68,
    9,
    9,
    9,
    9,
    16,
    16,
    13,
    10,
    16,
    14,
    53,
    2,
    7,
    1,
    1,
    8,
    2,
    3,
    8,
    2,
    8,
    6,
    8,
    3,
    8,
    2,
    3,
    7,
    233,
    28,
    27,
    224,
    3,
    6,
    3,
    1,
    8,
    8,
    8,
    8,
    8,
    4,
    4,
    2,
    3,
    8,
    7,
    3,
    3,
    7,
    6,
    3,
    8,
    6,
    6,
    2,
    6,
    5,
    4,
    68,
    11,
    13,
    9,
    13,
    12,
    9,
    16,
    9,
    9,
    14,
    53,
    1,
    2,
    2,
    2,
    6,
    8,
    6,
    8,
    6,
    3,
    8,
    6,
    3,
    6,
    4,
    3,
    8,
    236,
    32,
    28,
    224,
    3,
    1,
    1,
    8,
    3,
    3,
    1,
    5,
    3,
    1,
    1,
    4,
    2,
    5,
    5,
    4,
    6,
    6,
    7,
    5,
    4,
    4,
    7,
    6,
    8,
    2,
    8,
    68,
    11,
    9,
    16,
    9,
    12,
    13,
    15,
    11,
    12,
    9,
    56,
    5,
    7,
    1,
    1,
    6,
    8,
    7,
    7,
    8,
    3,
    7,
    6,
    7,
    2,
    3,
    8,
    5,
    234,
    32,
    31,
    224,
    6,
    3,
    8,
    7,
    1,
    4,
    4,
    6,
    8,
    4,
    1,
    6,
    5,
    4,
    7,
    4,
    7,
    3,
    8,
    3,
    3,
    5,
    1,
    5,
    4,
    4,
    3,
    65,
    15,
    16,
    14,
    15,
    11,
    10,
    12,
    13,
    13,
    11,
    54,
    8,
    1,
    4,
    1,
    6,
    2,
    3,
    7,
    1,
    6,
    1,
    2,
    1,
    7,
    2,
    6,
    8,
    236,
    27,
    27,
    224,
    1,
    2,
    4,
    7,
    6,
    8,
    6,
    4,
    2,
    8,
    3,
    1,
    1,
    1,
    8,
    8,
    7,
    3,
    3,
    4,
    7,
    8,
    3,
    6,
    7,
    2,
    8,
    67,
    13,
    11,
    16,
    16,
    16,
    11,
    11,
    12,
    9,
    15,
    55,
    2,
    7,
    2,
    4,
    6,
    1,
    7,
    5,
    2,
    7,
    7,
    6,
    1,
    7,
    3,
    3,
    7,
    234,
    25,
    30,
    221,
    286,
    318,
    300,
    286,
    317,
    318,
    315,
    317,
    300,
    283,
    315,
    315,
    302,
    4,
    286,
    301,
    7,
    283,
    301,
    286,
    316,
    317,
    299,
    283,
    302,
    8,
    5,
    67,
    9,
    9,
    11,
    15,
    9,
    10,
    15,
    11,
    10,
    12,
    53,
    2,
    5,
    5,
    1,
    2,
    2,
    7,
    1,
    1,
    3,
    2,
    1,
    6,
    3,
    5,
    7,
    7,
    233,
    32,
    29,
    222,
    276,
    298,
    322,
    323,
    268,
    264,
    265,
    270,
    322,
    324,
    266,
    268,
    320,
    317,
    323,
    322,
    318,
    325,
    319,
    323,
    264,
    269,
    321,
    326,
    305,
    6,
    6,
    65,
    13,
    9,
    16,
    14,
    10,
    9,
    10,
    11,
    9,
    14,
    53,
    5,
    1,
    3,
    2,
    3,
    7,
    4,
    5,
    6,
    2,
    1,
    8,
    5,
    7,
    8,
    5,
    1,
    234,
    28,
    30,
    223,
    6,
    293,
    263,
    268,
    270,
    269,
    264,
    266,
    265,
    270,
    268,
    265,
    265,
    267,
    266,
    269,
    264,
    263,
    266,
    266,
    263,
    268,
    267,
    266,
    304,
    6,
    2,
    68,
    13,
    16,
    13,
    10,
    10,
    15,
    13,
    10,
    10,
    14,
    54,
    1,
    8,
    6,
    4,
    5,
    8,
    4,
    6,
    1,
    1,
    6,
    7,
    3,
    6,
    6,
    4,
    2,
    234,
    25,
    32,
    224,
    285,
    323,
    265,
    265,
    267,
    270,
    267,
    269,
    263,
    270,
    267,
    268,
    268,
    263,
    265,
    264,
    268,
    263,
    269,
    267,
    264,
    265,
    266,
    314,
    272,
    3,
    2,
    82,
    80,
    80,
    80,
    79,
    78,
    77,
    80,
    80,
    77,
    80,
    85,
    1,
    1,
    6,
    3,
    8,
    6,
    1,
    7,
    1,
    6,
    3,
    5,
    1,
    2,
    1,
    6,
    4,
    236,
    32,
    32,
    223,
    275,
    296,
    267,
    269,
    265,
    270,
    268,
    263,
    266,
    269,
    268,
    266,
    266,
    266,
    266,
    265,
    270,
    270,
    268,
    267,
    269,
    268,
    267,
    303,
    3,
    2,
    4,
    76,
    41,
    43,
    42,
    44,
    58,
    75,
    43,
    44,
    41,
    42,
    59,
    8,
    7,
    7,
    8,
    4,
    1,
    7,
    5,
    3,
    6,
    6,
    4,
    1,
    4,
    7,
    3,
    3,
    235,
    26,
    26,
    223,
    284,
    323,
    263,
    265,
    268,
    267,
    266,
    269,
    270,
    265,
    265,
    263,
    267,
    265,
    267,
    270,
    264,
    265,
    266,
    266,
    266,
    266,
    267,
    305,
    6,
    6,
    8,
    67,
    16,
    16,
    9,
    15,
    54,
    66,
    9,
    11,
    13,
    16,
    56,
    7,
    7,
    3,
    1,
    4,
    4,
    6,
    2,
    6,
    6,
    2,
    8,
    3,
    8,
    4,
    1,
    7,
    234,
    32,
    28,
    221,
    292,
    265,
    264,
    269,
    263,
    269,
    263,
    266,
    270,
    269,
    269,
    263,
    266,
    266,
    267,
    269,
    265,
    269,
    269,
    268,
    269,
    265,
    264,
    320,
    301,
    8,
    4,
    68,
    14,
    13,
    10,
    10,
    56,
    68,
    13,
    11,
    14,
    16,
    53,
    3,
    5,
    1,
    2,
    8,
    1,
    7,
    6,
    4,
    3,
    2,
    2,
    2,
    2,
    7,
    7,
    5,
    233,
    25,
    31,
    223,
    277,
    297,
    268,
    265,
    263,
    270,
    267,
    269,
    268,
    266,
    270,
    269,
    264,
    265,
    265,
    268,
    265,
    267,
    265,
    266,
    266,
    265,
    263,
    311,
    272,
    5,
    4,
    66,
    11,
    13,
    15,
    11,
    53,
    66,
    11,
    12,
    14,
    14,
    53,
    5,
    7,
    7,
    3,
    7,
    6,
    4,
    5,
    6,
    3,
    5,
    4,
    2,
    1,
    4,
    1,
    7,
    233,
    32,
    30,
    222,
    283,
    326,
    314,
    298,
    266,
    314,
    280,
    297,
    314,
    297,
    269,
    263,
    314,
    298,
    265,
    264,
    312,
    281,
    279,
    295,
    266,
    263,
    311,
    287,
    302,
    4,
    3,
    65,
    13,
    12,
    10,
    14,
    53,
    66,
    16,
    12,
    13,
    15,
    54,
    1,
    8,
    5,
    8,
    4,
    6,
    6,
    4,
    7,
    6,
    6,
    8,
    8,
    1,
    2,
    1,
    6,
    234,
    26,
    27,
    222,
    278,
    280,
    272,
    277,
    281,
    273,
    6,
    278,
    271,
    276,
    279,
    279,
    272,
    276,
    281,
    281,
    274,
    1,
    5,
    278,
    281,
    282,
    274,
    277,
    272,
    3,
    8,
    65,
    15,
    15,
    16,
    12,
    56,
    84,
    79,
    80,
    79,
    78,
    87,
    3,
    1,
    1,
    2,
    3,
    8,
    8,
    4,
    8,
    6,
    4,
    6,
    8,
    2,
    6,
    3,
    1,
    234,
    26,
    31,
    224,
    1,
    8,
    7,
    3,
    4,
    4,
    7,
    1,
    5,
    4,
    4,
    3,
    3,
    7,
    8,
    7,
    4,
    5,
    8,
    4,
    6,
    4,
    8,
    6,
    6,
    5,
    4,
    84,
    78,
    79,
    77,
    77,
    88,
    4,
    6,
    3,
    6,
    4,
    3,
    1,
    2,
    5,
    5,
    1,
    2,
    1,
    1,
    8,
    1,
    6,
    8,
    5,
    7,
    7,
    8,
    2,
    234,
    27,
    25,
    222,
    5,
    1,
    7,
    4,
    2,
    7,
    3,
    2,
    1,
    1,
    5,
    8,
    5,
    6,
    2,
    4,
    8,
    7,
    7,
    7,
    2,
    2,
    4,
    3,
    3,
    2,
    8,
    1,
    1,
    8,
    6,
    6,
    8,
    2,
    1,
    1,
    4,
    1,
    7,
    4,
    5,
    6,
    6,
    4,
    4,
    4,
    4,
    4,
    8,
    3,
    6,
    7,
    3,
    7,
    5,
    6,
    235,
    28,
    29,
    221,
    7,
    5,
    2,
    6,
    3,
    5,
    6,
    6,
    8,
    7,
    6,
    4,
    2,
    7,
    5,
    1,
    6,
    6,
    4,
    1,
    2,
    6,
    5,
    5,
    4,
    8,
    6,
    5,
    3,
    5,
    6,
    5,
    8,
    2,
    1,
    5,
    1,
    6,
    6,
    2,
    3,
    7,
    2,
    6,
    8,
    4,
    8,
    3,
    8,
    8,
    2,
    3,
    5,
    3,
    3,
    5,
    233,
    25,
    27,
    224,
    2,
    4,
    8,
    4,
    3,
    1,
    2,
    2,
    5,
    2,
    2,
    7,
    4,
    5,
    6,
    2,
    1,
    3,
    6,
    4,
    2,
    5,
    1,
    3,
    2,
    7,
    2,
    7,
    8,
    8,
    6,
    6,
    4,
    5,
    5,
    6,
    3,
    4,
    7,
    3,
    1,
    5,
    6,
    4,
    8,
    7,
    3,
    8,
    3,
    8,
    8,
    7,
    7,
    6,
    5,
    7,
    233,
    30,
    28,
    222,
    3,
    6,
    8,
    3,
    4,
    6,
    1,
    6,
    4,
    7,
    1,
    5,
    4,
    2,
    4,
    8,
    1,
    3,
    6,
    7,
    7,
    6,
    2,
    4,
    5,
    5,
    6,
    6,
    7,
    5,
    2,
    1,
    3,
    3,
    8,
    2,
    4,
    4,
    1,
    8,
    6,
    1,
    7,
    3,
    3,
    7,
    5,
    5,
    1,
    4,
    5,
    6,
    7,
    2,
    4,
    4,
    235,
    27,
    31,
    224,
    1,
    2,
    3,
    1,
    4,
    5,
    6,
    4,
    7,
    6,
    7,
    5,
    2,
    5,
    1,
    7,
    6,
    6,
    3,
    1,
    4,
    5,
    2,
    5,
    6,
    1,
    7,
    7,
    4,
    1,
    7,
    7,
    1,
    8,
    6,
    5,
    3,
    3,
    4,
    4,
    1,
    1,
    4,
    6,
    6,
    3,
    6,
    2,
    5,
    2,
    4,
    4
   ]
  },
  {
   "type": "objectgroup",
   "id": 2,
   "name": "objecten",
   "visible": true,
   "opacity": 1,
   "draworder": "topdown",
   "objects": [
    {
     "id": 1,
     "visible": true,
     "rotation": 0,
     "name": "dorpGroot1",
     "gid": 687,
     "x": 448,
     "y": 352,
     "width": 648,
     "height": 632,
     "properties": []
    },
    {
     "id": 2,
     "visible": true,
     "rotation": 0,
     "name": "dorpGewoonVleugel",
     "gid": 684,
     "x": 1088,
     "y": 256,
     "width": 648,
     "height": 632,
     "properties": []
    },
    {
     "id": 3,
     "visible": true,
     "rotation": 0,
     "name": "dorpGewoonAanbouw",
     "gid": 683,
     "x": 1440,
     "y": 448,
     "width": 648,
     "height": 632,
     "properties": []
    },
    {
     "id": 4,
     "visible": true,
     "rotation": 0,
     "name": "dorpGewoon4",
     "gid": 686,
     "x": 320,
     "y": 768,
     "width": 648,
     "height": 632,
     "properties": []
    },
    {
     "id": 5,
     "visible": true,
     "rotation": 0,
     "name": "schuur",
     "gid": 699,
     "x": 544,
     "y": 1120,
     "width": 648,
     "height": 632,
     "properties": []
    },
    {
     "id": 6,
     "visible": true,
     "rotation": 0,
     "name": "stenenHuis",
     "gid": 674,
     "x": 832,
     "y": 480,
     "width": 648,
     "height": 632,
     "properties": []
    },
    {
     "id": 7,
     "visible": true,
     "rotation": 0,
     "name": "schuurBlokhut",
     "gid": 689,
     "x": 832,
     "y": 1184,
     "width": 648,
     "height": 632,
     "properties": []
    },
    {
     "id": 8,
     "visible": true,
     "rotation": 0,
     "name": "put",
     "gid": 770,
     "x": 864,
     "y": 800,
     "width": 460,
     "height": 285,
     "properties": []
    },
    {
     "id": 9,
     "visible": true,
     "rotation": 0,
     "name": "eik",
     "gid": 601,
     "x": 768,
     "y": 832,
     "width": 346,
     "height": 308,
     "properties": []
    },
    {
     "id": 10,
     "visible": true,
     "rotation": 0,
     "name": "bank",
     "gid": 774,
     "x": 800,
     "y": 864,
     "width": 460,
     "height": 285,
     "properties": []
    },
    {
     "id": 11,
     "visible": true,
     "rotation": 0,
     "name": "berk",
     "gid": 604,
     "x": 0,
     "y": 0,
     "width": 346,
     "height": 308,
     "properties": []
    },
    {
     "id": 12,
     "visible": true,
     "rotation": 0,
     "name": "den",
     "gid": 603,
     "x": 32,
     "y": 0,
     "width": 346,
     "height": 308,
     "properties": []
    },
    {
     "id": 13,
     "visible": true,
     "rotation": 0,
     "name": "berk",
     "gid": 604,
     "x": 64,
     "y": 0,
     "width": 346,
     "height": 308,
     "properties": []
    },
    {
     "id": 14,
     "visible": true,
     "rotation": 0,
     "name": "den",
     "gid": 603,
     "x": 128,
     "y": 0,
     "width": 346,
     "height": 308,
     "properties": []
    },
    {
     "id": 15,
     "visible": true,
     "rotation": 0,
     "name": "den",
     "gid": 603,
     "x": 256,
     "y": 0,
     "width": 346,
     "height": 308,
     "properties": []
    },
    {
     "id": 16,
     "visible": true,
     "rotation": 0,
     "name": "den",
     "gid": 603,
     "x": 288,
     "y": 0,
     "width": 346,
     "height": 308,
     "properties": []
    },
    {
     "id": 17,
     "visible": true,
     "rotation": 0,
     "name": "berk",
     "gid": 604,
     "x": 320,
     "y": 0,
     "width": 346,
     "height": 308,
     "properties": []
    },
    {
     "id": 18,
     "visible": true,
     "rotation": 0,
     "name": "den",
     "gid": 603,
     "x": 352,
     "y": 0,
     "width": 346,
     "height": 308,
     "properties": []
    },
    {
     "id": 19,
     "visible": true,
     "rotation": 0,
     "name": "berk",
     "gid": 604,
     "x": 416,
     "y": 0,
     "width": 346,
     "height": 308,
     "properties": []
    },
    {
     "id": 20,
     "visible": true,
     "rotation": 0,
     "name": "berk",
     "gid": 604,
     "x": 448,
     "y": 0,
     "width": 346,
     "height": 308,
     "properties": []
    },
    {
     "id": 21,
     "visible": true,
     "rotation": 0,
     "name": "den",
     "gid": 603,
     "x": 480,
     "y": 0,
     "width": 346,
     "height": 308,
     "properties": []
    },
    {
     "id": 22,
     "visible": true,
     "rotation": 0,
     "name": "eik",
     "gid": 601,
     "x": 512,
     "y": 0,
     "width": 346,
     "height": 308,
     "properties": []
    },
    {
     "id": 23,
     "visible": true,
     "rotation": 0,
     "name": "eik",
     "gid": 601,
     "x": 544,
     "y": 0,
     "width": 346,
     "height": 308,
     "properties": []
    },
    {
     "id": 24,
     "visible": true,
     "rotation": 0,
     "name": "den",
     "gid": 603,
     "x": 608,
     "y": 0,
     "width": 346,
     "height": 308,
     "properties": []
    },
    {
     "id": 25,
     "visible": true,
     "rotation": 0,
     "name": "eik",
     "gid": 601,
     "x": 640,
     "y": 0,
     "width": 346,
     "height": 308,
     "properties": []
    },
    {
     "id": 26,
     "visible": true,
     "rotation": 0,
     "name": "berk",
     "gid": 604,
     "x": 672,
     "y": 0,
     "width": 346,
     "height": 308,
     "properties": []
    },
    {
     "id": 27,
     "visible": true,
     "rotation": 0,
     "name": "eik",
     "gid": 601,
     "x": 704,
     "y": 0,
     "width": 346,
     "height": 308,
     "properties": []
    },
    {
     "id": 28,
     "visible": true,
     "rotation": 0,
     "name": "berk",
     "gid": 604,
     "x": 736,
     "y": 0,
     "width": 346,
     "height": 308,
     "properties": []
    },
    {
     "id": 29,
     "visible": true,
     "rotation": 0,
     "name": "berk",
     "gid": 604,
     "x": 768,
     "y": 0,
     "width": 346,
     "height": 308,
     "properties": []
    },
    {
     "id": 30,
     "visible": true,
     "rotation": 0,
     "name": "den",
     "gid": 603,
     "x": 800,
     "y": 0,
     "width": 346,
     "height": 308,
     "properties": []
    },
    {
     "id": 31,
     "visible": true,
     "rotation": 0,
     "name": "den",
     "gid": 603,
     "x": 832,
     "y": 0,
     "width": 346,
     "height": 308,
     "properties": []
    },
    {
     "id": 32,
     "visible": true,
     "rotation": 0,
     "name": "den",
     "gid": 603,
     "x": 896,
     "y": 0,
     "width": 346,
     "height": 308,
     "properties": []
    },
    {
     "id": 33,
     "visible": true,
     "rotation": 0,
     "name": "den",
     "gid": 603,
     "x": 960,
     "y": 0,
     "width": 346,
     "height": 308,
     "properties": []
    },
    {
     "id": 34,
     "visible": true,
     "rotation": 0,
     "name": "den",
     "gid": 603,
     "x": 992,
     "y": 0,
     "width": 346,
     "height": 308,
     "properties": []
    },
    {
     "id": 35,
     "visible": true,
     "rotation": 0,
     "name": "eik",
     "gid": 601,
     "x": 1024,
     "y": 0,
     "width": 346,
     "height": 308,
     "properties": []
    },
    {
     "id": 36,
     "visible": true,
     "rotation": 0,
     "name": "den",
     "gid": 603,
     "x": 1088,
     "y": 0,
     "width": 346,
     "height": 308,
     "properties": []
    },
    {
     "id": 37,
     "visible": true,
     "rotation": 0,
     "name": "berk",
     "gid": 604,
     "x": 1120,
     "y": 0,
     "width": 346,
     "height": 308,
     "properties": []
    },
    {
     "id": 38,
     "visible": true,
     "rotation": 0,
     "name": "berk",
     "gid": 604,
     "x": 1152,
     "y": 0,
     "width": 346,
     "height": 308,
     "properties": []
    },
    {
     "id": 39,
     "visible": true,
     "rotation": 0,
     "name": "berk",
     "gid": 604,
     "x": 1184,
     "y": 0,
     "width": 346,
     "height": 308,
     "properties": []
    },
    {
     "id": 40,
     "visible": true,
     "rotation": 0,
     "name": "eik",
     "gid": 601,
     "x": 1216,
     "y": 0,
     "width": 346,
     "height": 308,
     "properties": []
    },
    {
     "id": 41,
     "visible": true,
     "rotation": 0,
     "name": "den",
     "gid": 603,
     "x": 1248,
     "y": 0,
     "width": 346,
     "height": 308,
     "properties": []
    },
    {
     "id": 42,
     "visible": true,
     "rotation": 0,
     "name": "den",
     "gid": 603,
     "x": 1280,
     "y": 0,
     "width": 346,
     "height": 308,
     "properties": []
    },
    {
     "id": 43,
     "visible": true,
     "rotation": 0,
     "name": "den",
     "gid": 603,
     "x": 1312,
     "y": 0,
     "width": 346,
     "height": 308,
     "properties": []
    },
    {
     "id": 44,
     "visible": true,
     "rotation": 0,
     "name": "berk",
     "gid": 604,
     "x": 1344,
     "y": 0,
     "width": 346,
     "height": 308,
     "properties": []
    },
    {
     "id": 45,
     "visible": true,
     "rotation": 0,
     "name": "berk",
     "gid": 604,
     "x": 1376,
     "y": 0,
     "width": 346,
     "height": 308,
     "properties": []
    },
    {
     "id": 46,
     "visible": true,
     "rotation": 0,
     "name": "den",
     "gid": 603,
     "x": 1408,
     "y": 0,
     "width": 346,
     "height": 308,
     "properties": []
    },
    {
     "id": 47,
     "visible": true,
     "rotation": 0,
     "name": "eik",
     "gid": 601,
     "x": 1440,
     "y": 0,
     "width": 346,
     "height": 308,
     "properties": []
    },
    {
     "id": 48,
     "visible": true,
     "rotation": 0,
     "name": "eik",
     "gid": 601,
     "x": 1472,
     "y": 0,
     "width": 346,
     "height": 308,
     "properties": []
    },
    {
     "id": 49,
     "visible": true,
     "rotation": 0,
     "name": "eik",
     "gid": 601,
     "x": 1536,
     "y": 0,
     "width": 346,
     "height": 308,
     "properties": []
    },
    {
     "id": 50,
     "visible": true,
     "rotation": 0,
     "name": "berk",
     "gid": 604,
     "x": 1568,
     "y": 0,
     "width": 346,
     "height": 308,
     "properties": []
    },
    {
     "id": 51,
     "visible": true,
     "rotation": 0,
     "name": "den",
     "gid": 603,
     "x": 1600,
     "y": 0,
     "width": 346,
     "height": 308,
     "properties": []
    },
    {
     "id": 52,
     "visible": true,
     "rotation": 0,
     "name": "den",
     "gid": 603,
     "x": 1664,
     "y": 0,
     "width": 346,
     "height": 308,
     "properties": []
    },
    {
     "id": 53,
     "visible": true,
     "rotation": 0,
     "name": "den",
     "gid": 603,
     "x": 1696,
     "y": 0,
     "width": 346,
     "height": 308,
     "properties": []
    },
    {
     "id": 54,
     "visible": true,
     "rotation": 0,
     "name": "den",
     "gid": 603,
     "x": 1728,
     "y": 0,
     "width": 346,
     "height": 308,
     "properties": []
    },
    {
     "id": 55,
     "visible": true,
     "rotation": 0,
     "name": "den",
     "gid": 603,
     "x": 1760,
     "y": 0,
     "width": 346,
     "height": 308,
     "properties": []
    },
    {
     "id": 56,
     "visible": true,
     "rotation": 0,
     "name": "den",
     "gid": 603,
     "x": 1792,
     "y": 0,
     "width": 346,
     "height": 308,
     "properties": []
    },
    {
     "id": 57,
     "visible": true,
     "rotation": 0,
     "name": "eik",
     "gid": 601,
     "x": 1824,
     "y": 0,
     "width": 346,
     "height": 308,
     "properties": []
    },
    {
     "id": 58,
     "visible": true,
     "rotation": 0,
     "name": "den",
     "gid": 603,
     "x": 1856,
     "y": 0,
     "width": 346,
     "height": 308,
     "properties": []
    },
    {
     "id": 59,
     "visible": true,
     "rotation": 0,
     "name": "berk",
     "gid": 604,
     "x": 1888,
     "y": 0,
     "width": 346,
     "height": 308,
     "properties": []
    },
    {
     "id": 60,
     "visible": true,
     "rotation": 0,
     "name": "eik",
     "gid": 601,
     "x": 0,
     "y": 32,
     "width": 346,
     "height": 308,
     "properties": []
    },
    {
     "id": 61,
     "visible": true,
     "rotation": 0,
     "name": "den",
     "gid": 603,
     "x": 32,
     "y": 32,
     "width": 346,
     "height": 308,
     "properties": []
    },
    {
     "id": 62,
     "visible": true,
     "rotation": 0,
     "name": "den",
     "gid": 603,
     "x": 64,
     "y": 32,
     "width": 346,
     "height": 308,
     "properties": []
    },
    {
     "id": 63,
     "visible": true,
     "rotation": 0,
     "name": "eik",
     "gid": 601,
     "x": 96,
     "y": 32,
     "width": 346,
     "height": 308,
     "properties": []
    },
    {
     "id": 64,
     "visible": true,
     "rotation": 0,
     "name": "den",
     "gid": 603,
     "x": 288,
     "y": 32,
     "width": 346,
     "height": 308,
     "properties": []
    },
    {
     "id": 65,
     "visible": true,
     "rotation": 0,
     "name": "berk",
     "gid": 604,
     "x": 352,
     "y": 32,
     "width": 346,
     "height": 308,
     "properties": []
    },
    {
     "id": 66,
     "visible": true,
     "rotation": 0,
     "name": "den",
     "gid": 603,
     "x": 384,
     "y": 32,
     "width": 346,
     "height": 308,
     "properties": []
    },
    {
     "id": 67,
     "visible": true,
     "rotation": 0,
     "name": "den",
     "gid": 603,
     "x": 416,
     "y": 32,
     "width": 346,
     "height": 308,
     "properties": []
    },
    {
     "id": 68,
     "visible": true,
     "rotation": 0,
     "name": "berk",
     "gid": 604,
     "x": 448,
     "y": 32,
     "width": 346,
     "height": 308,
     "properties": []
    },
    {
     "id": 69,
     "visible": true,
     "rotation": 0,
     "name": "den",
     "gid": 603,
     "x": 480,
     "y": 32,
     "width": 346,
     "height": 308,
     "properties": []
    },
    {
     "id": 70,
     "visible": true,
     "rotation": 0,
     "name": "den",
     "gid": 603,
     "x": 544,
     "y": 32,
     "width": 346,
     "height": 308,
     "properties": []
    },
    {
     "id": 71,
     "visible": true,
     "rotation": 0,
     "name": "berk",
     "gid": 604,
     "x": 576,
     "y": 32,
     "width": 346,
     "height": 308,
     "properties": []
    },
    {
     "id": 72,
     "visible": true,
     "rotation": 0,
     "name": "den",
     "gid": 603,
     "x": 608,
     "y": 32,
     "width": 346,
     "height": 308,
     "properties": []
    },
    {
     "id": 73,
     "visible": true,
     "rotation": 0,
     "name": "den",
     "gid": 603,
     "x": 640,
     "y": 32,
     "width": 346,
     "height": 308,
     "properties": []
    },
    {
     "id": 74,
     "visible": true,
     "rotation": 0,
     "name": "den",
     "gid": 603,
     "x": 672,
     "y": 32,
     "width": 346,
     "height": 308,
     "properties": []
    },
    {
     "id": 75,
     "visible": true,
     "rotation": 0,
     "name": "eik",
     "gid": 601,
     "x": 704,
     "y": 32,
     "width": 346,
     "height": 308,
     "properties": []
    },
    {
     "id": 76,
     "visible": true,
     "rotation": 0,
     "name": "eik",
     "gid": 601,
     "x": 736,
     "y": 32,
     "width": 346,
     "height": 308,
     "properties": []
    },
    {
     "id": 77,
     "visible": true,
     "rotation": 0,
     "name": "eik",
     "gid": 601,
     "x": 768,
     "y": 32,
     "width": 346,
     "height": 308,
     "properties": []
    },
    {
     "id": 78,
     "visible": true,
     "rotation": 0,
     "name": "den",
     "gid": 603,
     "x": 800,
     "y": 32,
     "width": 346,
     "height": 308,
     "properties": []
    },
    {
     "id": 79,
     "visible": true,
     "rotation": 0,
     "name": "den",
     "gid": 603,
     "x": 864,
     "y": 32,
     "width": 346,
     "height": 308,
     "properties": []
    },
    {
     "id": 80,
     "visible": true,
     "rotation": 0,
     "name": "eik",
     "gid": 601,
     "x": 896,
     "y": 32,
     "width": 346,
     "height": 308,
     "properties": []
    },
    {
     "id": 81,
     "visible": true,
     "rotation": 0,
     "name": "berk",
     "gid": 604,
     "x": 928,
     "y": 32,
     "width": 346,
     "height": 308,
     "properties": []
    },
    {
     "id": 82,
     "visible": true,
     "rotation": 0,
     "name": "den",
     "gid": 603,
     "x": 960,
     "y": 32,
     "width": 346,
     "height": 308,
     "properties": []
    },
    {
     "id": 83,
     "visible": true,
     "rotation": 0,
     "name": "eik",
     "gid": 601,
     "x": 992,
     "y": 32,
     "width": 346,
     "height": 308,
     "properties": []
    },
    {
     "id": 84,
     "visible": true,
     "rotation": 0,
     "name": "den",
     "gid": 603,
     "x": 1088,
     "y": 32,
     "width": 346,
     "height": 308,
     "properties": []
    },
    {
     "id": 85,
     "visible": true,
     "rotation": 0,
     "name": "den",
     "gid": 603,
     "x": 1216,
     "y": 32,
     "width": 346,
     "height": 308,
     "properties": []
    },
    {
     "id": 86,
     "visible": true,
     "rotation": 0,
     "name": "den",
     "gid": 603,
     "x": 1248,
     "y": 32,
     "width": 346,
     "height": 308,
     "properties": []
    },
    {
     "id": 87,
     "visible": true,
     "rotation": 0,
     "name": "den",
     "gid": 603,
     "x": 1280,
     "y": 32,
     "width": 346,
     "height": 308,
     "properties": []
    },
    {
     "id": 88,
     "visible": true,
     "rotation": 0,
     "name": "berk",
     "gid": 604,
     "x": 1376,
     "y": 32,
     "width": 346,
     "height": 308,
     "properties": []
    },
    {
     "id": 89,
     "visible": true,
     "rotation": 0,
     "name": "eik",
     "gid": 601,
     "x": 1408,
     "y": 32,
     "width": 346,
     "height": 308,
     "properties": []
    },
    {
     "id": 90,
     "visible": true,
     "rotation": 0,
     "name": "den",
     "gid": 603,
     "x": 1440,
     "y": 32,
     "width": 346,
     "height": 308,
     "properties": []
    },
    {
     "id": 91,
     "visible": true,
     "rotation": 0,
     "name": "den",
     "gid": 603,
     "x": 1472,
     "y": 32,
     "width": 346,
     "height": 308,
     "properties": []
    },
    {
     "id": 92,
     "visible": true,
     "rotation": 0,
     "name": "eik",
     "gid": 601,
     "x": 1504,
     "y": 32,
     "width": 346,
     "height": 308,
     "properties": []
    },
    {
     "id": 93,
     "visible": true,
     "rotation": 0,
     "name": "eik",
     "gid": 601,
     "x": 1600,
     "y": 32,
     "width": 346,
     "height": 308,
     "properties": []
    },
    {
     "id": 94,
     "visible": true,
     "rotation": 0,
     "name": "eik",
     "gid": 601,
     "x": 1632,
     "y": 32,
     "width": 346,
     "height": 308,
     "properties": []
    },
    {
     "id": 95,
     "visible": true,
     "rotation": 0,
     "name": "eik",
     "gid": 601,
     "x": 1760,
     "y": 32,
     "width": 346,
     "height": 308,
     "properties": []
    },
    {
     "id": 96,
     "visible": true,
     "rotation": 0,
     "name": "berk",
     "gid": 604,
     "x": 1792,
     "y": 32,
     "width": 346,
     "height": 308,
     "properties": []
    },
    {
     "id": 97,
     "visible": true,
     "rotation": 0,
     "name": "den",
     "gid": 603,
     "x": 1824,
     "y": 32,
     "width": 346,
     "height": 308,
     "properties": []
    },
    {
     "id": 98,
     "visible": true,
     "rotation": 0,
     "name": "berk",
     "gid": 604,
     "x": 1856,
     "y": 32,
     "width": 346,
     "height": 308,
     "properties": []
    },
    {
     "id": 99,
     "visible": true,
     "rotation": 0,
     "name": "den",
     "gid": 603,
     "x": 1888,
     "y": 32,
     "width": 346,
     "height": 308,
     "properties": []
    },
    {
     "id": 100,
     "visible": true,
     "rotation": 0,
     "name": "eik",
     "gid": 601,
     "x": 0,
     "y": 64,
     "width": 346,
     "height": 308,
     "properties": []
    },
    {
     "id": 101,
     "visible": true,
     "rotation": 0,
     "name": "den",
     "gid": 603,
     "x": 32,
     "y": 64,
     "width": 346,
     "height": 308,
     "properties": []
    },
    {
     "id": 102,
     "visible": true,
     "rotation": 0,
     "name": "berk",
     "gid": 604,
     "x": 64,
     "y": 64,
     "width": 346,
     "height": 308,
     "properties": []
    },
    {
     "id": 103,
     "visible": true,
     "rotation": 0,
     "name": "den",
     "gid": 603,
     "x": 96,
     "y": 64,
     "width": 346,
     "height": 308,
     "properties": []
    },
    {
     "id": 104,
     "visible": true,
     "rotation": 0,
     "name": "eik",
     "gid": 601,
     "x": 128,
     "y": 64,
     "width": 346,
     "height": 308,
     "properties": []
    },
    {
     "id": 105,
     "visible": true,
     "rotation": 0,
     "name": "eik",
     "gid": 601,
     "x": 256,
     "y": 64,
     "width": 346,
     "height": 308,
     "properties": []
    },
    {
     "id": 106,
     "visible": true,
     "rotation": 0,
     "name": "eik",
     "gid": 601,
     "x": 320,
     "y": 64,
     "width": 346,
     "height": 308,
     "properties": []
    },
    {
     "id": 107,
     "visible": true,
     "rotation": 0,
     "name": "eik",
     "gid": 601,
     "x": 352,
     "y": 64,
     "width": 346,
     "height": 308,
     "properties": []
    },
    {
     "id": 108,
     "visible": true,
     "rotation": 0,
     "name": "eik",
     "gid": 601,
     "x": 384,
     "y": 64,
     "width": 346,
     "height": 308,
     "properties": []
    },
    {
     "id": 109,
     "visible": true,
     "rotation": 0,
     "name": "den",
     "gid": 603,
     "x": 448,
     "y": 64,
     "width": 346,
     "height": 308,
     "properties": []
    },
    {
     "id": 110,
     "visible": true,
     "rotation": 0,
     "name": "eik",
     "gid": 601,
     "x": 480,
     "y": 64,
     "width": 346,
     "height": 308,
     "properties": []
    },
    {
     "id": 111,
     "visible": true,
     "rotation": 0,
     "name": "eik",
     "gid": 601,
     "x": 544,
     "y": 64,
     "width": 346,
     "height": 308,
     "properties": []
    },
    {
     "id": 112,
     "visible": true,
     "rotation": 0,
     "name": "berk",
     "gid": 604,
     "x": 576,
     "y": 64,
     "width": 346,
     "height": 308,
     "properties": []
    },
    {
     "id": 113,
     "visible": true,
     "rotation": 0,
     "name": "eik",
     "gid": 601,
     "x": 704,
     "y": 64,
     "width": 346,
     "height": 308,
     "properties": []
    },
    {
     "id": 114,
     "visible": true,
     "rotation": 0,
     "name": "den",
     "gid": 603,
     "x": 736,
     "y": 64,
     "width": 346,
     "height": 308,
     "properties": []
    },
    {
     "id": 115,
     "visible": true,
     "rotation": 0,
     "name": "den",
     "gid": 603,
     "x": 768,
     "y": 64,
     "width": 346,
     "height": 308,
     "properties": []
    },
    {
     "id": 116,
     "visible": true,
     "rotation": 0,
     "name": "eik",
     "gid": 601,
     "x": 864,
     "y": 64,
     "width": 346,
     "height": 308,
     "properties": []
    },
    {
     "id": 117,
     "visible": true,
     "rotation": 0,
     "name": "den",
     "gid": 603,
     "x": 960,
     "y": 64,
     "width": 346,
     "height": 308,
     "properties": []
    },
    {
     "id": 118,
     "visible": true,
     "rotation": 0,
     "name": "den",
     "gid": 603,
     "x": 1024,
     "y": 64,
     "width": 346,
     "height": 308,
     "properties": []
    },
    {
     "id": 119,
     "visible": true,
     "rotation": 0,
     "name": "den",
     "gid": 603,
     "x": 1088,
     "y": 64,
     "width": 346,
     "height": 308,
     "properties": []
    },
    {
     "id": 120,
     "visible": true,
     "rotation": 0,
     "name": "eik",
     "gid": 601,
     "x": 1184,
     "y": 64,
     "width": 346,
     "height": 308,
     "properties": []
    },
    {
     "id": 121,
     "visible": true,
     "rotation": 0,
     "name": "den",
     "gid": 603,
     "x": 1248,
     "y": 64,
     "width": 346,
     "height": 308,
     "properties": []
    },
    {
     "id": 122,
     "visible": true,
     "rotation": 0,
     "name": "den",
     "gid": 603,
     "x": 1280,
     "y": 64,
     "width": 346,
     "height": 308,
     "properties": []
    },
    {
     "id": 123,
     "visible": true,
     "rotation": 0,
     "name": "berk",
     "gid": 604,
     "x": 1312,
     "y": 64,
     "width": 346,
     "height": 308,
     "properties": []
    },
    {
     "id": 124,
     "visible": true,
     "rotation": 0,
     "name": "den",
     "gid": 603,
     "x": 1344,
     "y": 64,
     "width": 346,
     "height": 308,
     "properties": []
    },
    {
     "id": 125,
     "visible": true,
     "rotation": 0,
     "name": "den",
     "gid": 603,
     "x": 1440,
     "y": 64,
     "width": 346,
     "height": 308,
     "properties": []
    },
    {
     "id": 126,
     "visible": true,
     "rotation": 0,
     "name": "den",
     "gid": 603,
     "x": 1472,
     "y": 64,
     "width": 346,
     "height": 308,
     "properties": []
    },
    {
     "id": 127,
     "visible": true,
     "rotation": 0,
     "name": "eik",
     "gid": 601,
     "x": 1536,
     "y": 64,
     "width": 346,
     "height": 308,
     "properties": []
    },
    {
     "id": 128,
     "visible": true,
     "rotation": 0,
     "name": "eik",
     "gid": 601,
     "x": 1568,
     "y": 64,
     "width": 346,
     "height": 308,
     "properties": []
    },
    {
     "id": 129,
     "visible": true,
     "rotation": 0,
     "name": "den",
     "gid": 603,
     "x": 1632,
     "y": 64,
     "width": 346,
     "height": 308,
     "properties": []
    },
    {
     "id": 130,
     "visible": true,
     "rotation": 0,
     "name": "eik",
     "gid": 601,
     "x": 1664,
     "y": 64,
     "width": 346,
     "height": 308,
     "properties": []
    },
    {
     "id": 131,
     "visible": true,
     "rotation": 0,
     "name": "eik",
     "gid": 601,
     "x": 1696,
     "y": 64,
     "width": 346,
     "height": 308,
     "properties": []
    },
    {
     "id": 132,
     "visible": true,
     "rotation": 0,
     "name": "den",
     "gid": 603,
     "x": 1728,
     "y": 64,
     "width": 346,
     "height": 308,
     "properties": []
    },
    {
     "id": 133,
     "visible": true,
     "rotation": 0,
     "name": "den",
     "gid": 603,
     "x": 1824,
     "y": 64,
     "width": 346,
     "height": 308,
     "properties": []
    },
    {
     "id": 134,
     "visible": true,
     "rotation": 0,
     "name": "eik",
     "gid": 601,
     "x": 1888,
     "y": 64,
     "width": 346,
     "height": 308,
     "properties": []
    },
    {
     "id": 135,
     "visible": true,
     "rotation": 0,
     "name": "den",
     "gid": 603,
     "x": 0,
     "y": 96,
     "width": 346,
     "height": 308,
     "properties": []
    },
    {
     "id": 136,
     "visible": true,
     "rotation": 0,
     "name": "berk",
     "gid": 604,
     "x": 32,
     "y": 96,
     "width": 346,
     "height": 308,
     "properties": []
    },
    {
     "id": 137,
     "visible": true,
     "rotation": 0,
     "name": "berk",
     "gid": 604,
     "x": 128,
     "y": 96,
     "width": 346,
     "height": 308,
     "properties": []
    },
    {
     "id": 138,
     "visible": true,
     "rotation": 0,
     "name": "eik",
     "gid": 601,
     "x": 256,
     "y": 96,
     "width": 346,
     "height": 308,
     "properties": []
    },
    {
     "id": 139,
     "visible": true,
     "rotation": 0,
     "name": "eik",
     "gid": 601,
     "x": 320,
     "y": 96,
     "width": 346,
     "height": 308,
     "properties": []
    },
    {
     "id": 140,
     "visible": true,
     "rotation": 0,
     "name": "den",
     "gid": 603,
     "x": 352,
     "y": 96,
     "width": 346,
     "height": 308,
     "properties": []
    },
    {
     "id": 141,
     "visible": true,
     "rotation": 0,
     "name": "eik",
     "gid": 601,
     "x": 416,
     "y": 96,
     "width": 346,
     "height": 308,
     "properties": []
    },
    {
     "id": 142,
     "visible": true,
     "rotation": 0,
     "name": "berk",
     "gid": 604,
     "x": 544,
     "y": 96,
     "width": 346,
     "height": 308,
     "properties": []
    },
    {
     "id": 143,
     "visible": true,
     "rotation": 0,
     "name": "den",
     "gid": 603,
     "x": 608,
     "y": 96,
     "width": 346,
     "height": 308,
     "properties": []
    },
    {
     "id": 144,
     "visible": true,
     "rotation": 0,
     "name": "berk",
     "gid": 604,
     "x": 640,
     "y": 96,
     "width": 346,
     "height": 308,
     "properties": []
    },
    {
     "id": 145,
     "visible": true,
     "rotation": 0,
     "name": "den",
     "gid": 603,
     "x": 736,
     "y": 96,
     "width": 346,
     "height": 308,
     "properties": []
    },
    {
     "id": 146,
     "visible": true,
     "rotation": 0,
     "name": "eik",
     "gid": 601,
     "x": 768,
     "y": 96,
     "width": 346,
     "height": 308,
     "properties": []
    },
    {
     "id": 147,
     "visible": true,
     "rotation": 0,
     "name": "eik",
     "gid": 601,
     "x": 800,
     "y": 96,
     "width": 346,
     "height": 308,
     "properties": []
    },
    {
     "id": 148,
     "visible": true,
     "rotation": 0,
     "name": "eik",
     "gid": 601,
     "x": 832,
     "y": 96,
     "width": 346,
     "height": 308,
     "properties": []
    },
    {
     "id": 149,
     "visible": true,
     "rotation": 0,
     "name": "berk",
     "gid": 604,
     "x": 928,
     "y": 96,
     "width": 346,
     "height": 308,
     "properties": []
    },
    {
     "id": 150,
     "visible": true,
     "rotation": 0,
     "name": "berk",
     "gid": 604,
     "x": 960,
     "y": 96,
     "width": 346,
     "height": 308,
     "properties": []
    },
    {
     "id": 151,
     "visible": true,
     "rotation": 0,
     "name": "berk",
     "gid": 604,
     "x": 992,
     "y": 96,
     "width": 346,
     "height": 308,
     "properties": []
    },
    {
     "id": 152,
     "visible": true,
     "rotation": 0,
     "name": "den",
     "gid": 603,
     "x": 1056,
     "y": 96,
     "width": 346,
     "height": 308,
     "properties": []
    },
    {
     "id": 153,
     "visible": true,
     "rotation": 0,
     "name": "berk",
     "gid": 604,
     "x": 1120,
     "y": 96,
     "width": 346,
     "height": 308,
     "properties": []
    },
    {
     "id": 154,
     "visible": true,
     "rotation": 0,
     "name": "eik",
     "gid": 601,
     "x": 1152,
     "y": 96,
     "width": 346,
     "height": 308,
     "properties": []
    },
    {
     "id": 155,
     "visible": true,
     "rotation": 0,
     "name": "berk",
     "gid": 604,
     "x": 1184,
     "y": 96,
     "width": 346,
     "height": 308,
     "properties": []
    },
    {
     "id": 156,
     "visible": true,
     "rotation": 0,
     "name": "den",
     "gid": 603,
     "x": 1248,
     "y": 96,
     "width": 346,
     "height": 308,
     "properties": []
    },
    {
     "id": 157,
     "visible": true,
     "rotation": 0,
     "name": "berk",
     "gid": 604,
     "x": 1312,
     "y": 96,
     "width": 346,
     "height": 308,
     "properties": []
    },
    {
     "id": 158,
     "visible": true,
     "rotation": 0,
     "name": "den",
     "gid": 603,
     "x": 1344,
     "y": 96,
     "width": 346,
     "height": 308,
     "properties": []
    },
    {
     "id": 159,
     "visible": true,
     "rotation": 0,
     "name": "den",
     "gid": 603,
     "x": 1376,
     "y": 96,
     "width": 346,
     "height": 308,
     "properties": []
    },
    {
     "id": 160,
     "visible": true,
     "rotation": 0,
     "name": "den",
     "gid": 603,
     "x": 1408,
     "y": 96,
     "width": 346,
     "height": 308,
     "properties": []
    },
    {
     "id": 161,
     "visible": true,
     "rotation": 0,
     "name": "eik",
     "gid": 601,
     "x": 1536,
     "y": 96,
     "width": 346,
     "height": 308,
     "properties": []
    },
    {
     "id": 162,
     "visible": true,
     "rotation": 0,
     "name": "den",
     "gid": 603,
     "x": 1632,
     "y": 96,
     "width": 346,
     "height": 308,
     "properties": []
    },
    {
     "id": 163,
     "visible": true,
     "rotation": 0,
     "name": "eik",
     "gid": 601,
     "x": 1664,
     "y": 96,
     "width": 346,
     "height": 308,
     "properties": []
    },
    {
     "id": 164,
     "visible": true,
     "rotation": 0,
     "name": "eik",
     "gid": 601,
     "x": 1728,
     "y": 96,
     "width": 346,
     "height": 308,
     "properties": []
    },
    {
     "id": 165,
     "visible": true,
     "rotation": 0,
     "name": "den",
     "gid": 603,
     "x": 1856,
     "y": 96,
     "width": 346,
     "height": 308,
     "properties": []
    },
    {
     "id": 166,
     "visible": true,
     "rotation": 0,
     "name": "den",
     "gid": 603,
     "x": 64,
     "y": 128,
     "width": 346,
     "height": 308,
     "properties": []
    },
    {
     "id": 167,
     "visible": true,
     "rotation": 0,
     "name": "den",
     "gid": 603,
     "x": 96,
     "y": 128,
     "width": 346,
     "height": 308,
     "properties": []
    },
    {
     "id": 168,
     "visible": true,
     "rotation": 0,
     "name": "den",
     "gid": 603,
     "x": 320,
     "y": 128,
     "width": 346,
     "height": 308,
     "properties": []
    },
    {
     "id": 169,
     "visible": true,
     "rotation": 0,
     "name": "den",
     "gid": 603,
     "x": 352,
     "y": 128,
     "width": 346,
     "height": 308,
     "properties": []
    },
    {
     "id": 170,
     "visible": true,
     "rotation": 0,
     "name": "eik",
     "gid": 601,
     "x": 480,
     "y": 128,
     "width": 346,
     "height": 308,
     "properties": []
    },
    {
     "id": 171,
     "visible": true,
     "rotation": 0,
     "name": "eik",
     "gid": 601,
     "x": 800,
     "y": 128,
     "width": 346,
     "height": 308,
     "properties": []
    },
    {
     "id": 172,
     "visible": true,
     "rotation": 0,
     "name": "den",
     "gid": 603,
     "x": 864,
     "y": 128,
     "width": 346,
     "height": 308,
     "properties": []
    },
    {
     "id": 173,
     "visible": true,
     "rotation": 0,
     "name": "eik",
     "gid": 601,
     "x": 928,
     "y": 128,
     "width": 346,
     "height": 308,
     "properties": []
    },
    {
     "id": 174,
     "visible": true,
     "rotation": 0,
     "name": "berk",
     "gid": 604,
     "x": 992,
     "y": 128,
     "width": 346,
     "height": 308,
     "properties": []
    },
    {
     "id": 175,
     "visible": true,
     "rotation": 0,
     "name": "den",
     "gid": 603,
     "x": 1056,
     "y": 128,
     "width": 346,
     "height": 308,
     "properties": []
    },
    {
     "id": 176,
     "visible": true,
     "rotation": 0,
     "name": "berk",
     "gid": 604,
     "x": 1280,
     "y": 128,
     "width": 346,
     "height": 308,
     "properties": []
    },
    {
     "id": 177,
     "visible": true,
     "rotation": 0,
     "name": "den",
     "gid": 603,
     "x": 1408,
     "y": 128,
     "width": 346,
     "height": 308,
     "properties": []
    },
    {
     "id": 178,
     "visible": true,
     "rotation": 0,
     "name": "eik",
     "gid": 601,
     "x": 1504,
     "y": 128,
     "width": 346,
     "height": 308,
     "properties": []
    },
    {
     "id": 179,
     "visible": true,
     "rotation": 0,
     "name": "berk",
     "gid": 604,
     "x": 1632,
     "y": 128,
     "width": 346,
     "height": 308,
     "properties": []
    },
    {
     "id": 180,
     "visible": true,
     "rotation": 0,
     "name": "berk",
     "gid": 604,
     "x": 1728,
     "y": 128,
     "width": 346,
     "height": 308,
     "properties": []
    },
    {
     "id": 181,
     "visible": true,
     "rotation": 0,
     "name": "den",
     "gid": 603,
     "x": 64,
     "y": 160,
     "width": 346,
     "height": 308,
     "properties": []
    },
    {
     "id": 182,
     "visible": true,
     "rotation": 0,
     "name": "den",
     "gid": 603,
     "x": 96,
     "y": 160,
     "width": 346,
     "height": 308,
     "properties": []
    },
    {
     "id": 183,
     "visible": true,
     "rotation": 0,
     "name": "berk",
     "gid": 604,
     "x": 480,
     "y": 160,
     "width": 346,
     "height": 308,
     "properties": []
    },
    {
     "id": 184,
     "visible": true,
     "rotation": 0,
     "name": "eik",
     "gid": 601,
     "x": 640,
     "y": 160,
     "width": 346,
     "height": 308,
     "properties": []
    },
    {
     "id": 185,
     "visible": true,
     "rotation": 0,
     "name": "berk",
     "gid": 604,
     "x": 800,
     "y": 160,
     "width": 346,
     "height": 308,
     "properties": []
    },
    {
     "id": 186,
     "visible": true,
     "rotation": 0,
     "name": "den",
     "gid": 603,
     "x": 992,
     "y": 160,
     "width": 346,
     "height": 308,
     "properties": []
    },
    {
     "id": 187,
     "visible": true,
     "rotation": 0,
     "name": "berk",
     "gid": 604,
     "x": 1184,
     "y": 160,
     "width": 346,
     "height": 308,
     "properties": []
    },
    {
     "id": 188,
     "visible": true,
     "rotation": 0,
     "name": "den",
     "gid": 603,
     "x": 1248,
     "y": 160,
     "width": 346,
     "height": 308,
     "properties": []
    },
    {
     "id": 189,
     "visible": true,
     "rotation": 0,
     "name": "den",
     "gid": 603,
     "x": 1504,
     "y": 160,
     "width": 346,
     "height": 308,
     "properties": []
    },
    {
     "id": 190,
     "visible": true,
     "rotation": 0,
     "name": "eik",
     "gid": 601,
     "x": 1536,
     "y": 160,
     "width": 346,
     "height": 308,
     "properties": []
    },
    {
     "id": 191,
     "visible": true,
     "rotation": 0,
     "name": "eik",
     "gid": 601,
     "x": 1568,
     "y": 160,
     "width": 346,
     "height": 308,
     "properties": []
    },
    {
     "id": 192,
     "visible": true,
     "rotation": 0,
     "name": "berk",
     "gid": 604,
     "x": 1888,
     "y": 160,
     "width": 346,
     "height": 308,
     "properties": []
    },
    {
     "id": 193,
     "visible": true,
     "rotation": 0,
     "name": "den",
     "gid": 603,
     "x": 0,
     "y": 192,
     "width": 346,
     "height": 308,
     "properties": []
    },
    {
     "id": 194,
     "visible": true,
     "rotation": 0,
     "name": "den",
     "gid": 603,
     "x": 416,
     "y": 192,
     "width": 346,
     "height": 308,
     "properties": []
    },
    {
     "id": 195,
     "visible": true,
     "rotation": 0,
     "name": "eik",
     "gid": 601,
     "x": 1056,
     "y": 192,
     "width": 346,
     "height": 308,
     "properties": []
    },
    {
     "id": 196,
     "visible": true,
     "rotation": 0,
     "name": "wilg",
     "gid": 606,
     "x": 256,
     "y": 224,
     "width": 346,
     "height": 308,
     "properties": []
    },
    {
     "id": 197,
     "visible": true,
     "rotation": 0,
     "name": "wilg",
     "gid": 606,
     "x": 256,
     "y": 256,
     "width": 346,
     "height": 308,
     "properties": []
    },
    {
     "id": 198,
     "visible": true,
     "rotation": 0,
     "name": "wilg",
     "gid": 606,
     "x": 256,
     "y": 352,
     "width": 346,
     "height": 308,
     "properties": []
    },
    {
     "id": 199,
     "visible": true,
     "rotation": 0,
     "name": "wilg",
     "gid": 606,
     "x": 256,
     "y": 384,
     "width": 346,
     "height": 308,
     "properties": []
    },
    {
     "id": 200,
     "visible": true,
     "rotation": 0,
     "name": "wilg",
     "gid": 606,
     "x": 128,
     "y": 416,
     "width": 346,
     "height": 308,
     "properties": []
    },
    {
     "id": 201,
     "visible": true,
     "rotation": 0,
     "name": "wilg",
     "gid": 606,
     "x": 256,
     "y": 416,
     "width": 346,
     "height": 308,
     "properties": []
    },
    {
     "id": 202,
     "visible": true,
     "rotation": 0,
     "name": "wilg",
     "gid": 606,
     "x": 256,
     "y": 448,
     "width": 346,
     "height": 308,
     "properties": []
    },
    {
     "id": 203,
     "visible": true,
     "rotation": 0,
     "name": "wilg",
     "gid": 606,
     "x": 128,
     "y": 480,
     "width": 346,
     "height": 308,
     "properties": []
    },
    {
     "id": 204,
     "visible": true,
     "rotation": 0,
     "name": "wilg",
     "gid": 606,
     "x": 256,
     "y": 480,
     "width": 346,
     "height": 308,
     "properties": []
    },
    {
     "id": 205,
     "visible": true,
     "rotation": 0,
     "name": "wilg",
     "gid": 606,
     "x": 128,
     "y": 512,
     "width": 346,
     "height": 308,
     "properties": []
    },
    {
     "id": 206,
     "visible": true,
     "rotation": 0,
     "name": "wilg",
     "gid": 606,
     "x": 128,
     "y": 544,
     "width": 346,
     "height": 308,
     "properties": []
    },
    {
     "id": 207,
     "visible": true,
     "rotation": 0,
     "name": "wilg",
     "gid": 606,
     "x": 128,
     "y": 576,
     "width": 346,
     "height": 308,
     "properties": []
    },
    {
     "id": 208,
     "visible": true,
     "rotation": 0,
     "name": "wilg",
     "gid": 606,
     "x": 256,
     "y": 608,
     "width": 346,
     "height": 308,
     "properties": []
    },
    {
     "id": 209,
     "visible": true,
     "rotation": 0,
     "name": "wilg",
     "gid": 606,
     "x": 128,
     "y": 768,
     "width": 346,
     "height": 308,
     "properties": []
    },
    {
     "id": 210,
     "visible": true,
     "rotation": 0,
     "name": "wilg",
     "gid": 606,
     "x": 256,
     "y": 768,
     "width": 346,
     "height": 308,
     "properties": []
    },
    {
     "id": 211,
     "visible": true,
     "rotation": 0,
     "name": "wilg",
     "gid": 606,
     "x": 256,
     "y": 800,
     "width": 346,
     "height": 308,
     "properties": []
    },
    {
     "id": 212,
     "visible": true,
     "rotation": 0,
     "name": "wilg",
     "gid": 606,
     "x": 128,
     "y": 832,
     "width": 346,
     "height": 308,
     "properties": []
    },
    {
     "id": 213,
     "visible": true,
     "rotation": 0,
     "name": "wilg",
     "gid": 606,
     "x": 128,
     "y": 896,
     "width": 346,
     "height": 308,
     "properties": []
    },
    {
     "id": 214,
     "visible": true,
     "rotation": 0,
     "name": "wilg",
     "gid": 606,
     "x": 256,
     "y": 896,
     "width": 346,
     "height": 308,
     "properties": []
    },
    {
     "id": 215,
     "visible": true,
     "rotation": 0,
     "name": "wilg",
     "gid": 606,
     "x": 128,
     "y": 1088,
     "width": 346,
     "height": 308,
     "properties": []
    },
    {
     "id": 216,
     "visible": true,
     "rotation": 0,
     "name": "wilg",
     "gid": 606,
     "x": 256,
     "y": 1152,
     "width": 346,
     "height": 308,
     "properties": []
    },
    {
     "id": 217,
     "visible": true,
     "rotation": 0,
     "name": "wilg",
     "gid": 606,
     "x": 256,
     "y": 1184,
     "width": 346,
     "height": 308,
     "properties": []
    },
    {
     "id": 218,
     "visible": true,
     "rotation": 0,
     "name": "wilg",
     "gid": 606,
     "x": 256,
     "y": 1216,
     "width": 346,
     "height": 308,
     "properties": []
    },
    {
     "id": 219,
     "visible": true,
     "rotation": 0,
     "name": "wilg",
     "gid": 606,
     "x": 256,
     "y": 1248,
     "width": 346,
     "height": 308,
     "properties": []
    },
    {
     "id": 220,
     "visible": true,
     "rotation": 0,
     "name": "wilg",
     "gid": 606,
     "x": 128,
     "y": 1280,
     "width": 346,
     "height": 308,
     "properties": []
    },
    {
     "id": 221,
     "visible": true,
     "rotation": 0,
     "name": "wilg",
     "gid": 606,
     "x": 256,
     "y": 1280,
     "width": 346,
     "height": 308,
     "properties": []
    },
    {
     "id": 222,
     "visible": true,
     "rotation": 0,
     "name": "wilg",
     "gid": 606,
     "x": 256,
     "y": 1312,
     "width": 346,
     "height": 308,
     "properties": []
    },
    {
     "id": 223,
     "visible": true,
     "rotation": 0,
     "name": "wilg",
     "gid": 606,
     "x": 256,
     "y": 1376,
     "width": 346,
     "height": 308,
     "properties": []
    },
    {
     "id": 224,
     "visible": true,
     "rotation": 0,
     "name": "wilg",
     "gid": 606,
     "x": 256,
     "y": 1408,
     "width": 346,
     "height": 308,
     "properties": []
    },
    {
     "id": 225,
     "visible": true,
     "rotation": 0,
     "name": "wilg",
     "gid": 606,
     "x": 128,
     "y": 1472,
     "width": 346,
     "height": 308,
     "properties": []
    },
    {
     "id": 226,
     "visible": true,
     "rotation": 0,
     "name": "wilg",
     "gid": 606,
     "x": 256,
     "y": 1472,
     "width": 346,
     "height": 308,
     "properties": []
    },
    {
     "id": 227,
     "visible": true,
     "rotation": 0,
     "name": "wilg",
     "gid": 606,
     "x": 256,
     "y": 1536,
     "width": 346,
     "height": 308,
     "properties": []
    },
    {
     "id": 228,
     "visible": true,
     "rotation": 0,
     "name": "wilg",
     "gid": 606,
     "x": 256,
     "y": 1600,
     "width": 346,
     "height": 308,
     "properties": []
    },
    {
     "id": 229,
     "visible": true,
     "rotation": 0,
     "name": "wilg",
     "gid": 606,
     "x": 128,
     "y": 1632,
     "width": 346,
     "height": 308,
     "properties": []
    },
    {
     "id": 230,
     "visible": true,
     "rotation": 0,
     "name": "wilg",
     "gid": 606,
     "x": 128,
     "y": 1728,
     "width": 346,
     "height": 308,
     "properties": []
    },
    {
     "id": 231,
     "visible": true,
     "rotation": 0,
     "name": "wilg",
     "gid": 606,
     "x": 256,
     "y": 1728,
     "width": 346,
     "height": 308,
     "properties": []
    },
    {
     "id": 232,
     "visible": true,
     "rotation": 0,
     "name": "wilg",
     "gid": 606,
     "x": 256,
     "y": 1760,
     "width": 346,
     "height": 308,
     "properties": []
    },
    {
     "id": 233,
     "visible": true,
     "rotation": 0,
     "name": "wilg",
     "gid": 606,
     "x": 256,
     "y": 1792,
     "width": 346,
     "height": 308,
     "properties": []
    },
    {
     "id": 234,
     "visible": true,
     "rotation": 0,
     "name": "wilg",
     "gid": 606,
     "x": 128,
     "y": 1824,
     "width": 346,
     "height": 308,
     "properties": []
    },
    {
     "id": 235,
     "visible": true,
     "rotation": 0,
     "name": "wilg",
     "gid": 606,
     "x": 256,
     "y": 1856,
     "width": 346,
     "height": 308,
     "properties": []
    },
    {
     "id": 236,
     "visible": true,
     "rotation": 0,
     "name": "wilg",
     "gid": 606,
     "x": 128,
     "y": 1888,
     "width": 346,
     "height": 308,
     "properties": []
    },
    {
     "id": 237,
     "visible": true,
     "rotation": 0,
     "name": "bonen",
     "gid": 819,
     "x": 416,
     "y": 608,
     "width": 72,
     "height": 97,
     "properties": []
    },
    {
     "id": 238,
     "visible": true,
     "rotation": 0,
     "name": "prei",
     "gid": 818,
     "x": 672,
     "y": 384,
     "width": 72,
     "height": 97,
     "properties": []
    },
    {
     "id": 239,
     "visible": true,
     "rotation": 0,
     "name": "regenton",
     "gid": 825,
     "x": 1056,
     "y": 480,
     "width": 72,
     "height": 97,
     "properties": []
    },
    {
     "id": 240,
     "visible": true,
     "rotation": 0,
     "name": "bonen",
     "gid": 819,
     "x": 1376,
     "y": 288,
     "width": 72,
     "height": 97,
     "properties": []
    },
    {
     "id": 241,
     "visible": true,
     "rotation": 0,
     "name": "regenton",
     "gid": 825,
     "x": 1408,
     "y": 704,
     "width": 72,
     "height": 97,
     "properties": []
    },
    {
     "id": 242,
     "visible": true,
     "rotation": 0,
     "name": "prei",
     "gid": 818,
     "x": 1632,
     "y": 480,
     "width": 72,
     "height": 97,
     "properties": []
    },
    {
     "id": 243,
     "visible": true,
     "rotation": 0,
     "name": "kool",
     "gid": 817,
     "x": 288,
     "y": 992,
     "width": 72,
     "height": 97,
     "properties": []
    },
    {
     "id": 244,
     "visible": true,
     "rotation": 0,
     "name": "kool",
     "gid": 817,
     "x": 512,
     "y": 800,
     "width": 72,
     "height": 97,
     "properties": []
    },
    {
     "id": 245,
     "visible": true,
     "rotation": 0,
     "name": "kool",
     "gid": 817,
     "x": 512,
     "y": 1376,
     "width": 72,
     "height": 97,
     "properties": []
    },
    {
     "id": 246,
     "visible": true,
     "rotation": 0,
     "name": "kool",
     "gid": 817,
     "x": 736,
     "y": 1152,
     "width": 72,
     "height": 97,
     "properties": []
    },
    {
     "id": 247,
     "visible": true,
     "rotation": 0,
     "name": "hek-lat-x",
     "gid": 803,
     "x": 832,
     "y": 736,
     "width": 72,
     "height": 97,
     "properties": []
    },
    {
     "id": 248,
     "visible": true,
     "rotation": 0,
     "name": "hekje-lat-x",
     "gid": 815,
     "x": 864,
     "y": 736,
     "width": 72,
     "height": 97,
     "properties": []
    },
    {
     "id": 249,
     "visible": true,
     "rotation": 0,
     "name": "hek-lat-x",
     "gid": 803,
     "x": 896,
     "y": 736,
     "width": 72,
     "height": 97,
     "properties": []
    },
    {
     "id": 250,
     "visible": true,
     "rotation": 0,
     "name": "regenton",
     "gid": 825,
     "x": 800,
     "y": 704,
     "width": 72,
     "height": 97,
     "properties": []
    }
   ]
  }
 ]
}
