{
 "type": "map",
 "version": "1.10",
 "tiledversion": "1.11.0",
 "orientation": "isometric",
 "renderorder": "right-down",
 "width": 24,
 "height": 18,
 "tilewidth": 64,
 "tileheight": 32,
 "infinite": false,
 "nextlayerid": 3,
 "nextobjectid": 17,
 "properties": [
  {
   "name": "naam",
   "type": "string",
   "value": "Het proefbos"
  },
  {
   "name": "doof",
   "type": "int",
   "value": 1
  }
 ],
 "tilesets": [
  {
   "firstgid": 1,
   "source": "../tegels/rand.tsx"
  },
  {
   "firstgid": 263,
   "source": "../tegels/bomen.tsx"
  },
  {
   "firstgid": 270,
   "source": "../tegels/begroeiing.tsx"
  }
 ],
 "layers": [
  {
   "type": "tilelayer",
   "id": 1,
   "name": "grond",
   "x": 0,
   "y": 0,
   "width": 24,
   "height": 18,
   "visible": true,
   "opacity": 1,
   "data": [
    7,
    1,
    1,
    1,
    1,
    1,
    1,
    1,
    1,
    1,
    233,
    25,
    221,
    1,
    1,
    1,
    1,
    1,
    1,
    1,
    1,
    1,
    1,
    1,
    1,
    1,
    1,
    1,
    1,
    1,
    1,
    1,
    1,
    1,
    233,
    25,
    221,
    1,
    1,
    1,
    1,
    1,
    1,
    1,
    1,
    1,
    1,
    1,
    1,
    1,
    1,
    1,
    1,
    1,
    1,
    1,
    1,
    241,
    201,
    213,
    253,
    1,
    1,
    1,
    1,
    1,
    1,
    1,
    1,
    1,
    1,
    1,
    1,
    1,
    1,
    1,
    1,
    1,
    1,
    1,
    1,
    233,
    25,
    221,
    1,
    1,
    1,
    1,
    1,
    1,
    1,
    1,
    1,
    1,
    1,
    1,
    1,
    1,
    1,
    1,
    1,
    1,
    1,
    1,
    1,
    233,
    25,
    221,
    1,
    1,
    1,
    1,
    1,
    1,
    1,
    1,
    1,
    1,
    1,
    1,
    1,
    73,
    41,
    41,
    41,
    41,
    41,
    41,
    57,
    233,
    25,
    221,
    1,
    1,
    1,
    1,
    1,
    1,
    1,
    1,
    1,
    1,
    1,
    1,
    1,
    65,
    9,
    9,
    9,
    9,
    9,
    9,
    53,
    257,
    258,
    259,
    1,
    1,
    1,
    1,
    1,
    1,
    1,
    1,
    1,
    1,
    1,
    1,
    1,
    81,
    77,
    77,
    77,
    77,
    77,
    77,
    85,
    233,
    25,
    221,
    1,
    1,
    1,
    1,
    1,
    1,
    1,
    1,
    1,
    1,
    1,
    1,
    1,
    1,
    1,
    1,
    1,
    1,
    1,
    1,
    1,
    233,
    25,
    221,
    1,
    1,
    1,
    1,
    1,
    1,
    1,
    1,
    1,
    1,
    1,
    1,
    1,
    1,
    1,
    1,
    1,
    1,
    1,
    1,
    1,
    233,
    25,
    221,
    1,
    1,
    1,
    1,
    1,
    1,
    1,
    1,
    1,
    1,
    1,
    1,
    1,
    1,
    1,
    1,
    1,
    1,
    1,
    1,
    241,
    201,
    213,
    253,
    1,
    1,
    1,
    1,
    1,
    1,
    1,
    1,
    1,
    1,
    1,
    1,
    1,
    1,
    1,
    1,
    1,
    1,
    1,
    1,
    233,
    25,
    221,
    1,
    1,
    1,
    1,
    1,
    1,
    1,
    1,
    1,
    1,
    1,
    1,
    1,
    1,
    1,
    1,
    1,
    1,
    1,
    1,
    1,
    233,
    25,
    221,
    1,
    1,
    1,
    1,
    1,
    1,
    1,
    1,
    1,
    1,
    1,
    1,
    1,
    1,
    1,
    1,
    1,
    1,
    1,
    1,
    1,
    233,
    25,
    221,
    1,
    1,
    1,
    1,
    1,
    1,
    1,
    1,
    1,
    1,
    1,
    1,
    1,
    1,
    1,
    1,
    1,
    1,
    1,
    1,
    1,
    233,
    25,
    221,
    1,
    1,
    1,
    1,
    1,
    1,
    1,
    1,
    1,
    1,
    1,
    1,
    1,
    1,
    1,
    1,
    1,
    1,
    1,
    1,
    1,
    233,
    25,
    221,
    1,
    1,
    1,
    1,
    1,
    1,
    1,
    1,
    1,
    1,
    1,
    1,
    1,
    1,
    1,
    1,
    1,
    1,
    1,
    1,
    1,
    233,
    25,
    221,
    1,
    1,
    1,
    1,
    1,
    1,
    1,
    1,
    1,
    1,
    1,
    1,
    1,
    1,
    1,
    1,
    1,
    1,
    1,
    1,
    1,
    233,
    25,
    221,
    1,
    1,
    1,
    1,
    1,
    1,
    1,
    1,
    1,
    1,
    1,
    1,
    1
   ]
  },
  {
   "type": "objectgroup",
   "id": 2,
   "name": "objecten",
   "visible": true,
   "opacity": 1,
   "draworder": "topdown",
   "objects": [
    {
     "id": 1,
     "name": "eik",
     "gid": 263,
     "x": 96,
     "y": 64,
     "width": 346,
     "height": 308,
     "rotation": 0,
     "visible": true,
     "properties": []
    },
    {
     "id": 2,
     "name": "berk",
     "gid": 266,
     "x": 448,
     "y": 96,
     "width": 346,
     "height": 308,
     "rotation": 0,
     "visible": true,
     "properties": []
    },
    {
     "id": 3,
     "name": "dodeBoom",
     "gid": 267,
     "x": 640,
     "y": 96,
     "width": 346,
     "height": 308,
     "rotation": 0,
     "visible": true,
     "properties": []
    },
    {
     "id": 4,
     "name": "wilg",
     "gid": 268,
     "x": 384,
     "y": 64,
     "width": 346,
     "height": 308,
     "rotation": 0,
     "visible": true,
     "properties": []
    },
    {
     "id": 5,
     "name": "appelboom",
     "gid": 269,
     "x": 640,
     "y": 320,
     "width": 346,
     "height": 308,
     "rotation": 0,
     "visible": true,
     "properties": []
    },
    {
     "id": 6,
     "name": "den",
     "gid": 265,
     "x": 192,
     "y": 352,
     "width": 346,
     "height": 308,
     "rotation": 0,
     "visible": true,
     "properties": []
    },
    {
     "id": 7,
     "name": "herfstEik",
     "gid": 264,
     "x": 672,
     "y": 416,
     "width": 346,
     "height": 308,
     "rotation": 0,
     "visible": true,
     "properties": []
    },
    {
     "id": 8,
     "name": "kleineRots",
     "gid": 279,
     "x": 224,
     "y": 96,
     "width": 123,
     "height": 119,
     "rotation": 0,
     "visible": true,
     "properties": []
    },
    {
     "id": 9,
     "name": "varen",
     "gid": 272,
     "x": 160,
     "y": 128,
     "width": 123,
     "height": 119,
     "rotation": 0,
     "visible": true,
     "properties": []
    },
    {
     "id": 10,
     "name": "struik",
     "gid": 270,
     "x": 512,
     "y": 160,
     "width": 123,
     "height": 119,
     "rotation": 0,
     "visible": true,
     "properties": []
    },
    {
     "id": 11,
     "name": "bloemen",
     "gid": 275,
     "x": 128,
     "y": 224,
     "width": 123,
     "height": 119,
     "rotation": 0,
     "visible": true,
     "properties": []
    },
    {
     "id": 12,
     "name": "rots",
     "gid": 278,
     "x": 608,
     "y": 256,
     "width": 123,
     "height": 119,
     "rotation": 0,
     "visible": true,
     "properties": []
    },
    {
     "id": 13,
     "name": "hoogGras",
     "gid": 274,
     "x": 256,
     "y": 288,
     "width": 123,
     "height": 119,
     "rotation": 0,
     "visible": true,
     "properties": []
    },
    {
     "id": 14,
     "name": "paddenstoelen",
     "gid": 276,
     "x": 384,
     "y": 352,
     "width": 123,
     "height": 119,
     "rotation": 0,
     "visible": true,
     "properties": []
    },
    {
     "id": 15,
     "name": "pad terug naar het erf",
     "point": true,
     "x": 672,
     "y": 192,
     "width": 0,
     "height": 0,
     "rotation": 0,
     "visible": true,
     "properties": [
      {
       "name": "overgang",
       "type": "string",
       "value": "erf"
      },
      {
       "name": "komt",
       "type": "string",
       "value": "20,6"
      }
     ]
    },
    {
     "id": 16,
     "name": "reuzenspin",
     "point": true,
     "x": 128,
     "y": 448,
     "width": 0,
     "height": 0,
     "rotation": 0,
     "visible": true,
     "properties": [
      {
       "name": "wezen",
       "type": "string",
       "value": "reuzenspin"
      },
      {
       "name": "straal",
       "type": "int",
       "value": 2
      }
     ]
    }
   ]
  }
 ]
}
