{
 "type": "map",
 "version": "1.10",
 "tiledversion": "1.11.0",
 "orientation": "isometric",
 "renderorder": "right-down",
 "width": 12,
 "height": 10,
 "tilewidth": 64,
 "tileheight": 32,
 "infinite": false,
 "nextlayerid": 3,
 "nextobjectid": 7,
 "tilesets": [
  {
   "firstgid": 1,
   "source": "../tegels/grond.tsx"
  },
  {
   "firstgid": 161,
   "source": "../tegels/bomen.tsx"
  },
  {
   "firstgid": 193,
   "source": "../tegels/gebouwen.tsx"
  }
 ],
 "layers": [
  {
   "type": "tilelayer",
   "id": 1,
   "name": "grond",
   "x": 0,
   "y": 0,
   "width": 12,
   "height": 10,
   "visible": true,
   "opacity": 1,
   "data": [
    1,
    1,
    1,
    1,
    1,
    1,
    1,
    1,
    1,
    1,
    1,
    1,
    1,
    1,
    1,
    1,
    1,
    1,
    1,
    1,
    1,
    1,
    1,
    1,
    1,
    1,
    1,
    1,
    1,
    1,
    1,
    1,
    1,
    1,
    1,
    1,
    1,
    1,
    1,
    1,
    1,
    1,
    1,
    1,
    1,
    1,
    1,
    1,
    1,
    1,
    1,
    1,
    1,
    1,
    1,
    1,
    1,
    1,
    1,
    1,
    1,
    1,
    1,
    1,
    1,
    1,
    1,
    1,
    1,
    1,
    1,
    1,
    1,
    1,
    1,
    1,
    1,
    1,
    1,
    1,
    1,
    1,
    1,
    1,
    1,
    1,
    1,
    1,
    1,
    1,
    1,
    1,
    1,
    1,
    1,
    1,
    17,
    17,
    17,
    17,
    17,
    17,
    17,
    17,
    17,
    17,
    17,
    17,
    1,
    1,
    1,
    1,
    1,
    1,
    1,
    1,
    1,
    1,
    1,
    1
   ]
  },
  {
   "type": "objectgroup",
   "id": 2,
   "name": "objecten",
   "visible": true,
   "opacity": 1,
   "draworder": "topdown",
   "objects": [
    {
     "id": 1,
     "visible": true,
     "rotation": 0,
     "name": "eik",
     "gid": 161,
     "x": 288,
     "y": 64,
     "width": 346,
     "height": 308,
     "properties": []
    },
    {
     "id": 2,
     "visible": true,
     "rotation": 0,
     "name": "den",
     "gid": 163,
     "x": 320,
     "y": 128,
     "width": 346,
     "height": 308,
     "properties": []
    },
    {
     "id": 3,
     "visible": true,
     "rotation": 0,
     "name": "vakwerkhuis",
     "gid": 193,
     "x": 32,
     "y": 32,
     "width": 648,
     "height": 632,
     "properties": []
    },
    {
     "id": 4,
     "visible": true,
     "rotation": 0,
     "name": "poort",
     "point": true,
     "x": 128,
     "y": 192,
     "width": 0,
     "height": 0,
     "properties": [
      {
       "name": "staat",
       "type": "string",
       "value": "dicht"
      }
     ]
    },
    {
     "id": 5,
     "visible": true,
     "rotation": 0,
     "name": "slijmkruiper",
     "point": true,
     "x": 288,
     "y": 224,
     "width": 0,
     "height": 0,
     "properties": [
      {
       "name": "wezen",
       "type": "string",
       "value": "slijm"
      }
     ]
    },
    {
     "id": 6,
     "name": "pad terug naar het erf",
     "point": true,
     "x": 0,
     "y": 256,
     "width": 0,
     "height": 0,
     "rotation": 0,
     "visible": true,
     "properties": [
      {
       "name": "overgang",
       "type": "string",
       "value": "erf"
      },
      {
       "name": "komt",
       "type": "string",
       "value": "1,8"
      }
     ]
    }
   ]
  }
 ]
}
