{
 "type": "map",
 "version": "1.10",
 "tiledversion": "1.11.0",
 "orientation": "isometric",
 "renderorder": "right-down",
 "width": 184,
 "height": 88,
 "tilewidth": 64,
 "tileheight": 32,
 "infinite": false,
 "nextlayerid": 3,
 "nextobjectid": 507,
 "properties": [
  {
   "name": "naam",
   "type": "string",
   "value": "De wereld"
  },
  {
   "name": "doof",
   "type": "int",
   "value": 10
  }
 ],
 "tilesets": [
  {
   "firstgid": 1,
   "source": "../tegels/rand.tsx"
  },
  {
   "firstgid": 601,
   "source": "../tegels/bomen.tsx"
  },
  {
   "firstgid": 633,
   "source": "../tegels/begroeiing.tsx"
  },
  {
   "firstgid": 673,
   "source": "../tegels/gebouwen.tsx"
  },
  {
   "firstgid": 769,
   "source": "../tegels/toren.tsx"
  },
  {
   "firstgid": 777,
   "source": "../tegels/erf.tsx"
  }
 ],
 "layers": [
  {
   "type": "tilelayer",
   "id": 1,
   "name": "grond",
   "x": 0,
   "y": 0,
   "width": 184,
   "height": 88,
   "visible": true,
   "opacity": 1,
   "data": [
    0,
    0,
    0,
    0,
    0,
    0,
    0,
    0,
    0,
    0,
    0,
    0,
    0,
    0,
    0,
    0,
    0,
    0,
    0,
    0,
    0,
    0,
    0,
    0,
    0,
    0,
    0,
    0,
    0,
    0,
    0,
    0,
    0,
    0,
    0,
    0,
    0,
    0,
    0,
    0,
    0,
    0,
    0,
    0,
    0,
    0,
    0,
    0,
    0,
    0,
    0,
    0,
    0,
    0,
    0,
    0,
    0,
    0,
    0,
    0,
    0,
    0,
    0,
    0,
    0,
    0,
    0,
    0,
    0,
    0,
    0,
    0,
    0,
    0,
    0,
    0,
    0,
    0,
    0,
    0,
    0,
    0,
    0,
    0,
    0,
    0,
    0,
    0,
    0,
    0,
    0,
    0,
    0,
    0,
    0,
    0,
    0,
    0,
    0,
    0,
    0,
    0,
    0,
    0,
    0,
    0,
    0,
    0,
    0,
    0,
    0,
    0,
    0,
    0,
    0,
    0,
    0,
    0,
    0,
    0,
    0,
    0,
    0,
    0,
    0,
    0,
    0,
    0,
    0,
    0,
    0,
    0,
    0,
    0,
    0,
    0,
    0,
    0,
    0,
    0,
    0,
    0,
    0,
    0,
    0,
    0,
    0,
    0,
    0,
    0,
    0,
    0,
    0,
    0,
    0,
    0,
    0,
    0,
    0,
    0,
    0,
    0,
    0,
    0,
    0,
    0,
    0,
    0,
    0,
    0,
    0,
    0,
    0,
    0,
    0,
    0,
    0,
    0,
    0,
    0,
    0,
    0,
    0,
    0,
    0,
    0,
    0,
    0,
    0,
    0,
    0,
    0,
    0,
    0,
    0,
    0,
    0,
    0,
    0,
    0,
    0,
    0,
    0,
    0,
    0,
    0,
    0,
    0,
    0,
    0,
    0,
    0,
    0,
    0,
    0,
    0,
    0,
    0,
    0,
    0,
    0,
    0,
    0,
    0,
    0,
    0,
    0,
    0,
    0,
    0,
    0,
    0,
    0,
    0,
    0,
    0,
    0,
    0,
    0,
    0,
    0,
    0,
    0,
    0,
    0,
    0,
    0,
    0,
    0,
    0,
    0,
    0,
    0,
    0,
    0,
    0,
    0,
    0,
    0,
    0,
    0,
    0,
    0,
    0,
    0,
    0,
    0,
    0,
    0,
    0,
    0,
    0,
    0,
    0,
    0,
    0,
    0,
    0,
    0,
    0,
    0,
    0,
    0,
    0,
    0,
    0,
    0,
    0,
    0,
    0,
    0,
    0,
    0,
    0,
    0,
    0,
    0,
    0,
    0,
    0,
    0,
    0,
    0,
    0,
    0,
    0,
    0,
    0,
    0,
    0,
    0,
    0,
    0,
    0,
    0,
    0,
    0,
    0,
    0,
    0,
    0,
    0,
    0,
    0,
    0,
    0,
    0,
    0,
    0,
    0,
    0,
    0,
    0,
    0,
    0,
    0,
    0,
    0,
    0,
    0,
    0,
    0,
    0,
    0,
    0,
    0,
    0,
    0,
    0,
    0,
    0,
    0,
    0,
    0,
    0,
    0,
    0,
    0,
    0,
    0,
    0,
    0,
    0,
    0,
    0,
    0,
    0,
    0,
    0,
    0,
    0,
    0,
    0,
    0,
    0,
    0,
    0,
    0,
    0,
    0,
    0,
    0,
    0,
    0,
    0,
    0,
    0,
    0,
    0,
    0,
    0,
    0,
    0,
    0,
    0,
    0,
    0,
    0,
    0,
    0,
    0,
    0,
    0,
    0,
    0,
    0,
    0,
    0,
    0,
    0,
    0,
    0,
    0,
    0,
    0,
    0,
    0,
    0,
    0,
    0,
    0,
    0,
    0,
    0,
    0,
    0,
    0,
    0,
    0,
    0,
    0,
    0,
    0,
    0,
    0,
    0,
    0,
    0,
    0,
    0,
    0,
    0,
    0,
    0,
    0,
    0,
    0,
    0,
    0,
    0,
    0,
    0,
    0,
    0,
    0,
    0,
    0,
    0,
    0,
    0,
    0,
    0,
    0,
    0,
    0,
    0,
    0,
    0,
    0,
    0,
    0,
    0,
    0,
    0,
    0,
    0,
    0,
    0,
    0,
    0,
    0,
    0,
    0,
    0,
    0,
    0,
    0,
    0,
    0,
    0,
    0,
    0,
    0,
    0,
    0,
    0,
    0,
    0,
    0,
    0,
    0,
    0,
    0,
    0,
    0,
    0,
    0,
    0,
    0,
    0,
    0,
    0,
    0,
    0,
    0,
    0,
    0,
    0,
    0,
    0,
    0,
    0,
    0,
    0,
    0,
    0,
    0,
    0,
    0,
    0,
    0,
    0,
    0,
    0,
    0,
    0,
    0,
    0,
    0,
    0,
    0,
    0,
    0,
    0,
    0,
    0,
    0,
    0,
    0,
    0,
    0,
    0,
    0,
    0,
    0,
    0,
    0,
    0,
    0,
    0,
    0,
    0,
    0,
    0,
    0,
    0,
    0,
    0,
    0,
    0,
    0,
    0,
    0,
    0,
    0,
    0,
    0,
    0,
    0,
    0,
    0,
    0,
    0,
    0,
    0,
    0,
    0,
    0,
    0,
    0,
    0,
    0,
    0,
    0,
    0,
    0,
    0,
    0,
    0,
    0,
    0,
    0,
    0,
    0,
    0,
    0,
    0,
    0,
    0,
    0,
    0,
    0,
    0,
    0,
    0,
    0,
    0,
    0,
    0,
    0,
    0,
    0,
    0,
    0,
    0,
    0,
    0,
    0,
    0,
    0,
    0,
    0,
    0,
    0,
    0,
    0,
    0,
    0,
    0,
    0,
    0,
    0,
    0,
    0,
    0,
    0,
    0,
    0,
    0,
    0,
    0,
    0,
    0,
    0,
    0,
    0,
    0,
    0,
    0,
    0,
    0,
    0,
    0,
    0,
    0,
    0,
    0,
    0,
    0,
    0,
    0,
    0,
    0,
    0,
    0,
    0,
    0,
    0,
    0,
    0,
    0,
    0,
    0,
    0,
    0,
    0,
    0,
    0,
    0,
    0,
    0,
    0,
    0,
    0,
    0,
    0,
    0,
    0,
    0,
    0,
    0,
    0,
    0,
    0,
    0,
    0,
    0,
    0,
    0,
    0,
    0,
    0,
    0,
    0,
    0,
    0,
    0,
    0,
    0,
    0,
    0,
    0,
    0,
    0,
    0,
    0,
    0,
    0,
    0,
    0,
    0,
    0,
    0,
    0,
    0,
    0,
    0,
    0,
    0,
    0,
    0,
    0,
    0,
    0,
    0,
    0,
    0,
    0,
    0,
    0,
    0,
    0,
    0,
    0,
    0,
    0,
    0,
    0,
    0,
    0,
    0,
    0,
    0,
    0,
    0,
    0,
    0,
    0,
    0,
    0,
    0,
    0,
    0,
    0,
    0,
    0,
    0,
    0,
    0,
    0,
    0,
    0,
    0,
    0,
    0,
    0,
    0,
    0,
    0,
    0,
    0,
    0,
    0,
    0,
    0,
    0,
    0,
    0,
    0,
    0,
    0,
    0,
    0,
    0,
    0,
    0,
    0,
    0,
    0,
    0,
    0,
    0,
    0,
    0,
    0,
    0,
    0,
    0,
    0,
    0,
    0,
    0,
    0,
    0,
    0,
    0,
    0,
    0,
    0,
    0,
    0,
    0,
    0,
    0,
    0,
    0,
    0,
    0,
    0,
    0,
    0,
    0,
    0,
    0,
    0,
    0,
    0,
    0,
    0,
    0,
    0,
    0,
    0,
    0,
    0,
    0,
    5,
    7,
    7,
    2,
    1,
    2,
    5,
    7,
    5,
    4,
    1,
    7,
    7,
    5,
    5,
    5,
    3,
    7,
    3,
    6,
    2,
    3,
    7,
    3,
    4,
    8,
    3,
    7,
    5,
    3,
    7,
    2,
    3,
    7,
    8,
    1,
    6,
    7,
    5,
    8,
    7,
    6,
    8,
    4,
    5,
    3,
    7,
    8,
    3,
    6,
    1,
    2,
    1,
    3,
    8,
    7,
    6,
    5,
    1,
    3,
    3,
    4,
    6,
    2,
    0,
    0,
    0,
    0,
    0,
    0,
    0,
    0,
    0,
    0,
    0,
    0,
    0,
    0,
    0,
    0,
    0,
    0,
    0,
    0,
    0,
    0,
    0,
    0,
    0,
    0,
    0,
    0,
    0,
    0,
    0,
    0,
    0,
    0,
    0,
    0,
    0,
    0,
    0,
    0,
    0,
    0,
    0,
    0,
    0,
    0,
    0,
    0,
    0,
    0,
    0,
    0,
    0,
    0,
    0,
    0,
    0,
    0,
    0,
    0,
    0,
    0,
    0,
    0,
    0,
    0,
    0,
    0,
    0,
    0,
    0,
    0,
    0,
    0,
    0,
    0,
    0,
    0,
    0,
    0,
    0,
    0,
    0,
    0,
    0,
    0,
    0,
    0,
    0,
    0,
    0,
    0,
    0,
    0,
    0,
    0,
    0,
    0,
    0,
    0,
    0,
    0,
    0,
    0,
    0,
    0,
    0,
    0,
    0,
    0,
    0,
    0,
    0,
    0,
    0,
    0,
    0,
    0,
    0,
    0,
    1,
    5,
    6,
    6,
    5,
    6,
    1,
    7,
    3,
    4,
    3,
    5,
    7,
    1,
    6,
    3,
    4,
    6,
    4,
    5,
    4,
    4,
    8,
    7,
    5,
    1,
    3,
    1,
    8,
    2,
    4,
    6,
    6,
    2,
    4,
    3,
    2,
    3,
    7,
    4,
    4,
    6,
    1,
    3,
    5,
    4,
    7,
    7,
    6,
    8,
    3,
    4,
    3,
    8,
    7,
    3,
    6,
    1,
    1,
    7,
    4,
    2,
    2,
    1,
    0,
    0,
    0,
    0,
    0,
    0,
    0,
    0,
    0,
    0,
    0,
    0,
    0,
    0,
    0,
    0,
    0,
    0,
    0,
    0,
    0,
    0,
    0,
    0,
    0,
    0,
    0,
    0,
    0,
    0,
    0,
    0,
    0,
    0,
    0,
    0,
    0,
    0,
    0,
    0,
    0,
    0,
    0,
    0,
    0,
    0,
    0,
    0,
    0,
    0,
    0,
    0,
    0,
    0,
    0,
    0,
    0,
    0,
    0,
    0,
    0,
    0,
    0,
    0,
    0,
    0,
    0,
    0,
    0,
    0,
    0,
    0,
    0,
    0,
    0,
    0,
    0,
    0,
    0,
    0,
    0,
    0,
    0,
    0,
    0,
    0,
    0,
    0,
    0,
    0,
    0,
    0,
    0,
    0,
    0,
    0,
    0,
    0,
    0,
    0,
    0,
    0,
    0,
    0,
    0,
    0,
    0,
    0,
    0,
    0,
    0,
    0,
    0,
    0,
    0,
    0,
    0,
    0,
    0,
    0,
    8,
    3,
    7,
    3,
    2,
    7,
    1,
    4,
    8,
    4,
    6,
    5,
    4,
    5,
    8,
    1,
    7,
    1,
    7,
    6,
    4,
    2,
    6,
    4,
    1,
    1,
    7,
    1,
    3,
    3,
    5,
    8,
    5,
    3,
    7,
    7,
    3,
    2,
    8,
    6,
    5,
    2,
    5,
    2,
    3,
    4,
    2,
    3,
    1,
    3,
    7,
    4,
    2,
    6,
    5,
    5,
    5,
    2,
    7,
    6,
    1,
    2,
    3,
    4,
    0,
    0,
    0,
    0,
    0,
    0,
    0,
    0,
    0,
    0,
    0,
    0,
    0,
    0,
    0,
    0,
    0,
    0,
    0,
    0,
    0,
    0,
    0,
    0,
    0,
    0,
    0,
    0,
    0,
    0,
    0,
    0,
    0,
    0,
    0,
    0,
    0,
    0,
    0,
    0,
    0,
    0,
    0,
    0,
    0,
    0,
    0,
    0,
    0,
    0,
    0,
    0,
    0,
    0,
    0,
    0,
    0,
    0,
    0,
    0,
    0,
    0,
    0,
    0,
    0,
    0,
    0,
    0,
    0,
    0,
    0,
    0,
    0,
    0,
    0,
    0,
    0,
    0,
    0,
    0,
    0,
    0,
    0,
    0,
    0,
    0,
    0,
    0,
    0,
    0,
    0,
    0,
    0,
    0,
    0,
    0,
    0,
    0,
    0,
    0,
    0,
    0,
    0,
    0,
    0,
    0,
    0,
    0,
    0,
    0,
    0,
    0,
    0,
    0,
    0,
    0,
    0,
    0,
    0,
    0,
    1,
    6,
    8,
    8,
    4,
    5,
    7,
    8,
    5,
    8,
    1,
    3,
    6,
    3,
    1,
    4,
    1,
    5,
    6,
    8,
    2,
    4,
    7,
    2,
    5,
    3,
    3,
    5,
    8,
    1,
    5,
    4,
    8,
    6,
    3,
    8,
    8,
    2,
    5,
    7,
    3,
    6,
    8,
    6,
    7,
    1,
    8,
    4,
    5,
    2,
    1,
    1,
    8,
    5,
    5,
    6,
    1,
    5,
    7,
    7,
    2,
    8,
    1,
    7,
    0,
    0,
    0,
    0,
    0,
    0,
    0,
    0,
    0,
    0,
    0,
    0,
    0,
    0,
    0,
    0,
    0,
    0,
    0,
    0,
    0,
    0,
    0,
    0,
    0,
    0,
    0,
    0,
    0,
    0,
    0,
    0,
    0,
    0,
    0,
    0,
    0,
    0,
    0,
    0,
    0,
    0,
    0,
    0,
    0,
    0,
    0,
    0,
    0,
    0,
    0,
    0,
    0,
    0,
    0,
    0,
    0,
    0,
    0,
    0,
    0,
    0,
    0,
    0,
    0,
    0,
    0,
    0,
    0,
    0,
    0,
    0,
    0,
    0,
    0,
    0,
    0,
    0,
    0,
    0,
    0,
    0,
    0,
    0,
    0,
    0,
    0,
    0,
    0,
    0,
    0,
    0,
    0,
    0,
    0,
    0,
    0,
    0,
    0,
    0,
    0,
    0,
    0,
    0,
    0,
    0,
    0,
    0,
    0,
    0,
    0,
    0,
    0,
    0,
    0,
    0,
    0,
    0,
    0,
    0,
    3,
    5,
    7,
    4,
    6,
    8,
    3,
    3,
    8,
    6,
    1,
    6,
    3,
    2,
    6,
    3,
    8,
    8,
    6,
    7,
    7,
    3,
    7,
    7,
    2,
    6,
    6,
    6,
    3,
    6,
    5,
    8,
    2,
    3,
    2,
    4,
    7,
    8,
    7,
    7,
    2,
    8,
    8,
    2,
    6,
    2,
    6,
    1,
    4,
    3,
    5,
    1,
    7,
    4,
    8,
    6,
    6,
    1,
    1,
    2,
    4,
    1,
    2,
    8,
    0,
    0,
    0,
    0,
    0,
    0,
    0,
    0,
    0,
    0,
    0,
    0,
    0,
    0,
    0,
    0,
    0,
    0,
    0,
    0,
    0,
    0,
    0,
    0,
    0,
    0,
    0,
    0,
    0,
    0,
    0,
    0,
    0,
    0,
    0,
    0,
    0,
    0,
    0,
    0,
    0,
    0,
    0,
    0,
    0,
    0,
    0,
    0,
    0,
    0,
    0,
    0,
    0,
    0,
    0,
    0,
    0,
    0,
    0,
    0,
    0,
    0,
    0,
    0,
    0,
    0,
    0,
    0,
    0,
    0,
    0,
    0,
    0,
    0,
    0,
    0,
    0,
    0,
    0,
    0,
    0,
    0,
    0,
    0,
    0,
    0,
    0,
    0,
    0,
    0,
    0,
    0,
    0,
    0,
    0,
    0,
    0,
    0,
    0,
    0,
    0,
    0,
    0,
    0,
    0,
    0,
    0,
    0,
    0,
    0,
    0,
    0,
    0,
    0,
    0,
    0,
    0,
    0,
    0,
    0,
    2,
    2,
    5,
    7,
    4,
    6,
    8,
    7,
    8,
    3,
    1,
    6,
    3,
    7,
    2,
    2,
    7,
    8,
    5,
    3,
    8,
    6,
    4,
    6,
    4,
    3,
    6,
    6,
    6,
    4,
    8,
    2,
    5,
    8,
    1,
    5,
    4,
    3,
    6,
    3,
    6,
    1,
    4,
    7,
    1,
    4,
    3,
    1,
    8,
    2,
    3,
    3,
    3,
    4,
    7,
    2,
    1,
    4,
    8,
    3,
    4,
    2,
    2,
    6,
    0,
    0,
    0,
    0,
    0,
    0,
    0,
    0,
    0,
    0,
    0,
    0,
    0,
    0,
    0,
    0,
    0,
    0,
    0,
    0,
    0,
    0,
    0,
    0,
    0,
    0,
    0,
    0,
    0,
    0,
    0,
    0,
    0,
    0,
    0,
    0,
    0,
    0,
    0,
    0,
    0,
    0,
    0,
    0,
    0,
    0,
    0,
    0,
    0,
    0,
    0,
    0,
    0,
    0,
    0,
    0,
    0,
    0,
    0,
    0,
    0,
    0,
    0,
    0,
    0,
    0,
    0,
    0,
    0,
    0,
    0,
    0,
    0,
    0,
    0,
    0,
    0,
    0,
    0,
    0,
    0,
    0,
    0,
    0,
    0,
    0,
    0,
    0,
    0,
    0,
    0,
    0,
    0,
    0,
    0,
    0,
    0,
    0,
    0,
    0,
    0,
    0,
    0,
    0,
    0,
    0,
    0,
    0,
    0,
    0,
    0,
    0,
    0,
    0,
    0,
    0,
    0,
    0,
    0,
    0,
    2,
    8,
    8,
    6,
    3,
    5,
    2,
    1,
    1,
    8,
    5,
    8,
    7,
    5,
    6,
    7,
    6,
    6,
    5,
    3,
    2,
    5,
    2,
    1,
    8,
    7,
    6,
    1,
    3,
    1,
    3,
    7,
    7,
    1,
    5,
    7,
    1,
    6,
    4,
    6,
    6,
    1,
    2,
    8,
    1,
    6,
    5,
    7,
    8,
    2,
    8,
    6,
    8,
    3,
    5,
    5,
    5,
    8,
    6,
    3,
    5,
    1,
    1,
    3,
    0,
    0,
    0,
    0,
    0,
    0,
    0,
    0,
    0,
    0,
    0,
    0,
    0,
    0,
    0,
    0,
    0,
    0,
    0,
    0,
    0,
    0,
    0,
    0,
    0,
    0,
    0,
    0,
    0,
    0,
    0,
    0,
    0,
    0,
    0,
    0,
    0,
    0,
    0,
    0,
    0,
    0,
    0,
    0,
    0,
    0,
    0,
    0,
    0,
    0,
    0,
    0,
    0,
    0,
    0,
    0,
    0,
    0,
    0,
    0,
    0,
    0,
    0,
    0,
    0,
    0,
    0,
    0,
    0,
    0,
    0,
    0,
    0,
    0,
    0,
    0,
    0,
    0,
    0,
    0,
    0,
    0,
    0,
    0,
    0,
    0,
    0,
    0,
    0,
    0,
    0,
    0,
    0,
    0,
    0,
    0,
    0,
    0,
    0,
    0,
    0,
    0,
    0,
    0,
    0,
    0,
    0,
    0,
    0,
    0,
    0,
    0,
    0,
    0,
    0,
    0,
    0,
    0,
    0,
    0,
    2,
    3,
    4,
    7,
    6,
    6,
    4,
    7,
    3,
    8,
    3,
    6,
    3,
    2,
    4,
    6,
    6,
    4,
    5,
    8,
    2,
    7,
    3,
    3,
    8,
    6,
    8,
    6,
    5,
    5,
    2,
    8,
    2,
    8,
    8,
    4,
    8,
    3,
    3,
    4,
    3,
    8,
    8,
    3,
    4,
    3,
    8,
    2,
    2,
    6,
    4,
    1,
    4,
    5,
    4,
    5,
    3,
    4,
    3,
    8,
    6,
    8,
    4,
    5,
    0,
    0,
    0,
    0,
    0,
    0,
    0,
    0,
    0,
    0,
    0,
    0,
    0,
    0,
    0,
    0,
    0,
    0,
    0,
    0,
    0,
    0,
    0,
    0,
    0,
    0,
    0,
    0,
    0,
    0,
    0,
    0,
    0,
    0,
    0,
    0,
    0,
    0,
    0,
    0,
    0,
    0,
    0,
    0,
    0,
    0,
    0,
    0,
    0,
    0,
    0,
    0,
    0,
    0,
    0,
    0,
    0,
    0,
    0,
    0,
    0,
    0,
    0,
    0,
    0,
    0,
    0,
    0,
    0,
    0,
    0,
    0,
    0,
    0,
    0,
    0,
    0,
    0,
    0,
    0,
    0,
    0,
    0,
    0,
    0,
    0,
    0,
    0,
    0,
    0,
    0,
    0,
    0,
    0,
    0,
    0,
    0,
    0,
    0,
    0,
    0,
    0,
    0,
    0,
    0,
    0,
    0,
    0,
    0,
    0,
    0,
    0,
    0,
    0,
    0,
    0,
    0,
    0,
    0,
    0,
    1,
    4,
    7,
    7,
    2,
    1,
    6,
    1,
    8,
    5,
    4,
    6,
    7,
    8,
    2,
    6,
    3,
    2,
    5,
    6,
    5,
    2,
    3,
    1,
    5,
    6,
    2,
    8,
    8,
    5,
    5,
    4,
    8,
    4,
    7,
    2,
    2,
    6,
    7,
    7,
    1,
    6,
    6,
    5,
    4,
    5,
    1,
    7,
    4,
    6,
    8,
    8,
    1,
    3,
    3,
    7,
    7,
    1,
    6,
    1,
    7,
    2,
    4,
    1,
    0,
    0,
    0,
    0,
    0,
    0,
    0,
    0,
    0,
    0,
    0,
    0,
    0,
    0,
    0,
    0,
    0,
    0,
    0,
    0,
    0,
    0,
    0,
    0,
    0,
    0,
    0,
    0,
    0,
    0,
    0,
    0,
    0,
    0,
    0,
    0,
    0,
    0,
    0,
    0,
    0,
    0,
    0,
    0,
    0,
    0,
    0,
    0,
    0,
    0,
    0,
    0,
    0,
    0,
    0,
    0,
    0,
    0,
    0,
    0,
    0,
    0,
    0,
    0,
    0,
    0,
    0,
    0,
    0,
    0,
    0,
    0,
    0,
    0,
    0,
    0,
    0,
    0,
    0,
    0,
    0,
    0,
    0,
    0,
    0,
    0,
    0,
    0,
    0,
    0,
    0,
    0,
    0,
    0,
    0,
    0,
    0,
    0,
    0,
    0,
    0,
    0,
    0,
    0,
    0,
    0,
    0,
    0,
    0,
    0,
    0,
    0,
    0,
    0,
    0,
    0,
    0,
    0,
    0,
    0,
    3,
    7,
    4,
    7,
    8,
    5,
    3,
    2,
    1,
    3,
    2,
    5,
    2,
    6,
    1,
    1,
    4,
    2,
    6,
    2,
    5,
    6,
    2,
    6,
    2,
    1,
    7,
    4,
    6,
    6,
    8,
    2,
    5,
    6,
    8,
    7,
    4,
    6,
    8,
    4,
    4,
    4,
    6,
    6,
    3,
    8,
    5,
    7,
    7,
    6,
    4,
    2,
    2,
    6,
    8,
    4,
    7,
    6,
    1,
    4,
    6,
    2,
    8,
    4,
    0,
    0,
    0,
    0,
    0,
    0,
    0,
    0,
    0,
    0,
    0,
    0,
    0,
    0,
    0,
    0,
    0,
    0,
    0,
    0,
    0,
    0,
    0,
    0,
    0,
    0,
    0,
    0,
    0,
    0,
    0,
    0,
    0,
    0,
    0,
    0,
    0,
    0,
    0,
    0,
    0,
    0,
    0,
    0,
    0,
    0,
    0,
    0,
    0,
    0,
    0,
    0,
    0,
    0,
    0,
    0,
    0,
    0,
    0,
    0,
    0,
    0,
    0,
    0,
    0,
    0,
    0,
    0,
    0,
    0,
    0,
    0,
    0,
    0,
    0,
    0,
    0,
    0,
    0,
    0,
    0,
    0,
    0,
    0,
    0,
    0,
    0,
    0,
    0,
    0,
    0,
    0,
    0,
    0,
    0,
    0,
    0,
    0,
    0,
    0,
    0,
    0,
    0,
    0,
    0,
    0,
    0,
    0,
    0,
    0,
    0,
    0,
    0,
    0,
    0,
    0,
    0,
    0,
    0,
    0,
    6,
    5,
    7,
    8,
    7,
    8,
    1,
    2,
    1,
    6,
    3,
    8,
    5,
    4,
    6,
    3,
    2,
    8,
    4,
    2,
    8,
    2,
    1,
    2,
    3,
    4,
    4,
    2,
    2,
    2,
    2,
    8,
    3,
    2,
    5,
    6,
    4,
    8,
    7,
    3,
    2,
    6,
    1,
    7,
    4,
    8,
    7,
    7,
    4,
    7,
    1,
    8,
    4,
    4,
    7,
    8,
    7,
    1,
    4,
    6,
    3,
    8,
    1,
    4,
    0,
    0,
    0,
    0,
    0,
    0,
    0,
    0,
    0,
    0,
    0,
    0,
    0,
    0,
    0,
    0,
    0,
    0,
    0,
    0,
    0,
    0,
    0,
    0,
    0,
    0,
    0,
    0,
    0,
    0,
    0,
    0,
    0,
    0,
    0,
    0,
    0,
    0,
    0,
    0,
    0,
    0,
    0,
    0,
    0,
    0,
    0,
    0,
    0,
    0,
    0,
    0,
    0,
    0,
    0,
    0,
    0,
    0,
    0,
    0,
    0,
    0,
    0,
    0,
    0,
    0,
    0,
    0,
    0,
    0,
    0,
    0,
    0,
    0,
    0,
    0,
    0,
    0,
    0,
    0,
    0,
    0,
    0,
    0,
    0,
    0,
    0,
    0,
    0,
    0,
    0,
    0,
    0,
    0,
    0,
    0,
    0,
    0,
    0,
    0,
    0,
    0,
    0,
    0,
    0,
    0,
    0,
    0,
    0,
    0,
    0,
    0,
    0,
    0,
    0,
    0,
    0,
    0,
    0,
    0,
    8,
    6,
    8,
    3,
    5,
    6,
    4,
    4,
    4,
    2,
    8,
    3,
    1,
    3,
    7,
    8,
    8,
    3,
    6,
    7,
    7,
    5,
    7,
    1,
    3,
    6,
    4,
    7,
    7,
    3,
    4,
    7,
    3,
    4,
    6,
    6,
    2,
    7,
    4,
    7,
    2,
    1,
    4,
    1,
    6,
    4,
    2,
    5,
    4,
    4,
    3,
    7,
    8,
    4,
    4,
    8,
    7,
    6,
    3,
    2,
    6,
    1,
    5,
    6,
    0,
    0,
    0,
    0,
    0,
    0,
    0,
    0,
    0,
    0,
    0,
    0,
    0,
    0,
    0,
    0,
    0,
    0,
    0,
    0,
    0,
    0,
    0,
    0,
    0,
    0,
    0,
    0,
    0,
    0,
    0,
    0,
    0,
    0,
    0,
    0,
    0,
    0,
    0,
    0,
    0,
    0,
    0,
    0,
    0,
    0,
    0,
    0,
    0,
    0,
    0,
    0,
    0,
    0,
    0,
    0,
    0,
    0,
    0,
    0,
    0,
    0,
    0,
    0,
    0,
    0,
    0,
    0,
    0,
    0,
    0,
    0,
    0,
    0,
    0,
    0,
    0,
    0,
    0,
    0,
    0,
    0,
    0,
    0,
    0,
    0,
    0,
    0,
    0,
    0,
    0,
    0,
    0,
    0,
    0,
    0,
    0,
    0,
    0,
    0,
    0,
    0,
    0,
    0,
    0,
    0,
    0,
    0,
    0,
    0,
    0,
    0,
    0,
    0,
    0,
    0,
    0,
    0,
    0,
    0,
    6,
    6,
    2,
    6,
    1,
    8,
    6,
    4,
    2,
    7,
    6,
    2,
    7,
    1,
    7,
    3,
    4,
    8,
    8,
    5,
    5,
    7,
    6,
    2,
    7,
    5,
    6,
    4,
    8,
    4,
    8,
    6,
    7,
    6,
    4,
    5,
    6,
    8,
    3,
    5,
    7,
    4,
    1,
    8,
    1,
    1,
    4,
    8,
    4,
    8,
    1,
    1,
    5,
    2,
    6,
    8,
    5,
    4,
    2,
    7,
    1,
    8,
    2,
    3,
    0,
    0,
    0,
    0,
    0,
    0,
    0,
    0,
    0,
    0,
    0,
    0,
    0,
    0,
    0,
    0,
    0,
    0,
    0,
    0,
    0,
    0,
    0,
    0,
    0,
    0,
    0,
    0,
    0,
    0,
    0,
    0,
    0,
    0,
    0,
    0,
    0,
    0,
    0,
    0,
    0,
    0,
    0,
    0,
    0,
    0,
    0,
    0,
    0,
    0,
    0,
    0,
    0,
    0,
    0,
    0,
    0,
    0,
    0,
    0,
    0,
    0,
    0,
    0,
    0,
    0,
    0,
    0,
    0,
    0,
    0,
    0,
    0,
    0,
    0,
    0,
    0,
    0,
    0,
    0,
    0,
    0,
    0,
    0,
    0,
    0,
    0,
    0,
    0,
    0,
    0,
    0,
    0,
    0,
    0,
    0,
    0,
    0,
    0,
    0,
    0,
    0,
    0,
    0,
    0,
    0,
    0,
    0,
    0,
    0,
    0,
    0,
    0,
    0,
    0,
    0,
    0,
    0,
    0,
    0,
    6,
    7,
    2,
    5,
    5,
    1,
    1,
    7,
    8,
    3,
    2,
    2,
    3,
    7,
    2,
    1,
    6,
    6,
    4,
    8,
    6,
    5,
    1,
    4,
    5,
    2,
    1,
    5,
    5,
    3,
    7,
    8,
    7,
    2,
    7,
    7,
    4,
    7,
    2,
    4,
    2,
    4,
    5,
    5,
    4,
    2,
    1,
    6,
    4,
    6,
    1,
    5,
    8,
    2,
    5,
    8,
    2,
    3,
    3,
    5,
    6,
    5,
    4,
    5,
    0,
    0,
    0,
    0,
    0,
    0,
    0,
    0,
    0,
    0,
    0,
    0,
    0,
    0,
    0,
    0,
    0,
    0,
    0,
    0,
    0,
    0,
    0,
    0,
    0,
    0,
    0,
    0,
    0,
    0,
    0,
    0,
    0,
    0,
    0,
    0,
    0,
    0,
    0,
    0,
    0,
    0,
    0,
    0,
    0,
    0,
    0,
    0,
    0,
    0,
    0,
    0,
    0,
    0,
    0,
    0,
    0,
    0,
    0,
    0,
    0,
    0,
    0,
    0,
    0,
    0,
    0,
    0,
    0,
    0,
    0,
    0,
    0,
    0,
    0,
    0,
    0,
    0,
    0,
    0,
    0,
    0,
    0,
    0,
    0,
    0,
    0,
    0,
    0,
    0,
    0,
    0,
    0,
    0,
    0,
    0,
    0,
    0,
    0,
    0,
    0,
    0,
    0,
    0,
    0,
    0,
    0,
    0,
    0,
    0,
    0,
    0,
    0,
    0,
    0,
    0,
    0,
    0,
    0,
    0,
    5,
    5,
    4,
    8,
    2,
    3,
    4,
    7,
    1,
    2,
    1,
    2,
    7,
    7,
    7,
    8,
    1,
    1,
    2,
    8,
    7,
    3,
    2,
    3,
    7,
    8,
    6,
    8,
    5,
    7,
    3,
    3,
    6,
    8,
    1,
    6,
    5,
    5,
    6,
    3,
    3,
    6,
    5,
    1,
    7,
    3,
    8,
    1,
    8,
    6,
    6,
    7,
    6,
    7,
    5,
    7,
    6,
    6,
    7,
    3,
    2,
    4,
    6,
    8,
    0,
    0,
    0,
    0,
    0,
    0,
    0,
    0,
    0,
    0,
    0,
    0,
    0,
    0,
    0,
    0,
    0,
    0,
    0,
    0,
    0,
    0,
    0,
    0,
    0,
    0,
    0,
    0,
    0,
    0,
    0,
    0,
    0,
    0,
    0,
    0,
    0,
    0,
    0,
    0,
    0,
    0,
    0,
    0,
    0,
    0,
    0,
    0,
    0,
    0,
    0,
    0,
    0,
    0,
    0,
    0,
    0,
    0,
    0,
    0,
    0,
    0,
    0,
    0,
    0,
    0,
    0,
    0,
    0,
    0,
    0,
    0,
    0,
    0,
    0,
    0,
    0,
    0,
    0,
    0,
    0,
    0,
    0,
    0,
    0,
    0,
    0,
    0,
    0,
    0,
    0,
    0,
    0,
    0,
    0,
    0,
    0,
    0,
    0,
    0,
    0,
    0,
    0,
    0,
    0,
    0,
    0,
    0,
    0,
    0,
    0,
    0,
    0,
    0,
    0,
    0,
    0,
    0,
    0,
    0,
    2,
    6,
    7,
    6,
    6,
    4,
    1,
    8,
    4,
    3,
    5,
    3,
    7,
    2,
    6,
    8,
    3,
    2,
    3,
    7,
    7,
    4,
    7,
    4,
    5,
    8,
    1,
    1,
    7,
    4,
    3,
    2,
    5,
    6,
    4,
    5,
    8,
    7,
    3,
    5,
    1,
    2,
    7,
    8,
    3,
    7,
    1,
    6,
    5,
    2,
    3,
    7,
    7,
    6,
    7,
    4,
    1,
    2,
    5,
    2,
    6,
    4,
    4,
    8,
    0,
    0,
    0,
    0,
    0,
    0,
    0,
    0,
    0,
    0,
    0,
    0,
    0,
    0,
    0,
    0,
    0,
    0,
    0,
    0,
    0,
    0,
    0,
    0,
    0,
    0,
    0,
    0,
    0,
    0,
    0,
    0,
    0,
    0,
    0,
    0,
    0,
    0,
    0,
    0,
    0,
    0,
    0,
    0,
    0,
    0,
    0,
    0,
    0,
    0,
    0,
    0,
    0,
    0,
    0,
    0,
    0,
    0,
    0,
    0,
    0,
    0,
    0,
    0,
    0,
    0,
    0,
    0,
    0,
    0,
    0,
    0,
    0,
    0,
    0,
    0,
    0,
    0,
    0,
    0,
    0,
    0,
    0,
    0,
    0,
    0,
    0,
    0,
    0,
    0,
    0,
    0,
    0,
    0,
    0,
    0,
    0,
    0,
    0,
    0,
    0,
    0,
    0,
    0,
    0,
    0,
    0,
    0,
    0,
    0,
    0,
    0,
    0,
    0,
    0,
    0,
    0,
    0,
    0,
    0,
    2,
    3,
    6,
    8,
    4,
    1,
    8,
    5,
    7,
    5,
    3,
    7,
    8,
    1,
    2,
    8,
    2,
    3,
    8,
    4,
    6,
    3,
    7,
    4,
    3,
    6,
    6,
    7,
    6,
    6,
    1,
    1,
    2,
    4,
    8,
    2,
    8,
    1,
    3,
    2,
    7,
    8,
    6,
    8,
    8,
    3,
    8,
    1,
    2,
    1,
    8,
    8,
    7,
    3,
    6,
    4,
    3,
    7,
    2,
    3,
    5,
    7,
    3,
    8,
    0,
    0,
    0,
    0,
    0,
    0,
    0,
    0,
    0,
    0,
    0,
    0,
    0,
    0,
    0,
    0,
    0,
    0,
    0,
    0,
    0,
    0,
    0,
    0,
    0,
    0,
    0,
    0,
    0,
    0,
    0,
    0,
    0,
    0,
    0,
    0,
    0,
    0,
    0,
    0,
    0,
    0,
    0,
    0,
    0,
    0,
    0,
    0,
    0,
    0,
    0,
    0,
    0,
    0,
    0,
    0,
    0,
    0,
    0,
    0,
    0,
    0,
    0,
    0,
    0,
    0,
    0,
    0,
    0,
    0,
    0,
    0,
    0,
    0,
    0,
    0,
    0,
    0,
    0,
    0,
    0,
    0,
    0,
    0,
    0,
    0,
    0,
    0,
    0,
    0,
    0,
    0,
    0,
    0,
    0,
    0,
    0,
    0,
    0,
    0,
    0,
    0,
    0,
    0,
    0,
    0,
    0,
    0,
    0,
    0,
    0,
    0,
    0,
    0,
    0,
    0,
    0,
    0,
    0,
    0,
    8,
    6,
    4,
    1,
    8,
    3,
    2,
    4,
    6,
    8,
    1,
    1,
    3,
    5,
    4,
    3,
    8,
    1,
    6,
    4,
    8,
    2,
    7,
    2,
    4,
    1,
    6,
    4,
    1,
    8,
    5,
    1,
    4,
    7,
    5,
    7,
    5,
    6,
    3,
    6,
    4,
    8,
    1,
    7,
    3,
    5,
    6,
    4,
    1,
    1,
    5,
    3,
    6,
    1,
    6,
    4,
    8,
    8,
    4,
    3,
    1,
    6,
    1,
    7,
    0,
    0,
    0,
    0,
    0,
    0,
    0,
    0,
    0,
    0,
    0,
    0,
    0,
    0,
    0,
    0,
    0,
    0,
    0,
    0,
    0,
    0,
    0,
    0,
    0,
    0,
    0,
    0,
    0,
    0,
    0,
    0,
    0,
    0,
    0,
    0,
    0,
    0,
    0,
    0,
    0,
    0,
    0,
    0,
    0,
    0,
    0,
    0,
    0,
    0,
    0,
    0,
    0,
    0,
    0,
    0,
    0,
    0,
    0,
    0,
    0,
    0,
    0,
    0,
    0,
    0,
    0,
    0,
    0,
    0,
    0,
    0,
    0,
    0,
    0,
    0,
    0,
    0,
    0,
    0,
    0,
    0,
    0,
    0,
    0,
    0,
    0,
    0,
    0,
    0,
    0,
    0,
    0,
    0,
    0,
    0,
    0,
    0,
    0,
    0,
    0,
    0,
    0,
    0,
    0,
    0,
    0,
    0,
    0,
    0,
    0,
    0,
    0,
    0,
    0,
    0,
    0,
    0,
    0,
    0,
    3,
    2,
    8,
    4,
    5,
    6,
    2,
    8,
    3,
    8,
    2,
    4,
    8,
    4,
    4,
    7,
    5,
    7,
    2,
    3,
    7,
    1,
    4,
    4,
    4,
    3,
    8,
    8,
    5,
    5,
    6,
    1,
    2,
    7,
    8,
    1,
    5,
    1,
    6,
    1,
    7,
    2,
    7,
    6,
    7,
    1,
    7,
    6,
    7,
    8,
    2,
    8,
    1,
    6,
    5,
    1,
    8,
    1,
    5,
    6,
    8,
    4,
    4,
    4,
    0,
    0,
    0,
    0,
    0,
    0,
    0,
    0,
    0,
    0,
    0,
    0,
    0,
    0,
    0,
    0,
    0,
    0,
    0,
    0,
    0,
    0,
    0,
    0,
    0,
    0,
    0,
    0,
    0,
    0,
    0,
    0,
    0,
    0,
    0,
    0,
    0,
    0,
    0,
    0,
    0,
    0,
    0,
    0,
    0,
    0,
    0,
    0,
    0,
    0,
    0,
    0,
    0,
    0,
    0,
    0,
    0,
    0,
    0,
    0,
    0,
    0,
    0,
    0,
    0,
    0,
    0,
    0,
    0,
    0,
    0,
    0,
    0,
    0,
    0,
    0,
    0,
    0,
    0,
    0,
    0,
    0,
    0,
    0,
    0,
    0,
    0,
    0,
    0,
    0,
    0,
    0,
    0,
    0,
    0,
    0,
    0,
    0,
    0,
    0,
    0,
    0,
    0,
    0,
    0,
    0,
    0,
    0,
    0,
    0,
    0,
    0,
    0,
    0,
    0,
    0,
    0,
    0,
    0,
    0,
    7,
    4,
    1,
    5,
    1,
    4,
    3,
    5,
    1,
    8,
    3,
    1,
    4,
    8,
    2,
    2,
    7,
    3,
    5,
    3,
    4,
    1,
    7,
    3,
    4,
    7,
    3,
    6,
    6,
    1,
    8,
    4,
    4,
    8,
    1,
    7,
    7,
    5,
    7,
    5,
    6,
    8,
    3,
    8,
    4,
    4,
    5,
    1,
    2,
    4,
    3,
    6,
    5,
    6,
    1,
    7,
    2,
    7,
    6,
    1,
    1,
    3,
    3,
    7,
    0,
    0,
    0,
    0,
    0,
    0,
    0,
    0,
    0,
    0,
    0,
    0,
    0,
    0,
    0,
    0,
    0,
    0,
    0,
    0,
    0,
    0,
    0,
    0,
    1,
    1,
    1,
    1,
    1,
    1,
    1,
    1,
    1,
    25,
    25,
    1,
    1,
    1,
    1,
    1,
    1,
    1,
    1,
    1,
    1,
    1,
    1,
    1,
    1,
    1,
    1,
    1,
    1,
    1,
    1,
    1,
    1,
    1,
    1,
    1,
    1,
    1,
    1,
    1,
    1,
    1,
    1,
    1,
    1,
    1,
    1,
    1,
    8,
    6,
    3,
    7,
    3,
    7,
    5,
    4,
    2,
    1,
    6,
    1,
    7,
    2,
    4,
    3,
    2,
    3,
    3,
    2,
    7,
    6,
    5,
    6,
    3,
    8,
    4,
    5,
    2,
    3,
    7,
    6,
    7,
    6,
    5,
    6,
    1,
    4,
    4,
    1,
    7,
    2,
    5,
    2,
    2,
    6,
    2,
    1,
    5,
    2,
    5,
    5,
    1,
    1,
    2,
    4,
    2,
    7,
    1,
    7,
    6,
    6,
    1,
    7,
    2,
    6,
    3,
    6,
    6,
    1,
    2,
    6,
    2,
    3,
    1,
    6,
    1,
    5,
    7,
    5,
    7,
    8,
    4,
    2,
    4,
    1,
    8,
    6,
    1,
    3,
    2,
    4,
    3,
    1,
    6,
    8,
    5,
    4,
    2,
    3,
    4,
    1,
    1,
    2,
    6,
    8,
    7,
    4,
    8,
    6,
    6,
    7,
    0,
    0,
    0,
    0,
    0,
    0,
    0,
    0,
    0,
    0,
    0,
    0,
    0,
    0,
    0,
    0,
    0,
    0,
    0,
    0,
    0,
    0,
    0,
    0,
    1,
    1,
    1,
    1,
    1,
    1,
    1,
    1,
    1,
    1,
    25,
    25,
    1,
    1,
    1,
    1,
    1,
    1,
    1,
    1,
    1,
    1,
    1,
    1,
    1,
    1,
    1,
    1,
    1,
    1,
    1,
    1,
    1,
    1,
    1,
    1,
    1,
    1,
    1,
    1,
    1,
    1,
    1,
    1,
    1,
    1,
    1,
    1,
    2,
    2,
    1,
    2,
    1,
    1,
    6,
    3,
    6,
    5,
    2,
    4,
    4,
    4,
    3,
    1,
    4,
    4,
    7,
    3,
    2,
    5,
    8,
    1,
    1,
    7,
    6,
    2,
    6,
    8,
    5,
    3,
    3,
    2,
    7,
    8,
    4,
    2,
    5,
    8,
    3,
    7,
    7,
    8,
    3,
    2,
    4,
    7,
    5,
    6,
    1,
    4,
    4,
    3,
    7,
    1,
    4,
    6,
    5,
    8,
    1,
    2,
    6,
    8,
    2,
    6,
    2,
    6,
    6,
    1,
    7,
    3,
    1,
    3,
    6,
    6,
    6,
    7,
    6,
    5,
    2,
    7,
    1,
    5,
    5,
    5,
    6,
    8,
    3,
    7,
    3,
    6,
    3,
    6,
    4,
    3,
    5,
    5,
    1,
    7,
    7,
    7,
    6,
    7,
    4,
    5,
    8,
    1,
    1,
    7,
    5,
    6,
    0,
    0,
    0,
    0,
    0,
    0,
    0,
    0,
    0,
    0,
    0,
    0,
    0,
    0,
    0,
    0,
    0,
    0,
    0,
    0,
    0,
    0,
    0,
    0,
    1,
    1,
    1,
    1,
    1,
    1,
    1,
    1,
    1,
    1,
    25,
    25,
    1,
    1,
    1,
    1,
    1,
    1,
    1,
    1,
    1,
    1,
    1,
    1,
    1,
    1,
    1,
    1,
    1,
    1,
    1,
    1,
    1,
    1,
    1,
    1,
    1,
    1,
    1,
    1,
    1,
    1,
    1,
    1,
    1,
    1,
    1,
    1,
    1,
    3,
    2,
    3,
    1,
    7,
    2,
    4,
    3,
    6,
    2,
    1,
    7,
    2,
    8,
    7,
    4,
    5,
    6,
    8,
    3,
    2,
    7,
    8,
    1,
    6,
    7,
    1,
    5,
    4,
    1,
    3,
    3,
    1,
    6,
    7,
    6,
    5,
    4,
    1,
    3,
    6,
    7,
    6,
    2,
    3,
    2,
    6,
    5,
    1,
    2,
    8,
    7,
    7,
    7,
    2,
    8,
    2,
    2,
    3,
    6,
    7,
    3,
    3,
    1,
    6,
    7,
    6,
    1,
    3,
    4,
    8,
    8,
    8,
    7,
    6,
    4,
    3,
    5,
    7,
    5,
    4,
    4,
    4,
    1,
    5,
    2,
    6,
    1,
    1,
    8,
    6,
    6,
    7,
    2,
    4,
    8,
    4,
    1,
    7,
    6,
    1,
    3,
    5,
    8,
    3,
    1,
    2,
    5,
    4,
    2,
    8,
    0,
    0,
    0,
    0,
    0,
    0,
    0,
    0,
    0,
    0,
    0,
    0,
    0,
    0,
    0,
    0,
    0,
    0,
    0,
    0,
    0,
    0,
    0,
    0,
    1,
    1,
    1,
    1,
    1,
    1,
    1,
    1,
    1,
    1,
    1,
    25,
    25,
    25,
    25,
    1,
    1,
    25,
    25,
    25,
    1,
    1,
    1,
    1,
    1,
    1,
    1,
    1,
    1,
    1,
    1,
    1,
    1,
    1,
    1,
    1,
    1,
    1,
    1,
    1,
    1,
    1,
    1,
    1,
    1,
    1,
    1,
    1,
    1,
    4,
    8,
    8,
    3,
    2,
    2,
    7,
    4,
    4,
    5,
    7,
    2,
    2,
    4,
    4,
    8,
    8,
    7,
    1,
    5,
    7,
    2,
    8,
    5,
    5,
    1,
    6,
    3,
    5,
    3,
    2,
    4,
    5,
    1,
    4,
    2,
    7,
    2,
    1,
    3,
    2,
    2,
    7,
    6,
    4,
    2,
    6,
    4,
    6,
    1,
    3,
    8,
    2,
    3,
    5,
    6,
    7,
    2,
    4,
    2,
    4,
    8,
    6,
    4,
    1,
    8,
    6,
    2,
    7,
    2,
    7,
    4,
    8,
    7,
    7,
    5,
    5,
    2,
    4,
    5,
    1,
    4,
    5,
    4,
    2,
    2,
    1,
    6,
    5,
    1,
    7,
    8,
    3,
    4,
    7,
    7,
    5,
    3,
    2,
    3,
    1,
    1,
    4,
    4,
    1,
    5,
    3,
    6,
    1,
    6,
    6,
    0,
    0,
    0,
    0,
    0,
    0,
    0,
    0,
    0,
    0,
    0,
    0,
    0,
    0,
    0,
    0,
    0,
    0,
    0,
    0,
    0,
    0,
    0,
    0,
    1,
    1,
    1,
    1,
    1,
    1,
    1,
    1,
    1,
    1,
    1,
    1,
    25,
    25,
    25,
    25,
    25,
    25,
    25,
    25,
    25,
    25,
    1,
    1,
    1,
    1,
    1,
    1,
    1,
    1,
    1,
    1,
    1,
    1,
    1,
    1,
    1,
    1,
    1,
    1,
    1,
    1,
    1,
    1,
    1,
    1,
    1,
    1,
    1,
    3,
    6,
    6,
    8,
    4,
    1,
    3,
    7,
    7,
    3,
    4,
    1,
    4,
    6,
    4,
    2,
    7,
    7,
    5,
    4,
    6,
    3,
    5,
    4,
    4,
    1,
    5,
    1,
    7,
    1,
    2,
    3,
    1,
    4,
    1,
    8,
    7,
    8,
    4,
    2,
    8,
    1,
    8,
    2,
    5,
    3,
    3,
    5,
    4,
    1,
    1,
    1,
    5,
    5,
    1,
    1,
    5,
    5,
    8,
    1,
    4,
    3,
    7,
    6,
    7,
    6,
    7,
    3,
    5,
    1,
    6,
    1,
    4,
    2,
    3,
    1,
    7,
    3,
    2,
    3,
    1,
    3,
    6,
    3,
    4,
    4,
    8,
    1,
    1,
    2,
    2,
    7,
    7,
    1,
    5,
    8,
    4,
    8,
    8,
    8,
    7,
    6,
    8,
    1,
    3,
    6,
    1,
    5,
    6,
    8,
    4,
    0,
    0,
    0,
    0,
    0,
    0,
    0,
    0,
    0,
    0,
    0,
    0,
    0,
    0,
    0,
    0,
    0,
    0,
    0,
    0,
    0,
    0,
    0,
    0,
    1,
    1,
    1,
    1,
    1,
    1,
    1,
    1,
    1,
    1,
    1,
    1,
    1,
    1,
    1,
    25,
    25,
    1,
    1,
    1,
    25,
    25,
    25,
    1,
    1,
    1,
    1,
    1,
    1,
    1,
    1,
    1,
    1,
    1,
    1,
    1,
    1,
    1,
    1,
    1,
    1,
    1,
    1,
    1,
    1,
    1,
    1,
    1,
    3,
    1,
    1,
    6,
    3,
    1,
    1,
    1,
    2,
    3,
    3,
    7,
    5,
    2,
    8,
    8,
    1,
    3,
    4,
    4,
    1,
    7,
    1,
    4,
    7,
    2,
    4,
    5,
    2,
    3,
    7,
    8,
    1,
    6,
    2,
    5,
    1,
    8,
    3,
    1,
    4,
    3,
    2,
    1,
    7,
    4,
    6,
    4,
    6,
    7,
    5,
    2,
    4,
    6,
    3,
    5,
    3,
    6,
    7,
    1,
    4,
    8,
    2,
    3,
    3,
    6,
    4,
    1,
    4,
    4,
    3,
    2,
    2,
    1,
    5,
    4,
    4,
    8,
    1,
    2,
    8,
    8,
    6,
    3,
    1,
    5,
    1,
    2,
    1,
    2,
    3,
    4,
    1,
    8,
    3,
    6,
    5,
    4,
    7,
    5,
    1,
    3,
    5,
    1,
    7,
    8,
    4,
    8,
    2,
    3,
    7,
    8,
    0,
    0,
    0,
    0,
    0,
    0,
    0,
    0,
    0,
    0,
    0,
    0,
    0,
    0,
    0,
    0,
    0,
    0,
    0,
    0,
    0,
    0,
    0,
    0,
    1,
    1,
    1,
    1,
    1,
    1,
    1,
    1,
    1,
    1,
    1,
    1,
    1,
    1,
    1,
    1,
    1,
    1,
    1,
    1,
    1,
    1,
    25,
    25,
    1,
    1,
    1,
    1,
    1,
    1,
    1,
    1,
    1,
    1,
    25,
    25,
    1,
    1,
    1,
    1,
    1,
    1,
    1,
    1,
    1,
    1,
    1,
    1,
    4,
    2,
    8,
    2,
    1,
    3,
    1,
    1,
    4,
    7,
    6,
    8,
    2,
    6,
    7,
    1,
    8,
    1,
    3,
    4,
    3,
    3,
    6,
    5,
    8,
    4,
    4,
    4,
    5,
    4,
    3,
    1,
    3,
    2,
    8,
    7,
    6,
    6,
    1,
    5,
    7,
    7,
    8,
    3,
    8,
    5,
    4,
    8,
    7,
    6,
    2,
    3,
    3,
    5,
    3,
    6,
    5,
    6,
    5,
    3,
    6,
    7,
    1,
    3,
    2,
    1,
    2,
    7,
    2,
    6,
    1,
    3,
    6,
    7,
    6,
    4,
    6,
    5,
    4,
    5,
    6,
    1,
    7,
    5,
    5,
    2,
    4,
    3,
    2,
    8,
    6,
    3,
    5,
    4,
    1,
    8,
    5,
    5,
    8,
    1,
    5,
    6,
    1,
    1,
    6,
    4,
    8,
    2,
    4,
    4,
    4,
    2,
    0,
    0,
    0,
    0,
    0,
    0,
    0,
    0,
    0,
    0,
    0,
    0,
    0,
    0,
    0,
    0,
    0,
    0,
    0,
    0,
    0,
    0,
    0,
    0,
    1,
    1,
    1,
    1,
    1,
    1,
    1,
    1,
    1,
    1,
    1,
    1,
    1,
    1,
    1,
    1,
    1,
    1,
    1,
    1,
    1,
    1,
    1,
    25,
    25,
    1,
    1,
    1,
    1,
    1,
    1,
    1,
    1,
    25,
    25,
    25,
    25,
    25,
    1,
    1,
    1,
    1,
    1,
    1,
    1,
    1,
    1,
    1,
    6,
    3,
    2,
    4,
    3,
    3,
    3,
    7,
    8,
    7,
    2,
    5,
    7,
    5,
    1,
    5,
    7,
    7,
    6,
    8,
    7,
    2,
    3,
    1,
    7,
    6,
    3,
    4,
    6,
    7,
    2,
    1,
    7,
    2,
    3,
    8,
    2,
    5,
    4,
    3,
    2,
    6,
    7,
    6,
    2,
    8,
    7,
    6,
    6,
    8,
    7,
    1,
    4,
    4,
    2,
    3,
    4,
    5,
    3,
    8,
    6,
    5,
    2,
    4,
    3,
    4,
    1,
    2,
    7,
    2,
    3,
    7,
    3,
    3,
    2,
    4,
    4,
    7,
    2,
    7,
    1,
    5,
    6,
    4,
    4,
    5,
    8,
    1,
    2,
    8,
    4,
    3,
    6,
    7,
    1,
    5,
    7,
    7,
    4,
    5,
    4,
    3,
    1,
    1,
    7,
    4,
    1,
    2,
    7,
    6,
    3,
    5,
    0,
    0,
    0,
    0,
    0,
    0,
    0,
    0,
    0,
    0,
    0,
    0,
    0,
    0,
    0,
    0,
    0,
    0,
    0,
    0,
    0,
    0,
    0,
    0,
    1,
    1,
    1,
    1,
    1,
    1,
    1,
    1,
    1,
    1,
    1,
    1,
    1,
    1,
    1,
    1,
    1,
    1,
    1,
    1,
    1,
    1,
    1,
    1,
    25,
    25,
    1,
    1,
    1,
    1,
    1,
    1,
    25,
    25,
    1,
    1,
    25,
    25,
    25,
    1,
    1,
    1,
    1,
    1,
    1,
    1,
    1,
    1,
    8,
    6,
    2,
    6,
    4,
    1,
    7,
    4,
    2,
    4,
    5,
    5,
    5,
    6,
    8,
    4,
    2,
    6,
    6,
    1,
    1,
    8,
    7,
    8,
    6,
    2,
    2,
    1,
    6,
    8,
    6,
    3,
    8,
    2,
    1,
    8,
    8,
    3,
    6,
    6,
    4,
    2,
    6,
    4,
    8,
    7,
    1,
    1,
    8,
    2,
    8,
    5,
    3,
    1,
    3,
    5,
    8,
    6,
    5,
    4,
    6,
    6,
    1,
    3,
    2,
    3,
    2,
    1,
    5,
    3,
    5,
    6,
    8,
    7,
    6,
    8,
    4,
    2,
    2,
    2,
    5,
    6,
    5,
    7,
    2,
    6,
    2,
    4,
    4,
    5,
    2,
    3,
    7,
    2,
    8,
    6,
    4,
    8,
    6,
    3,
    1,
    3,
    3,
    8,
    6,
    1,
    3,
    6,
    3,
    6,
    8,
    6,
    0,
    0,
    0,
    0,
    0,
    0,
    0,
    0,
    0,
    0,
    0,
    0,
    0,
    0,
    0,
    0,
    0,
    0,
    0,
    0,
    0,
    0,
    0,
    0,
    1,
    1,
    1,
    1,
    1,
    1,
    1,
    1,
    1,
    1,
    1,
    1,
    1,
    1,
    1,
    1,
    1,
    1,
    1,
    1,
    1,
    1,
    1,
    1,
    25,
    25,
    1,
    1,
    1,
    1,
    1,
    25,
    25,
    1,
    1,
    1,
    1,
    1,
    25,
    25,
    1,
    1,
    1,
    1,
    1,
    1,
    1,
    1,
    3,
    5,
    3,
    1,
    5,
    4,
    4,
    8,
    5,
    4,
    8,
    2,
    2,
    8,
    2,
    5,
    5,
    4,
    7,
    2,
    3,
    8,
    4,
    4,
    6,
    7,
    5,
    6,
    7,
    7,
    2,
    5,
    2,
    1,
    6,
    6,
    6,
    2,
    7,
    4,
    7,
    1,
    2,
    5,
    5,
    1,
    1,
    2,
    5,
    4,
    2,
    8,
    2,
    2,
    4,
    3,
    1,
    4,
    1,
    6,
    7,
    8,
    4,
    2,
    1,
    5,
    5,
    1,
    2,
    2,
    7,
    2,
    6,
    8,
    6,
    4,
    5,
    4,
    5,
    6,
    7,
    8,
    3,
    6,
    7,
    4,
    6,
    7,
    6,
    3,
    1,
    1,
    1,
    7,
    7,
    6,
    4,
    2,
    8,
    5,
    3,
    2,
    2,
    3,
    2,
    6,
    5,
    2,
    3,
    5,
    2,
    2,
    0,
    0,
    0,
    0,
    0,
    0,
    0,
    0,
    0,
    0,
    0,
    0,
    0,
    0,
    0,
    0,
    0,
    0,
    0,
    0,
    0,
    0,
    0,
    0,
    1,
    1,
    1,
    1,
    1,
    1,
    1,
    1,
    1,
    1,
    1,
    1,
    1,
    1,
    1,
    1,
    1,
    1,
    1,
    1,
    1,
    25,
    25,
    25,
    25,
    1,
    1,
    1,
    1,
    1,
    1,
    25,
    25,
    1,
    1,
    1,
    25,
    25,
    25,
    25,
    1,
    1,
    1,
    1,
    1,
    1,
    1,
    1,
    4,
    8,
    2,
    1,
    2,
    6,
    5,
    6,
    5,
    8,
    4,
    6,
    7,
    3,
    7,
    1,
    2,
    1,
    2,
    7,
    3,
    4,
    7,
    2,
    1,
    8,
    1,
    1,
    6,
    7,
    6,
    8,
    4,
    3,
    3,
    3,
    1,
    6,
    7,
    5,
    7,
    1,
    7,
    3,
    2,
    2,
    8,
    5,
    7,
    1,
    1,
    8,
    2,
    2,
    6,
    7,
    8,
    5,
    4,
    6,
    6,
    5,
    7,
    2,
    5,
    1,
    3,
    1,
    4,
    1,
    2,
    3,
    5,
    8,
    1,
    3,
    4,
    8,
    6,
    4,
    75,
    57,
    7,
    1,
    2,
    2,
    2,
    3,
    8,
    6,
    8,
    7,
    5,
    7,
    8,
    6,
    5,
    6,
    3,
    3,
    8,
    7,
    5,
    1,
    8,
    6,
    4,
    1,
    1,
    5,
    8,
    3,
    0,
    0,
    0,
    0,
    0,
    0,
    0,
    0,
    0,
    0,
    0,
    0,
    0,
    0,
    0,
    0,
    0,
    0,
    0,
    0,
    0,
    0,
    0,
    0,
    1,
    1,
    1,
    1,
    1,
    1,
    1,
    1,
    1,
    1,
    1,
    1,
    1,
    1,
    1,
    1,
    1,
    1,
    1,
    1,
    25,
    25,
    25,
    25,
    1,
    1,
    1,
    1,
    1,
    1,
    1,
    1,
    25,
    25,
    1,
    25,
    25,
    25,
    25,
    25,
    25,
    1,
    1,
    1,
    1,
    1,
    1,
    1,
    1,
    1,
    8,
    4,
    8,
    3,
    3,
    7,
    4,
    1,
    3,
    8,
    2,
    3,
    4,
    3,
    7,
    5,
    1,
    7,
    2,
    3,
    7,
    4,
    2,
    1,
    2,
    8,
    6,
    8,
    6,
    1,
    6,
    6,
    6,
    4,
    3,
    8,
    1,
    4,
    4,
    7,
    5,
    6,
    4,
    6,
    8,
    5,
    4,
    8,
    8,
    4,
    6,
    7,
    3,
    4,
    2,
    5,
    5,
    6,
    7,
    1,
    7,
    8,
    2,
    2,
    7,
    1,
    1,
    7,
    7,
    3,
    4,
    8,
    1,
    4,
    5,
    4,
    8,
    76,
    52,
    87,
    4,
    5,
    7,
    1,
    8,
    8,
    6,
    6,
    8,
    6,
    2,
    7,
    6,
    4,
    7,
    6,
    4,
    1,
    4,
    8,
    7,
    1,
    2,
    6,
    5,
    3,
    4,
    7,
    4,
    5,
    0,
    0,
    0,
    0,
    0,
    0,
    0,
    0,
    0,
    0,
    0,
    0,
    0,
    0,
    0,
    0,
    0,
    0,
    0,
    0,
    0,
    0,
    0,
    0,
    1,
    1,
    1,
    1,
    1,
    1,
    1,
    1,
    1,
    1,
    1,
    1,
    1,
    1,
    1,
    1,
    1,
    1,
    1,
    1,
    25,
    25,
    25,
    1,
    1,
    1,
    1,
    1,
    1,
    1,
    1,
    1,
    25,
    25,
    25,
    25,
    25,
    25,
    25,
    25,
    25,
    25,
    1,
    1,
    1,
    1,
    1,
    1,
    4,
    7,
    8,
    6,
    4,
    1,
    2,
    1,
    4,
    2,
    3,
    8,
    7,
    5,
    3,
    1,
    2,
    7,
    8,
    3,
    8,
    6,
    8,
    5,
    4,
    8,
    6,
    4,
    2,
    2,
    3,
    4,
    8,
    4,
    8,
    4,
    8,
    8,
    2,
    5,
    3,
    6,
    4,
    2,
    7,
    1,
    7,
    5,
    2,
    7,
    3,
    4,
    7,
    2,
    2,
    3,
    4,
    4,
    4,
    1,
    7,
    4,
    8,
    1,
    8,
    8,
    7,
    2,
    8,
    3,
    8,
    3,
    3,
    4,
    5,
    8,
    8,
    3,
    75,
    35,
    56,
    1,
    8,
    7,
    2,
    5,
    2,
    3,
    7,
    3,
    6,
    4,
    6,
    5,
    5,
    8,
    4,
    6,
    8,
    6,
    1,
    7,
    3,
    4,
    4,
    6,
    7,
    4,
    4,
    5,
    6,
    1,
    0,
    0,
    0,
    0,
    0,
    0,
    0,
    0,
    0,
    0,
    0,
    0,
    0,
    0,
    0,
    0,
    0,
    0,
    0,
    0,
    0,
    0,
    0,
    0,
    1,
    1,
    1,
    1,
    1,
    1,
    1,
    1,
    1,
    1,
    1,
    1,
    1,
    1,
    1,
    1,
    1,
    1,
    1,
    25,
    25,
    25,
    1,
    1,
    1,
    1,
    1,
    1,
    1,
    1,
    1,
    1,
    25,
    25,
    25,
    25,
    25,
    25,
    1,
    1,
    25,
    25,
    25,
    1,
    1,
    1,
    1,
    1,
    4,
    6,
    2,
    4,
    1,
    8,
    3,
    4,
    4,
    2,
    4,
    3,
    8,
    2,
    8,
    3,
    3,
    6,
    6,
    5,
    7,
    7,
    7,
    6,
    7,
    4,
    3,
    4,
    5,
    1,
    6,
    2,
    6,
    3,
    7,
    6,
    7,
    1,
    5,
    4,
    4,
    2,
    3,
    4,
    7,
    1,
    4,
    2,
    6,
    2,
    1,
    5,
    7,
    5,
    4,
    7,
    4,
    5,
    8,
    4,
    4,
    4,
    5,
    7,
    6,
    1,
    6,
    3,
    8,
    3,
    8,
    5,
    7,
    1,
    7,
    2,
    2,
    75,
    35,
    48,
    85,
    7,
    7,
    1,
    5,
    1,
    8,
    1,
    6,
    2,
    2,
    3,
    3,
    6,
    6,
    6,
    8,
    3,
    6,
    1,
    6,
    7,
    2,
    2,
    2,
    8,
    2,
    4,
    7,
    7,
    5,
    3,
    0,
    0,
    0,
    0,
    0,
    0,
    0,
    0,
    0,
    0,
    0,
    0,
    0,
    0,
    0,
    0,
    0,
    0,
    0,
    0,
    0,
    0,
    0,
    0,
    1,
    1,
    1,
    1,
    1,
    1,
    17,
    1,
    1,
    1,
    1,
    1,
    1,
    1,
    1,
    1,
    1,
    1,
    1,
    1,
    25,
    25,
    1,
    1,
    1,
    1,
    1,
    1,
    1,
    1,
    1,
    25,
    25,
    25,
    25,
    25,
    25,
    25,
    25,
    1,
    1,
    25,
    1,
    1,
    1,
    1,
    1,
    1,
    6,
    4,
    2,
    5,
    3,
    7,
    3,
    8,
    7,
    3,
    3,
    1,
    5,
    5,
    3,
    2,
    4,
    2,
    8,
    8,
    6,
    4,
    2,
    8,
    8,
    2,
    1,
    4,
    2,
    7,
    6,
    1,
    1,
    5,
    7,
    4,
    1,
    3,
    3,
    5,
    6,
    8,
    8,
    2,
    2,
    4,
    8,
    1,
    1,
    4,
    5,
    2,
    1,
    5,
    8,
    8,
    4,
    5,
    4,
    1,
    1,
    7,
    4,
    5,
    4,
    7,
    4,
    4,
    5,
    3,
    3,
    3,
    2,
    7,
    5,
    4,
    76,
    35,
    48,
    85,
    5,
    6,
    1,
    2,
    7,
    2,
    4,
    1,
    3,
    7,
    5,
    6,
    5,
    2,
    6,
    3,
    1,
    5,
    5,
    5,
    3,
    8,
    2,
    6,
    8,
    3,
    4,
    6,
    8,
    3,
    2,
    4,
    0,
    0,
    0,
    0,
    0,
    0,
    0,
    0,
    0,
    0,
    0,
    0,
    0,
    0,
    0,
    0,
    0,
    0,
    0,
    0,
    0,
    0,
    0,
    0,
    1,
    1,
    1,
    1,
    1,
    17,
    1,
    1,
    1,
    1,
    1,
    1,
    1,
    1,
    1,
    1,
    1,
    1,
    1,
    1,
    1,
    25,
    25,
    1,
    1,
    1,
    1,
    1,
    1,
    1,
    1,
    25,
    25,
    25,
    25,
    25,
    25,
    25,
    25,
    25,
    1,
    1,
    1,
    1,
    1,
    1,
    1,
    1,
    3,
    7,
    8,
    7,
    1,
    6,
    5,
    8,
    1,
    3,
    1,
    2,
    8,
    8,
    1,
    1,
    2,
    4,
    8,
    4,
    3,
    1,
    2,
    7,
    3,
    4,
    4,
    2,
    8,
    6,
    5,
    4,
    4,
    5,
    3,
    8,
    6,
    7,
    6,
    1,
    1,
    1,
    1,
    8,
    7,
    7,
    8,
    2,
    1,
    2,
    5,
    1,
    5,
    8,
    8,
    5,
    7,
    3,
    5,
    4,
    7,
    3,
    4,
    4,
    8,
    6,
    1,
    7,
    2,
    4,
    2,
    3,
    8,
    1,
    3,
    73,
    34,
    47,
    87,
    3,
    5,
    1,
    2,
    8,
    2,
    6,
    6,
    1,
    1,
    8,
    4,
    1,
    1,
    7,
    2,
    7,
    6,
    4,
    8,
    8,
    2,
    8,
    7,
    2,
    1,
    5,
    5,
    4,
    2,
    4,
    3,
    5,
    0,
    0,
    0,
    0,
    0,
    0,
    0,
    0,
    0,
    0,
    0,
    0,
    0,
    0,
    0,
    0,
    0,
    0,
    0,
    0,
    0,
    0,
    0,
    0,
    1,
    1,
    1,
    1,
    1,
    1,
    1,
    1,
    1,
    1,
    1,
    17,
    1,
    1,
    1,
    1,
    1,
    1,
    1,
    1,
    1,
    1,
    25,
    25,
    1,
    1,
    1,
    1,
    1,
    1,
    1,
    1,
    25,
    25,
    25,
    25,
    25,
    25,
    25,
    1,
    1,
    1,
    1,
    1,
    1,
    1,
    1,
    1,
    2,
    4,
    5,
    1,
    6,
    5,
    6,
    1,
    5,
    8,
    4,
    5,
    5,
    3,
    6,
    7,
    5,
    6,
    4,
    3,
    4,
    4,
    1,
    3,
    8,
    1,
    7,
    2,
    3,
    4,
    6,
    6,
    2,
    4,
    5,
    7,
    2,
    2,
    4,
    7,
    1,
    3,
    5,
    8,
    6,
    1,
    8,
    5,
    5,
    2,
    3,
    1,
    8,
    4,
    6,
    2,
    2,
    5,
    7,
    7,
    6,
    4,
    6,
    3,
    8,
    7,
    2,
    7,
    3,
    1,
    3,
    4,
    5,
    76,
    43,
    52,
    80,
    88,
    4,
    1,
    7,
    7,
    3,
    5,
    2,
    4,
    8,
    7,
    3,
    7,
    7,
    8,
    5,
    1,
    1,
    6,
    2,
    7,
    5,
    3,
    5,
    4,
    1,
    1,
    5,
    6,
    8,
    1,
    7,
    2,
    3,
    5,
    0,
    0,
    0,
    0,
    0,
    0,
    0,
    0,
    0,
    0,
    0,
    0,
    0,
    0,
    0,
    0,
    0,
    0,
    0,
    0,
    0,
    0,
    0,
    0,
    1,
    1,
    17,
    1,
    1,
    1,
    1,
    1,
    1,
    1,
    1,
    17,
    1,
    1,
    1,
    1,
    1,
    1,
    1,
    1,
    1,
    1,
    25,
    25,
    1,
    1,
    1,
    1,
    1,
    1,
    1,
    1,
    1,
    1,
    1,
    1,
    1,
    1,
    1,
    1,
    1,
    1,
    1,
    1,
    1,
    1,
    1,
    1,
    2,
    1,
    6,
    3,
    7,
    8,
    3,
    3,
    2,
    2,
    2,
    7,
    3,
    7,
    3,
    5,
    7,
    4,
    6,
    5,
    5,
    3,
    5,
    8,
    8,
    8,
    7,
    2,
    4,
    2,
    2,
    1,
    4,
    8,
    6,
    3,
    6,
    4,
    7,
    1,
    3,
    5,
    3,
    5,
    4,
    5,
    3,
    4,
    2,
    6,
    6,
    7,
    1,
    7,
    2,
    6,
    5,
    3,
    3,
    7,
    2,
    3,
    6,
    3,
    3,
    8,
    5,
    5,
    6,
    2,
    6,
    76,
    43,
    33,
    45,
    88,
    6,
    3,
    3,
    8,
    4,
    5,
    4,
    5,
    3,
    7,
    7,
    8,
    8,
    4,
    2,
    7,
    8,
    4,
    3,
    8,
    8,
    5,
    2,
    8,
    4,
    3,
    3,
    4,
    2,
    2,
    2,
    6,
    5,
    1,
    4,
    2,
    0,
    0,
    0,
    0,
    0,
    0,
    0,
    0,
    0,
    0,
    0,
    0,
    0,
    0,
    0,
    0,
    0,
    0,
    0,
    0,
    0,
    0,
    0,
    0,
    1,
    1,
    17,
    1,
    1,
    1,
    1,
    1,
    1,
    1,
    1,
    1,
    1,
    1,
    1,
    1,
    1,
    1,
    1,
    1,
    1,
    1,
    1,
    25,
    25,
    1,
    1,
    1,
    1,
    1,
    1,
    1,
    1,
    1,
    1,
    1,
    1,
    1,
    1,
    1,
    1,
    1,
    1,
    1,
    1,
    1,
    1,
    1,
    6,
    6,
    7,
    5,
    3,
    4,
    6,
    8,
    2,
    3,
    1,
    7,
    3,
    8,
    6,
    6,
    8,
    2,
    2,
    4,
    5,
    1,
    3,
    4,
    3,
    7,
    4,
    4,
    6,
    7,
    4,
    7,
    3,
    6,
    5,
    3,
    2,
    3,
    5,
    5,
    6,
    7,
    7,
    8,
    2,
    2,
    2,
    8,
    3,
    3,
    6,
    4,
    2,
    2,
    1,
    3,
    6,
    1,
    5,
    7,
    8,
    8,
    3,
    6,
    4,
    8,
    5,
    8,
    73,
    43,
    41,
    33,
    45,
    80,
    86,
    5,
    5,
    6,
    7,
    6,
    8,
    3,
    2,
    6,
    4,
    7,
    2,
    7,
    4,
    1,
    5,
    8,
    3,
    2,
    1,
    2,
    4,
    6,
    1,
    4,
    4,
    7,
    3,
    1,
    7,
    7,
    7,
    6,
    4,
    6,
    1,
    8,
    0,
    0,
    0,
    0,
    0,
    0,
    0,
    0,
    0,
    0,
    0,
    0,
    0,
    0,
    0,
    0,
    0,
    0,
    0,
    0,
    0,
    0,
    0,
    0,
    1,
    17,
    1,
    1,
    1,
    1,
    1,
    1,
    1,
    1,
    1,
    1,
    17,
    1,
    1,
    1,
    1,
    1,
    1,
    1,
    1,
    1,
    1,
    1,
    25,
    25,
    1,
    1,
    1,
    1,
    1,
    1,
    1,
    1,
    1,
    1,
    1,
    1,
    1,
    1,
    1,
    1,
    1,
    1,
    1,
    1,
    1,
    1,
    42,
    43,
    43,
    42,
    43,
    43,
    41,
    44,
    44,
    41,
    44,
    41,
    44,
    44,
    44,
    42,
    41,
    43,
    42,
    41,
    41,
    42,
    43,
    44,
    42,
    44,
    44,
    43,
    43,
    41,
    41,
    41,
    42,
    41,
    42,
    43,
    42,
    42,
    41,
    43,
    43,
    41,
    43,
    44,
    44,
    43,
    44,
    44,
    43,
    44,
    44,
    42,
    41,
    42,
    44,
    41,
    41,
    41,
    44,
    44,
    41,
    42,
    41,
    43,
    44,
    44,
    43,
    41,
    33,
    47,
    80,
    77,
    85,
    6,
    4,
    3,
    1,
    4,
    3,
    6,
    3,
    7,
    8,
    2,
    2,
    1,
    4,
    7,
    4,
    3,
    2,
    1,
    1,
    4,
    8,
    5,
    7,
    7,
    7,
    5,
    2,
    8,
    6,
    5,
    1,
    7,
    7,
    6,
    5,
    2,
    4,
    7,
    0,
    0,
    0,
    0,
    0,
    0,
    0,
    0,
    0,
    0,
    0,
    0,
    0,
    0,
    0,
    0,
    0,
    0,
    0,
    0,
    0,
    0,
    0,
    0,
    17,
    17,
    1,
    1,
    1,
    1,
    1,
    1,
    1,
    1,
    1,
    1,
    1,
    1,
    17,
    17,
    1,
    1,
    1,
    1,
    1,
    1,
    1,
    1,
    1,
    25,
    25,
    1,
    1,
    1,
    1,
    1,
    1,
    1,
    1,
    1,
    1,
    1,
    1,
    1,
    1,
    1,
    1,
    1,
    1,
    1,
    1,
    1,
    80,
    78,
    77,
    79,
    79,
    78,
    77,
    80,
    80,
    77,
    78,
    79,
    80,
    80,
    79,
    77,
    77,
    79,
    80,
    80,
    79,
    80,
    80,
    78,
    79,
    79,
    80,
    78,
    78,
    80,
    77,
    78,
    80,
    77,
    79,
    79,
    80,
    80,
    79,
    77,
    80,
    80,
    77,
    80,
    79,
    77,
    78,
    79,
    79,
    77,
    77,
    80,
    80,
    78,
    80,
    79,
    80,
    80,
    80,
    78,
    63,
    16,
    12,
    12,
    46,
    78,
    79,
    77,
    79,
    85,
    5,
    3,
    4,
    1,
    8,
    3,
    3,
    6,
    2,
    7,
    2,
    4,
    8,
    1,
    6,
    5,
    1,
    6,
    1,
    5,
    4,
    4,
    5,
    4,
    7,
    1,
    5,
    8,
    7,
    1,
    2,
    1,
    8,
    7,
    6,
    2,
    7,
    2,
    1,
    5,
    7,
    3,
    0,
    0,
    0,
    0,
    0,
    0,
    0,
    0,
    0,
    0,
    0,
    0,
    0,
    0,
    0,
    0,
    0,
    0,
    0,
    0,
    0,
    0,
    0,
    0,
    1,
    1,
    1,
    1,
    1,
    1,
    1,
    1,
    1,
    1,
    1,
    1,
    1,
    1,
    1,
    1,
    17,
    17,
    1,
    1,
    1,
    1,
    1,
    1,
    1,
    1,
    25,
    25,
    1,
    1,
    1,
    1,
    1,
    1,
    1,
    1,
    1,
    1,
    1,
    1,
    1,
    1,
    1,
    1,
    1,
    1,
    1,
    1,
    8,
    8,
    6,
    1,
    8,
    2,
    8,
    6,
    5,
    3,
    1,
    1,
    1,
    7,
    7,
    1,
    2,
    8,
    5,
    2,
    4,
    1,
    2,
    8,
    5,
    1,
    4,
    6,
    8,
    3,
    6,
    8,
    6,
    6,
    8,
    6,
    1,
    4,
    6,
    1,
    8,
    4,
    8,
    7,
    2,
    1,
    8,
    8,
    5,
    2,
    2,
    7,
    5,
    8,
    1,
    3,
    8,
    6,
    3,
    1,
    83,
    77,
    78,
    77,
    85,
    5,
    4,
    4,
    6,
    7,
    3,
    5,
    8,
    4,
    7,
    1,
    6,
    2,
    8,
    8,
    6,
    2,
    2,
    4,
    5,
    6,
    3,
    2,
    6,
    2,
    3,
    7,
    2,
    3,
    7,
    4,
    7,
    8,
    5,
    7,
    1,
    8,
    1,
    6,
    8,
    6,
    4,
    6,
    5,
    7,
    5,
    6,
    0,
    0,
    0,
    0,
    0,
    0,
    0,
    0,
    0,
    0,
    0,
    0,
    0,
    0,
    0,
    0,
    0,
    0,
    0,
    0,
    0,
    0,
    0,
    0,
    1,
    1,
    1,
    1,
    1,
    1,
    1,
    1,
    1,
    1,
    1,
    1,
    1,
    1,
    1,
    1,
    1,
    1,
    1,
    1,
    1,
    1,
    1,
    17,
    17,
    1,
    25,
    25,
    1,
    1,
    1,
    1,
    1,
    1,
    1,
    1,
    1,
    1,
    1,
    1,
    1,
    1,
    1,
    1,
    1,
    1,
    1,
    1,
    2,
    6,
    6,
    5,
    7,
    8,
    5,
    5,
    3,
    5,
    8,
    5,
    8,
    5,
    1,
    2,
    2,
    5,
    4,
    8,
    5,
    7,
    3,
    5,
    8,
    7,
    3,
    3,
    4,
    1,
    2,
    4,
    7,
    2,
    1,
    2,
    2,
    4,
    2,
    1,
    6,
    1,
    7,
    5,
    6,
    5,
    2,
    3,
    7,
    2,
    7,
    5,
    6,
    4,
    8,
    5,
    5,
    8,
    4,
    4,
    4,
    2,
    7,
    8,
    3,
    3,
    7,
    5,
    2,
    4,
    3,
    3,
    4,
    6,
    3,
    8,
    7,
    1,
    4,
    1,
    8,
    3,
    4,
    6,
    2,
    7,
    2,
    6,
    1,
    5,
    5,
    4,
    7,
    4,
    4,
    7,
    7,
    1,
    5,
    1,
    7,
    6,
    2,
    8,
    3,
    8,
    3,
    8,
    5,
    4,
    5,
    5,
    0,
    0,
    0,
    0,
    0,
    0,
    0,
    0,
    0,
    0,
    0,
    0,
    0,
    0,
    0,
    0,
    0,
    0,
    0,
    0,
    0,
    0,
    0,
    0,
    1,
    1,
    1,
    1,
    1,
    1,
    1,
    1,
    1,
    1,
    1,
    1,
    1,
    1,
    1,
    1,
    1,
    1,
    1,
    1,
    1,
    1,
    1,
    1,
    17,
    17,
    1,
    1,
    1,
    1,
    1,
    1,
    1,
    1,
    1,
    1,
    1,
    1,
    1,
    1,
    1,
    1,
    1,
    1,
    1,
    1,
    1,
    1,
    4,
    3,
    8,
    3,
    4,
    3,
    2,
    2,
    5,
    2,
    7,
    5,
    8,
    1,
    6,
    5,
    1,
    2,
    4,
    2,
    8,
    1,
    3,
    3,
    6,
    6,
    1,
    7,
    4,
    2,
    1,
    5,
    8,
    7,
    5,
    6,
    1,
    3,
    7,
    3,
    8,
    2,
    2,
    2,
    4,
    2,
    1,
    6,
    2,
    3,
    7,
    4,
    1,
    2,
    4,
    4,
    1,
    2,
    4,
    4,
    7,
    6,
    2,
    7,
    1,
    4,
    6,
    1,
    5,
    1,
    4,
    1,
    8,
    1,
    7,
    6,
    7,
    8,
    6,
    8,
    1,
    1,
    4,
    2,
    7,
    6,
    4,
    4,
    7,
    6,
    7,
    5,
    1,
    1,
    6,
    3,
    5,
    7,
    6,
    2,
    5,
    4,
    7,
    4,
    3,
    4,
    6,
    7,
    1,
    4,
    5,
    3,
    0,
    0,
    0,
    0,
    0,
    0,
    0,
    0,
    0,
    0,
    0,
    0,
    0,
    0,
    0,
    0,
    0,
    0,
    0,
    0,
    0,
    0,
    0,
    0,
    1,
    1,
    1,
    1,
    1,
    1,
    1,
    1,
    1,
    1,
    1,
    1,
    1,
    1,
    1,
    1,
    1,
    1,
    1,
    1,
    1,
    1,
    1,
    1,
    1,
    17,
    17,
    1,
    1,
    1,
    1,
    1,
    1,
    1,
    1,
    1,
    1,
    1,
    1,
    1,
    1,
    1,
    1,
    1,
    1,
    1,
    1,
    1,
    6,
    3,
    1,
    6,
    4,
    5,
    8,
    2,
    7,
    3,
    8,
    8,
    3,
    3,
    5,
    6,
    6,
    1,
    4,
    8,
    5,
    3,
    3,
    5,
    3,
    6,
    5,
    2,
    3,
    4,
    6,
    7,
    6,
    4,
    3,
    5,
    3,
    1,
    7,
    1,
    7,
    4,
    5,
    8,
    7,
    5,
    3,
    5,
    7,
    1,
    5,
    3,
    6,
    4,
    6,
    4,
    1,
    2,
    8,
    2,
    5,
    7,
    3,
    4,
    5,
    5,
    8,
    4,
    4,
    6,
    4,
    3,
    1,
    2,
    6,
    3,
    4,
    5,
    3,
    2,
    5,
    5,
    7,
    2,
    1,
    3,
    7,
    8,
    3,
    8,
    5,
    4,
    8,
    8,
    3,
    2,
    4,
    7,
    4,
    1,
    1,
    8,
    2,
    7,
    3,
    2,
    6,
    1,
    6,
    6,
    2,
    6,
    0,
    0,
    0,
    0,
    0,
    0,
    0,
    0,
    0,
    0,
    0,
    0,
    0,
    0,
    0,
    0,
    0,
    0,
    0,
    0,
    0,
    0,
    0,
    0,
    1,
    1,
    1,
    1,
    1,
    1,
    1,
    1,
    1,
    1,
    1,
    1,
    1,
    1,
    1,
    1,
    1,
    1,
    1,
    1,
    1,
    1,
    1,
    1,
    25,
    1,
    17,
    17,
    1,
    1,
    1,
    1,
    1,
    1,
    1,
    1,
    1,
    1,
    1,
    1,
    1,
    1,
    1,
    1,
    1,
    1,
    1,
    1,
    6,
    6,
    7,
    7,
    3,
    2,
    7,
    2,
    7,
    3,
    6,
    8,
    3,
    5,
    6,
    5,
    2,
    5,
    6,
    5,
    4,
    5,
    6,
    3,
    1,
    1,
    2,
    6,
    5,
    1,
    7,
    4,
    7,
    1,
    7,
    4,
    8,
    7,
    5,
    3,
    8,
    7,
    6,
    8,
    1,
    1,
    5,
    7,
    3,
    4,
    3,
    3,
    5,
    2,
    5,
    1,
    1,
    1,
    5,
    3,
    3,
    1,
    2,
    8,
    8,
    5,
    5,
    2,
    4,
    4,
    4,
    4,
    7,
    5,
    7,
    7,
    7,
    6,
    2,
    3,
    5,
    6,
    5,
    8,
    4,
    3,
    7,
    6,
    4,
    5,
    8,
    7,
    1,
    8,
    8,
    6,
    5,
    8,
    5,
    1,
    3,
    8,
    3,
    6,
    7,
    8,
    3,
    3,
    6,
    3,
    5,
    5,
    0,
    0,
    0,
    0,
    0,
    0,
    0,
    0,
    0,
    0,
    0,
    0,
    0,
    0,
    0,
    0,
    0,
    0,
    0,
    0,
    0,
    0,
    0,
    0,
    1,
    1,
    1,
    1,
    1,
    1,
    1,
    1,
    1,
    1,
    1,
    1,
    1,
    1,
    1,
    1,
    1,
    1,
    1,
    1,
    1,
    1,
    1,
    1,
    1,
    25,
    1,
    17,
    17,
    1,
    1,
    1,
    1,
    1,
    1,
    1,
    1,
    1,
    1,
    1,
    1,
    1,
    1,
    1,
    1,
    1,
    1,
    1,
    1,
    6,
    2,
    3,
    2,
    4,
    2,
    5,
    8,
    1,
    7,
    5,
    7,
    5,
    2,
    8,
    7,
    5,
    7,
    7,
    3,
    8,
    8,
    3,
    4,
    7,
    3,
    1,
    2,
    7,
    1,
    5,
    3,
    7,
    3,
    3,
    8,
    1,
    1,
    3,
    3,
    2,
    4,
    2,
    1,
    2,
    7,
    7,
    2,
    7,
    6,
    3,
    7,
    4,
    7,
    7,
    7,
    8,
    6,
    4,
    1,
    2,
    4,
    5,
    1,
    8,
    2,
    7,
    5,
    7,
    6,
    1,
    2,
    2,
    8,
    5,
    7,
    3,
    5,
    4,
    3,
    8,
    2,
    8,
    1,
    4,
    7,
    8,
    4,
    2,
    4,
    8,
    4,
    1,
    4,
    4,
    2,
    6,
    1,
    1,
    8,
    3,
    7,
    6,
    4,
    4,
    4,
    6,
    5,
    1,
    6,
    2,
    0,
    0,
    0,
    0,
    0,
    0,
    0,
    0,
    0,
    0,
    0,
    0,
    0,
    0,
    0,
    0,
    0,
    0,
    0,
    0,
    0,
    0,
    0,
    0,
    1,
    1,
    1,
    1,
    1,
    1,
    1,
    1,
    1,
    1,
    1,
    1,
    1,
    1,
    1,
    1,
    1,
    1,
    1,
    1,
    1,
    1,
    1,
    1,
    1,
    25,
    25,
    1,
    17,
    17,
    1,
    1,
    1,
    1,
    1,
    1,
    1,
    1,
    1,
    1,
    1,
    1,
    1,
    1,
    1,
    1,
    1,
    1,
    6,
    5,
    5,
    3,
    1,
    8,
    2,
    2,
    2,
    2,
    4,
    5,
    3,
    4,
    6,
    5,
    3,
    3,
    1,
    6,
    2,
    8,
    8,
    4,
    6,
    6,
    7,
    1,
    5,
    1,
    8,
    7,
    5,
    8,
    4,
    2,
    5,
    8,
    3,
    2,
    3,
    8,
    6,
    6,
    3,
    5,
    4,
    7,
    8,
    8,
    7,
    5,
    1,
    3,
    8,
    1,
    5,
    4,
    8,
    7,
    8,
    4,
    1,
    2,
    4,
    5,
    5,
    6,
    6,
    6,
    8,
    7,
    4,
    8,
    5,
    5,
    4,
    4,
    5,
    5,
    6,
    2,
    6,
    3,
    8,
    1,
    4,
    1,
    4,
    2,
    1,
    5,
    3,
    3,
    1,
    6,
    6,
    5,
    7,
    6,
    1,
    7,
    7,
    4,
    8,
    3,
    7,
    2,
    8,
    1,
    5,
    3,
    0,
    0,
    0,
    0,
    0,
    0,
    0,
    0,
    0,
    0,
    0,
    0,
    0,
    0,
    0,
    0,
    0,
    0,
    0,
    0,
    0,
    0,
    0,
    0,
    1,
    1,
    1,
    1,
    1,
    1,
    1,
    1,
    1,
    1,
    1,
    1,
    1,
    1,
    1,
    1,
    1,
    1,
    1,
    1,
    1,
    1,
    1,
    1,
    1,
    25,
    25,
    1,
    1,
    1,
    1,
    17,
    17,
    1,
    1,
    1,
    1,
    1,
    1,
    1,
    1,
    1,
    1,
    1,
    1,
    1,
    1,
    1,
    2,
    7,
    8,
    4,
    7,
    5,
    5,
    8,
    6,
    6,
    4,
    8,
    3,
    5,
    7,
    1,
    5,
    5,
    6,
    4,
    5,
    1,
    3,
    3,
    7,
    8,
    7,
    7,
    1,
    1,
    3,
    4,
    4,
    6,
    2,
    3,
    4,
    5,
    8,
    7,
    7,
    3,
    6,
    4,
    2,
    7,
    1,
    1,
    2,
    4,
    7,
    8,
    5,
    7,
    2,
    1,
    8,
    2,
    5,
    4,
    7,
    2,
    1,
    4,
    7,
    1,
    5,
    3,
    6,
    1,
    3,
    3,
    8,
    4,
    1,
    2,
    3,
    5,
    2,
    2,
    2,
    5,
    2,
    7,
    5,
    5,
    4,
    5,
    6,
    4,
    1,
    5,
    7,
    3,
    5,
    6,
    6,
    6,
    1,
    7,
    7,
    5,
    4,
    5,
    7,
    7,
    4,
    5,
    2,
    2,
    2,
    8,
    0,
    0,
    0,
    0,
    0,
    0,
    0,
    0,
    0,
    0,
    0,
    0,
    0,
    0,
    0,
    0,
    0,
    0,
    0,
    0,
    0,
    0,
    0,
    0,
    1,
    1,
    1,
    1,
    1,
    1,
    1,
    1,
    1,
    1,
    1,
    1,
    1,
    1,
    1,
    1,
    1,
    1,
    1,
    1,
    1,
    1,
    1,
    1,
    1,
    25,
    25,
    25,
    1,
    1,
    1,
    1,
    17,
    1,
    1,
    1,
    1,
    1,
    1,
    1,
    1,
    1,
    1,
    1,
    1,
    1,
    1,
    1,
    5,
    4,
    1,
    8,
    5,
    3,
    6,
    7,
    4,
    5,
    7,
    1,
    3,
    3,
    5,
    6,
    4,
    6,
    5,
    3,
    4,
    1,
    6,
    4,
    4,
    2,
    5,
    5,
    1,
    8,
    5,
    1,
    3,
    5,
    5,
    5,
    7,
    5,
    5,
    3,
    4,
    7,
    4,
    6,
    1,
    5,
    8,
    8,
    3,
    4,
    4,
    1,
    1,
    1,
    7,
    3,
    5,
    1,
    2,
    2,
    8,
    7,
    2,
    6,
    7,
    6,
    8,
    8,
    8,
    7,
    7,
    8,
    3,
    8,
    3,
    8,
    8,
    4,
    6,
    5,
    8,
    7,
    5,
    6,
    5,
    7,
    6,
    5,
    4,
    6,
    5,
    3,
    5,
    6,
    7,
    8,
    7,
    4,
    8,
    5,
    4,
    5,
    8,
    6,
    3,
    4,
    6,
    4,
    4,
    4,
    8,
    3,
    0,
    0,
    0,
    0,
    0,
    0,
    0,
    0,
    0,
    0,
    0,
    0,
    0,
    0,
    0,
    0,
    0,
    0,
    0,
    0,
    0,
    0,
    0,
    0,
    1,
    1,
    1,
    1,
    1,
    1,
    1,
    1,
    1,
    1,
    1,
    1,
    1,
    1,
    1,
    1,
    1,
    1,
    1,
    1,
    1,
    1,
    1,
    1,
    25,
    25,
    25,
    1,
    1,
    1,
    1,
    1,
    1,
    17,
    1,
    1,
    1,
    1,
    1,
    1,
    1,
    1,
    1,
    1,
    1,
    1,
    1,
    1,
    7,
    3,
    4,
    8,
    7,
    1,
    5,
    1,
    4,
    7,
    1,
    8,
    8,
    8,
    6,
    3,
    6,
    3,
    1,
    6,
    8,
    1,
    1,
    6,
    2,
    4,
    2,
    7,
    5,
    4,
    2,
    5,
    8,
    4,
    5,
    5,
    4,
    1,
    4,
    5,
    7,
    1,
    7,
    3,
    5,
    3,
    6,
    3,
    6,
    8,
    3,
    1,
    5,
    6,
    1,
    8,
    3,
    6,
    6,
    8,
    3,
    6,
    4,
    5,
    7,
    8,
    3,
    3,
    6,
    1,
    2,
    4,
    1,
    5,
    6,
    1,
    3,
    7,
    4,
    2,
    4,
    4,
    7,
    8,
    8,
    3,
    5,
    3,
    4,
    8,
    7,
    4,
    8,
    7,
    5,
    4,
    3,
    1,
    8,
    5,
    3,
    1,
    6,
    7,
    5,
    1,
    4,
    7,
    3,
    4,
    8,
    2,
    0,
    0,
    0,
    0,
    0,
    0,
    0,
    0,
    0,
    0,
    0,
    0,
    0,
    0,
    0,
    0,
    0,
    0,
    0,
    0,
    0,
    0,
    0,
    0,
    1,
    1,
    1,
    1,
    1,
    1,
    1,
    1,
    1,
    1,
    1,
    1,
    1,
    1,
    1,
    1,
    1,
    1,
    1,
    1,
    1,
    1,
    1,
    1,
    25,
    25,
    1,
    1,
    1,
    1,
    1,
    1,
    1,
    17,
    17,
    1,
    1,
    1,
    1,
    1,
    1,
    1,
    1,
    1,
    1,
    1,
    1,
    1,
    5,
    8,
    8,
    5,
    6,
    8,
    1,
    5,
    6,
    5,
    8,
    5,
    5,
    6,
    3,
    6,
    2,
    5,
    6,
    5,
    8,
    4,
    7,
    7,
    8,
    8,
    4,
    7,
    3,
    7,
    6,
    4,
    3,
    7,
    6,
    5,
    3,
    7,
    1,
    6,
    6,
    6,
    4,
    3,
    8,
    1,
    1,
    5,
    7,
    5,
    1,
    5,
    6,
    8,
    3,
    5,
    2,
    1,
    6,
    5,
    7,
    4,
    7,
    7,
    1,
    7,
    3,
    5,
    6,
    6,
    4,
    7,
    5,
    8,
    4,
    6,
    6,
    8,
    2,
    7,
    4,
    8,
    2,
    6,
    8,
    5,
    2,
    4,
    5,
    4,
    5,
    5,
    7,
    4,
    8,
    2,
    6,
    6,
    5,
    5,
    7,
    4,
    3,
    1,
    7,
    1,
    6,
    7,
    6,
    1,
    6,
    5,
    0,
    0,
    0,
    0,
    0,
    0,
    0,
    0,
    0,
    0,
    0,
    0,
    0,
    0,
    0,
    0,
    0,
    0,
    0,
    0,
    0,
    0,
    0,
    0,
    1,
    1,
    1,
    1,
    1,
    1,
    1,
    1,
    1,
    1,
    1,
    1,
    1,
    1,
    1,
    1,
    1,
    1,
    1,
    1,
    1,
    1,
    1,
    1,
    25,
    25,
    1,
    1,
    1,
    1,
    1,
    1,
    1,
    1,
    1,
    17,
    17,
    1,
    1,
    1,
    1,
    1,
    1,
    1,
    1,
    1,
    1,
    1,
    7,
    8,
    4,
    1,
    1,
    2,
    2,
    5,
    7,
    7,
    2,
    5,
    6,
    5,
    4,
    4,
    8,
    3,
    2,
    4,
    2,
    6,
    4,
    2,
    5,
    2,
    4,
    8,
    3,
    7,
    7,
    3,
    4,
    5,
    4,
    6,
    5,
    5,
    3,
    4,
    5,
    5,
    7,
    2,
    6,
    7,
    7,
    5,
    2,
    4,
    2,
    6,
    6,
    2,
    2,
    7,
    1,
    2,
    5,
    1,
    7,
    7,
    3,
    4,
    3,
    8,
    2,
    4,
    5,
    3,
    1,
    1,
    6,
    1,
    8,
    4,
    5,
    2,
    5,
    8,
    8,
    1,
    1,
    6,
    6,
    6,
    1,
    3,
    6,
    4,
    6,
    4,
    5,
    8,
    6,
    1,
    8,
    7,
    4,
    5,
    1,
    3,
    3,
    2,
    8,
    8,
    4,
    1,
    1,
    3,
    3,
    7,
    0,
    0,
    0,
    0,
    0,
    0,
    0,
    0,
    0,
    0,
    0,
    0,
    0,
    0,
    0,
    0,
    0,
    0,
    0,
    0,
    0,
    0,
    0,
    0,
    1,
    1,
    1,
    1,
    1,
    1,
    1,
    1,
    1,
    1,
    1,
    1,
    1,
    1,
    1,
    1,
    1,
    1,
    1,
    1,
    1,
    1,
    1,
    25,
    25,
    1,
    1,
    1,
    1,
    1,
    1,
    1,
    1,
    1,
    1,
    1,
    1,
    17,
    17,
    1,
    1,
    1,
    1,
    1,
    1,
    1,
    1,
    1,
    6,
    1,
    1,
    2,
    3,
    2,
    8,
    2,
    7,
    8,
    1,
    5,
    5,
    4,
    3,
    3,
    5,
    1,
    5,
    7,
    5,
    2,
    2,
    4,
    1,
    3,
    5,
    1,
    1,
    6,
    7,
    2,
    8,
    8,
    8,
    7,
    4,
    3,
    5,
    7,
    1,
    6,
    7,
    6,
    6,
    6,
    8,
    8,
    3,
    3,
    1,
    6,
    6,
    7,
    4,
    2,
    2,
    1,
    7,
    5,
    6,
    8,
    8,
    6,
    8,
    2,
    7,
    2,
    1,
    5,
    7,
    5,
    7,
    6,
    1,
    1,
    8,
    8,
    1,
    2,
    6,
    8,
    7,
    6,
    6,
    8,
    5,
    8,
    7,
    7,
    4,
    6,
    8,
    2,
    6,
    3,
    1,
    6,
    1,
    4,
    6,
    1,
    8,
    5,
    6,
    3,
    4,
    5,
    8,
    1,
    3,
    1,
    0,
    0,
    0,
    0,
    0,
    0,
    0,
    0,
    0,
    0,
    0,
    0,
    0,
    0,
    0,
    0,
    0,
    0,
    0,
    0,
    0,
    0,
    0,
    0,
    1,
    1,
    1,
    1,
    1,
    1,
    1,
    1,
    1,
    1,
    1,
    1,
    1,
    1,
    1,
    1,
    1,
    1,
    1,
    1,
    1,
    1,
    1,
    25,
    25,
    1,
    1,
    1,
    1,
    1,
    1,
    1,
    1,
    1,
    1,
    1,
    1,
    1,
    17,
    17,
    1,
    1,
    1,
    1,
    1,
    1,
    1,
    1,
    1,
    7,
    7,
    5,
    8,
    3,
    3,
    4,
    8,
    1,
    1,
    8,
    2,
    4,
    2,
    1,
    1,
    6,
    5,
    8,
    8,
    5,
    4,
    8,
    6,
    2,
    7,
    8,
    3,
    5,
    7,
    5,
    4,
    4,
    6,
    2,
    8,
    7,
    6,
    5,
    2,
    6,
    3,
    7,
    8,
    2,
    2,
    7,
    0,
    0,
    0,
    0,
    0,
    0,
    0,
    0,
    0,
    0,
    0,
    0,
    0,
    0,
    0,
    0,
    0,
    0,
    0,
    0,
    0,
    0,
    0,
    0,
    0,
    0,
    0,
    0,
    0,
    0,
    0,
    0,
    0,
    0,
    0,
    0,
    0,
    0,
    0,
    0,
    0,
    0,
    0,
    0,
    0,
    0,
    0,
    0,
    0,
    0,
    0,
    0,
    0,
    0,
    0,
    0,
    0,
    0,
    0,
    0,
    0,
    0,
    0,
    0,
    0,
    0,
    0,
    0,
    0,
    0,
    0,
    0,
    0,
    0,
    0,
    0,
    0,
    0,
    0,
    0,
    0,
    0,
    0,
    0,
    0,
    0,
    0,
    0,
    1,
    1,
    1,
    1,
    1,
    1,
    1,
    1,
    1,
    1,
    1,
    1,
    1,
    1,
    1,
    1,
    1,
    1,
    1,
    1,
    1,
    1,
    25,
    25,
    25,
    1,
    1,
    1,
    1,
    1,
    1,
    1,
    1,
    1,
    1,
    1,
    1,
    1,
    1,
    17,
    1,
    1,
    1,
    1,
    1,
    1,
    1,
    1,
    7,
    3,
    2,
    1,
    3,
    8,
    1,
    4,
    4,
    8,
    6,
    6,
    3,
    5,
    6,
    5,
    1,
    4,
    5,
    7,
    6,
    4,
    3,
    6,
    5,
    3,
    7,
    6,
    7,
    6,
    8,
    6,
    3,
    8,
    7,
    3,
    6,
    6,
    1,
    7,
    2,
    1,
    1,
    6,
    6,
    2,
    6,
    2,
    0,
    0,
    0,
    0,
    0,
    0,
    0,
    0,
    0,
    0,
    0,
    0,
    0,
    0,
    0,
    0,
    0,
    0,
    0,
    0,
    0,
    0,
    0,
    0,
    0,
    0,
    0,
    0,
    0,
    0,
    0,
    0,
    0,
    0,
    0,
    0,
    0,
    0,
    0,
    0,
    0,
    0,
    0,
    0,
    0,
    0,
    0,
    0,
    0,
    0,
    0,
    0,
    0,
    0,
    0,
    0,
    0,
    0,
    0,
    0,
    0,
    0,
    0,
    0,
    0,
    0,
    0,
    0,
    0,
    0,
    0,
    0,
    0,
    0,
    0,
    0,
    0,
    0,
    0,
    0,
    0,
    0,
    0,
    0,
    0,
    0,
    0,
    0,
    1,
    1,
    1,
    1,
    1,
    1,
    1,
    1,
    1,
    1,
    1,
    1,
    1,
    1,
    1,
    1,
    1,
    1,
    1,
    1,
    1,
    25,
    25,
    25,
    25,
    1,
    1,
    1,
    1,
    1,
    1,
    1,
    1,
    1,
    1,
    1,
    1,
    1,
    1,
    1,
    17,
    1,
    1,
    1,
    1,
    1,
    1,
    1,
    5,
    1,
    6,
    8,
    6,
    6,
    7,
    7,
    3,
    4,
    6,
    5,
    7,
    8,
    4,
    4,
    8,
    6,
    7,
    2,
    3,
    6,
    1,
    6,
    6,
    8,
    6,
    1,
    5,
    7,
    1,
    8,
    4,
    4,
    5,
    5,
    1,
    3,
    3,
    3,
    4,
    4,
    1,
    2,
    7,
    4,
    4,
    2,
    0,
    0,
    0,
    0,
    0,
    0,
    0,
    0,
    0,
    0,
    0,
    0,
    0,
    0,
    0,
    0,
    0,
    0,
    0,
    0,
    0,
    0,
    0,
    0,
    0,
    0,
    0,
    0,
    0,
    0,
    0,
    0,
    0,
    0,
    0,
    0,
    0,
    0,
    0,
    0,
    0,
    0,
    0,
    0,
    0,
    0,
    0,
    0,
    0,
    0,
    0,
    0,
    0,
    0,
    0,
    0,
    0,
    0,
    0,
    0,
    0,
    0,
    0,
    0,
    0,
    0,
    0,
    0,
    0,
    0,
    0,
    0,
    0,
    0,
    0,
    0,
    0,
    0,
    0,
    0,
    0,
    0,
    0,
    0,
    0,
    0,
    0,
    0,
    1,
    1,
    1,
    1,
    1,
    1,
    1,
    1,
    1,
    1,
    1,
    1,
    1,
    1,
    1,
    1,
    1,
    1,
    1,
    1,
    1,
    25,
    25,
    25,
    1,
    1,
    1,
    1,
    1,
    1,
    1,
    1,
    1,
    1,
    1,
    1,
    1,
    1,
    1,
    1,
    17,
    1,
    1,
    1,
    1,
    1,
    1,
    1,
    3,
    8,
    3,
    5,
    8,
    8,
    4,
    4,
    8,
    2,
    6,
    1,
    3,
    5,
    7,
    3,
    4,
    6,
    3,
    5,
    6,
    2,
    1,
    2,
    6,
    7,
    2,
    5,
    2,
    4,
    7,
    6,
    2,
    4,
    7,
    5,
    1,
    5,
    5,
    2,
    5,
    4,
    1,
    8,
    4,
    2,
    8,
    1,
    0,
    0,
    0,
    0,
    0,
    0,
    0,
    0,
    0,
    0,
    0,
    0,
    0,
    0,
    0,
    0,
    0,
    0,
    0,
    0,
    0,
    0,
    0,
    0,
    0,
    0,
    0,
    0,
    0,
    0,
    0,
    0,
    0,
    0,
    0,
    0,
    0,
    0,
    0,
    0,
    0,
    0,
    0,
    0,
    0,
    0,
    0,
    0,
    0,
    0,
    0,
    0,
    0,
    0,
    0,
    0,
    0,
    0,
    0,
    0,
    0,
    0,
    0,
    0,
    0,
    0,
    0,
    0,
    0,
    0,
    0,
    0,
    0,
    0,
    0,
    0,
    0,
    0,
    0,
    0,
    0,
    0,
    0,
    0,
    0,
    0,
    0,
    0,
    1,
    1,
    1,
    1,
    1,
    1,
    1,
    1,
    1,
    1,
    1,
    1,
    1,
    1,
    1,
    1,
    1,
    1,
    1,
    1,
    25,
    25,
    1,
    1,
    1,
    1,
    1,
    1,
    1,
    1,
    1,
    1,
    1,
    1,
    1,
    1,
    1,
    1,
    1,
    1,
    1,
    17,
    1,
    1,
    1,
    1,
    1,
    1,
    3,
    7,
    2,
    3,
    8,
    5,
    4,
    4,
    3,
    1,
    8,
    3,
    1,
    4,
    4,
    8,
    5,
    2,
    3,
    2,
    1,
    3,
    3,
    5,
    1,
    3,
    5,
    5,
    4,
    4,
    5,
    3,
    7,
    7,
    1,
    1,
    4,
    4,
    4,
    6,
    7,
    3,
    7,
    1,
    4,
    3,
    5,
    2,
    0,
    0,
    0,
    0,
    0,
    0,
    0,
    0,
    0,
    0,
    0,
    0,
    0,
    0,
    0,
    0,
    0,
    0,
    0,
    0,
    0,
    0,
    0,
    0,
    0,
    0,
    0,
    0,
    0,
    0,
    0,
    0,
    0,
    0,
    0,
    0,
    0,
    0,
    0,
    0,
    0,
    0,
    0,
    0,
    0,
    0,
    0,
    0,
    0,
    0,
    0,
    0,
    0,
    0,
    0,
    0,
    0,
    0,
    0,
    0,
    0,
    0,
    0,
    0,
    0,
    0,
    0,
    0,
    0,
    0,
    0,
    0,
    0,
    0,
    0,
    0,
    0,
    0,
    0,
    0,
    0,
    0,
    0,
    0,
    0,
    0,
    0,
    0,
    1,
    1,
    1,
    1,
    1,
    1,
    1,
    1,
    1,
    1,
    1,
    1,
    1,
    1,
    1,
    1,
    1,
    1,
    1,
    25,
    25,
    1,
    1,
    1,
    1,
    1,
    1,
    1,
    1,
    1,
    1,
    1,
    1,
    1,
    1,
    1,
    1,
    1,
    1,
    1,
    1,
    17,
    1,
    1,
    1,
    1,
    1,
    1,
    1,
    8,
    6,
    6,
    8,
    1,
    2,
    2,
    2,
    1,
    8,
    1,
    1,
    1,
    5,
    3,
    6,
    7,
    3,
    8,
    1,
    8,
    4,
    5,
    4,
    1,
    7,
    3,
    1,
    3,
    5,
    3,
    8,
    1,
    1,
    5,
    3,
    4,
    6,
    2,
    5,
    4,
    8,
    4,
    5,
    5,
    1,
    8,
    0,
    0,
    0,
    0,
    0,
    0,
    0,
    0,
    0,
    0,
    0,
    0,
    0,
    0,
    0,
    0,
    0,
    0,
    0,
    0,
    0,
    0,
    0,
    0,
    0,
    0,
    0,
    0,
    0,
    0,
    0,
    0,
    0,
    0,
    0,
    0,
    0,
    0,
    0,
    0,
    0,
    0,
    0,
    0,
    0,
    0,
    0,
    0,
    0,
    0,
    0,
    0,
    0,
    0,
    0,
    0,
    0,
    0,
    0,
    0,
    0,
    0,
    0,
    0,
    0,
    0,
    0,
    0,
    0,
    0,
    0,
    0,
    0,
    0,
    0,
    0,
    0,
    0,
    0,
    0,
    0,
    0,
    0,
    0,
    0,
    0,
    0,
    0,
    0,
    0,
    0,
    0,
    0,
    0,
    0,
    0,
    0,
    0,
    0,
    0,
    0,
    0,
    0,
    0,
    0,
    0,
    0,
    0,
    0,
    0,
    0,
    0,
    0,
    0,
    0,
    0,
    0,
    0,
    0,
    0,
    0,
    0,
    0,
    0,
    0,
    0,
    0,
    0,
    0,
    0,
    0,
    0,
    0,
    0,
    0,
    0,
    0,
    0,
    0,
    0,
    0,
    0,
    0,
    0,
    0,
    0,
    0,
    0,
    0,
    0,
    0,
    0,
    0,
    0,
    0,
    0,
    0,
    0,
    0,
    0,
    0,
    0,
    0,
    0,
    0,
    0,
    0,
    0,
    0,
    0,
    0,
    0,
    0,
    0,
    0,
    0,
    0,
    0,
    0,
    0,
    0,
    0,
    0,
    0,
    0,
    0,
    0,
    0,
    0,
    0,
    0,
    0,
    0,
    0,
    0,
    0,
    0,
    0,
    0,
    0,
    0,
    0,
    0,
    0,
    0,
    0,
    0,
    0,
    0,
    0,
    0,
    0,
    0,
    0,
    0,
    0,
    0,
    0,
    0,
    0,
    0,
    0,
    0,
    0,
    0,
    0,
    0,
    0,
    0,
    0,
    0,
    0,
    0,
    0,
    0,
    0,
    0,
    0,
    0,
    0,
    0,
    0,
    0,
    0,
    0,
    0,
    0,
    0,
    0,
    0,
    0,
    0,
    0,
    0,
    0,
    0,
    0,
    0,
    0,
    0,
    0,
    0,
    0,
    0,
    0,
    0,
    0,
    0,
    0,
    0,
    0,
    0,
    0,
    0,
    0,
    0,
    0,
    0,
    0,
    0,
    0,
    0,
    0,
    0,
    0,
    0,
    0,
    0,
    0,
    0,
    0,
    0,
    0,
    0,
    0,
    0,
    0,
    0,
    0,
    0,
    0,
    0,
    0,
    0,
    0,
    0,
    0,
    0,
    0,
    0,
    0,
    0,
    0,
    0,
    0,
    0,
    0,
    0,
    0,
    0,
    0,
    0,
    0,
    0,
    0,
    0,
    0,
    0,
    0,
    0,
    0,
    0,
    0,
    0,
    0,
    0,
    0,
    0,
    0,
    0,
    0,
    0,
    0,
    0,
    0,
    0,
    0,
    0,
    0,
    0,
    0,
    0,
    0,
    0,
    0,
    0,
    0,
    0,
    0,
    0,
    0,
    0,
    0,
    0,
    0,
    0,
    0,
    0,
    0,
    0,
    0,
    0,
    0,
    0,
    0,
    0,
    0,
    0,
    0,
    0,
    0,
    0,
    0,
    0,
    0,
    0,
    0,
    0,
    0,
    0,
    0,
    0,
    0,
    0,
    0,
    0,
    0,
    0,
    0,
    0,
    0,
    0,
    0,
    0,
    0,
    0,
    0,
    0,
    0,
    0,
    0,
    0,
    0,
    0,
    0,
    0,
    0,
    0,
    0,
    0,
    0,
    0,
    0,
    0,
    0,
    0,
    0,
    0,
    0,
    0,
    0,
    0,
    0,
    0,
    0,
    0,
    0,
    0,
    0,
    0,
    0,
    0,
    0,
    0,
    0,
    0,
    0,
    0,
    0,
    0,
    0,
    0,
    0,
    0,
    0,
    0,
    0,
    0,
    0,
    0,
    0,
    0,
    0,
    0,
    0,
    0,
    0,
    0,
    0,
    0,
    0,
    0,
    0,
    0,
    0,
    0,
    0,
    0,
    0,
    0,
    0,
    0,
    0,
    0,
    0,
    0,
    0,
    0,
    0,
    0,
    0,
    0,
    0,
    0,
    0,
    0,
    0,
    0,
    0,
    0,
    0,
    0,
    0,
    0,
    0,
    0,
    0,
    0,
    0,
    0,
    0,
    0,
    0,
    0,
    0,
    0,
    0,
    0,
    0,
    0,
    0,
    0,
    0,
    0,
    0,
    0,
    0,
    0,
    0,
    0,
    0,
    0,
    0,
    0,
    0,
    0,
    0,
    0,
    0,
    0,
    0,
    0,
    0,
    0,
    0,
    0,
    0,
    0,
    0,
    0,
    0,
    0,
    0,
    0,
    0,
    0,
    0,
    0,
    0,
    0,
    0,
    0,
    0,
    0,
    0,
    0,
    0,
    0,
    0,
    0,
    0,
    0,
    0,
    0,
    0,
    0,
    0,
    0,
    0,
    0,
    0,
    0,
    0,
    0,
    0,
    0,
    0,
    0,
    0,
    0,
    0,
    0,
    0,
    0,
    0,
    0,
    0,
    0,
    0,
    0,
    0,
    0,
    0,
    0,
    0,
    0,
    0,
    0,
    0,
    0,
    0,
    0,
    0,
    0,
    0,
    0,
    0,
    0,
    0,
    0,
    0,
    0,
    0,
    0,
    0,
    0,
    0,
    0,
    0,
    0,
    0,
    0,
    0,
    0,
    0,
    0,
    0,
    0,
    0,
    0,
    0,
    0,
    0,
    0,
    0,
    0,
    0,
    0,
    0,
    0,
    0,
    0,
    0,
    0,
    0,
    0,
    0,
    0,
    0,
    0,
    0,
    0,
    0,
    0,
    0,
    0,
    0,
    0,
    0,
    0,
    0,
    0,
    0,
    0,
    0,
    0,
    0,
    0,
    0,
    0,
    0,
    0,
    0,
    0,
    0,
    0,
    0,
    0,
    0,
    0,
    0,
    0,
    0,
    0,
    0,
    0,
    0,
    0,
    0,
    0,
    0,
    0,
    0,
    0,
    0,
    0,
    0,
    0,
    0,
    0,
    0,
    0,
    0,
    0,
    0,
    0,
    0,
    0,
    0,
    0,
    0,
    0,
    0,
    0,
    0,
    0,
    0,
    0,
    0,
    0,
    0,
    0,
    0,
    0,
    0,
    0,
    0,
    0,
    0,
    0,
    0,
    0,
    0,
    0,
    0,
    0,
    0,
    0,
    0,
    0,
    0,
    0,
    0,
    0,
    0,
    0,
    0,
    0,
    0,
    0,
    0,
    0,
    0,
    0,
    0,
    0,
    0,
    0,
    0,
    0,
    0,
    0,
    0,
    0,
    0,
    0,
    0,
    0,
    0,
    0,
    0,
    0,
    0,
    0,
    0,
    0,
    0,
    0,
    0,
    0,
    0,
    0,
    0,
    0,
    0,
    0,
    0,
    0,
    0,
    0,
    0,
    0,
    0,
    0,
    0,
    0,
    0,
    0,
    0,
    0,
    0,
    0,
    0,
    0,
    0,
    0,
    0,
    0,
    0,
    0,
    0,
    0,
    0,
    0,
    0,
    0,
    0,
    0,
    0,
    0,
    0,
    0,
    0,
    0,
    0,
    0,
    0,
    0,
    0,
    0,
    0,
    0,
    0,
    0,
    0,
    0,
    0,
    0,
    0,
    0,
    0,
    0,
    0,
    0,
    0,
    0,
    0,
    0,
    0,
    0,
    0,
    0,
    0,
    0,
    0,
    0,
    0,
    0,
    0,
    0,
    0,
    0,
    0,
    0,
    0,
    0,
    0,
    0,
    0,
    0,
    0,
    0,
    0,
    0,
    0,
    0,
    0,
    0,
    0,
    0,
    0,
    0,
    0,
    0,
    0,
    0,
    0,
    0,
    0,
    0,
    0,
    0,
    0,
    0,
    0,
    0,
    0,
    0,
    0,
    0,
    0,
    0,
    0,
    0,
    0,
    0,
    0,
    0,
    0,
    0,
    0,
    0,
    0,
    0,
    0,
    0,
    0,
    0,
    0,
    0,
    0,
    0,
    0,
    0,
    0,
    0,
    0,
    0,
    0,
    0,
    0,
    0,
    0,
    0,
    0,
    0,
    0,
    0,
    0,
    0,
    0,
    0,
    0,
    0,
    0,
    0,
    0,
    0,
    0,
    0,
    0,
    0,
    0,
    0,
    0,
    0,
    0,
    0,
    0,
    0,
    0,
    0,
    0,
    0,
    0,
    0,
    0,
    0,
    0,
    0,
    0,
    0,
    0,
    0,
    0,
    0,
    0,
    0,
    0,
    0,
    0,
    0,
    0,
    0,
    0,
    0,
    0,
    0,
    0,
    0,
    0,
    0,
    0,
    0,
    0,
    0,
    0,
    0,
    0,
    0,
    0,
    0,
    0,
    0,
    0,
    0,
    0,
    0,
    0,
    0,
    0,
    0,
    0,
    0,
    0,
    0,
    0,
    0,
    0,
    0,
    0,
    0,
    0,
    0,
    0,
    0,
    0,
    0,
    0,
    0,
    0,
    0,
    0,
    0,
    0,
    0,
    0,
    0,
    0,
    0,
    0,
    0,
    0,
    0,
    0,
    0,
    0,
    0,
    0,
    0,
    0,
    0,
    0,
    0,
    0,
    0,
    0,
    0,
    0,
    0,
    0,
    0,
    0,
    0,
    0,
    0,
    0,
    0,
    0,
    0,
    0,
    0,
    0,
    0,
    0,
    0,
    0,
    0,
    0,
    0,
    0,
    0,
    0,
    0,
    0,
    0,
    0,
    0,
    0,
    0,
    0,
    0,
    0,
    0,
    0,
    0,
    0,
    0,
    0,
    0,
    0,
    0,
    0,
    0,
    0,
    0,
    0,
    0,
    0,
    0,
    0,
    0,
    0,
    0,
    0,
    0,
    0,
    0,
    0,
    0,
    0,
    0,
    0,
    0,
    0,
    0,
    0,
    0,
    0,
    0,
    0,
    0,
    0,
    0,
    0,
    0,
    0,
    0,
    0,
    0,
    0,
    0,
    0,
    0,
    0,
    0,
    0,
    0,
    0,
    0,
    0,
    0,
    0,
    0,
    0,
    0,
    0,
    0,
    0,
    0,
    0,
    0,
    0,
    0,
    0,
    0,
    0,
    0,
    0,
    0,
    0,
    0,
    0,
    0,
    0,
    0,
    0,
    0,
    0,
    0,
    0,
    0,
    0,
    0,
    0,
    0,
    0,
    0,
    0,
    0,
    0,
    0,
    0,
    0,
    0,
    0,
    0,
    0,
    0,
    0,
    0,
    0,
    0,
    0,
    0,
    0,
    0,
    0,
    0,
    0,
    0,
    0,
    0,
    0,
    0,
    0,
    0,
    0,
    0,
    0,
    0,
    0,
    0,
    0,
    0,
    0,
    0,
    0,
    0,
    0,
    0,
    0,
    0,
    0,
    0,
    0,
    0,
    0,
    0,
    0,
    0,
    0,
    0,
    0,
    0,
    0,
    0,
    0,
    0,
    0,
    0,
    0,
    0,
    0,
    0,
    0,
    0,
    0,
    0,
    0,
    0,
    0,
    0,
    0,
    0,
    0,
    0,
    0,
    0,
    0,
    0,
    0,
    0,
    0,
    0,
    0,
    0,
    0,
    0,
    0,
    0,
    0,
    0,
    0,
    0,
    0,
    0,
    0,
    0,
    0,
    0,
    0,
    0,
    0,
    0,
    0,
    0,
    0,
    0,
    0,
    0,
    0,
    0,
    0,
    0,
    0,
    0,
    0,
    0,
    0,
    0,
    0,
    0,
    0,
    0,
    0,
    0,
    0,
    0,
    0,
    0,
    0,
    0,
    0,
    0,
    0,
    0,
    0,
    0,
    0,
    0,
    0,
    0,
    0,
    0,
    0,
    0,
    0,
    0,
    0,
    0,
    0,
    0,
    0,
    0,
    0,
    0,
    0,
    0,
    0,
    0,
    0,
    0,
    0,
    0,
    0,
    0,
    0,
    0,
    0,
    0,
    0,
    0,
    0,
    0,
    0,
    0,
    0,
    0,
    0,
    0,
    0,
    0,
    0,
    0,
    0,
    0,
    0,
    0,
    0,
    0,
    0,
    0,
    0,
    0,
    0,
    0,
    0,
    0,
    0,
    0,
    0,
    0,
    0,
    0,
    0,
    0,
    0,
    0,
    0,
    0,
    0,
    0,
    0,
    0,
    0,
    0,
    0,
    0,
    0,
    0,
    0,
    0,
    0,
    0,
    0,
    0,
    0,
    0,
    0,
    0,
    0,
    0,
    0,
    0,
    0,
    0,
    0,
    0,
    0,
    0,
    0,
    0,
    0,
    0,
    0,
    0,
    0,
    0,
    0,
    0,
    0,
    0,
    0,
    0,
    0,
    0,
    0,
    0,
    0,
    0,
    0,
    0,
    0,
    0,
    0,
    0,
    0,
    0,
    0,
    0,
    0,
    0,
    0,
    0,
    0,
    0,
    0,
    0,
    0,
    0,
    0,
    0,
    0,
    0,
    0,
    0,
    0,
    0,
    0,
    0,
    0,
    0,
    0,
    0,
    0,
    0,
    0,
    0,
    0,
    0,
    0,
    0,
    0,
    0,
    0,
    0,
    0,
    0,
    0,
    0,
    0,
    0,
    0,
    0,
    0,
    0,
    0,
    0,
    0,
    0,
    0,
    0,
    0,
    0,
    0,
    0,
    0,
    0,
    0,
    0,
    0,
    0,
    0,
    0,
    0,
    0,
    0,
    0,
    0,
    0,
    0,
    0,
    0,
    0,
    0,
    0,
    0,
    0,
    0,
    0,
    0,
    0,
    0,
    0,
    0,
    0,
    0,
    0,
    0,
    0,
    0,
    0,
    0,
    0,
    0,
    0,
    0,
    0,
    0,
    0,
    0,
    0,
    0,
    0,
    0,
    0,
    0,
    0,
    0,
    0,
    0,
    0,
    0,
    0,
    0,
    0,
    0,
    0,
    0,
    0,
    0,
    0,
    0,
    0,
    0,
    0,
    0,
    0,
    0,
    0,
    0,
    0,
    0,
    0,
    0,
    0,
    0,
    0,
    0,
    0,
    0,
    0,
    0,
    0,
    0,
    0,
    0,
    0,
    0,
    0,
    0,
    0,
    0,
    0,
    0,
    0,
    0,
    0,
    0,
    0,
    0,
    0,
    0,
    0,
    0,
    0,
    0,
    0,
    0,
    0,
    0,
    0,
    0,
    0,
    0,
    0,
    0,
    0,
    0,
    0,
    0,
    0,
    0,
    0,
    0,
    0,
    0,
    0,
    0,
    0,
    0,
    0,
    0,
    0,
    0,
    0,
    0,
    0,
    0,
    0,
    0,
    0,
    0,
    0,
    0,
    0,
    0,
    0,
    0,
    0,
    0,
    0,
    0,
    0,
    0,
    0,
    0,
    0,
    0,
    0,
    0,
    0,
    0,
    0,
    0,
    0,
    0,
    0,
    0,
    0,
    0,
    0,
    0,
    0,
    0,
    0,
    0,
    0,
    0,
    0,
    0,
    0,
    0,
    0,
    0,
    0,
    0,
    0,
    0,
    0,
    0,
    0,
    0,
    0,
    0,
    0,
    0,
    0,
    0,
    0,
    0,
    0,
    0,
    0,
    0,
    0,
    0,
    0,
    0,
    0,
    0,
    0,
    0,
    0,
    0,
    0,
    0,
    0,
    0,
    0,
    0,
    0,
    0,
    0,
    0,
    0,
    0,
    0,
    0,
    0,
    0,
    0,
    0,
    0,
    0,
    0,
    0,
    0,
    0,
    0,
    0,
    0,
    0,
    0,
    0,
    0,
    0,
    0,
    0,
    0,
    0,
    0,
    0,
    0,
    0,
    0,
    0,
    0,
    0,
    0,
    0,
    0,
    0,
    0,
    0,
    0,
    0,
    0,
    0,
    0,
    0,
    0,
    0,
    0,
    0,
    0,
    0,
    0,
    0,
    0,
    0,
    0,
    0,
    0,
    0,
    0,
    0,
    0,
    0,
    0,
    0,
    0,
    0,
    0,
    0,
    0,
    0,
    0,
    0,
    0,
    0,
    0,
    0,
    0,
    0,
    0,
    0,
    0,
    0,
    0,
    0,
    0,
    0,
    0,
    0,
    0,
    0,
    0,
    0,
    0,
    0,
    0,
    0,
    0,
    0,
    0,
    0,
    0,
    0,
    0,
    0,
    0,
    0,
    0,
    0,
    0,
    0,
    0,
    0,
    0,
    0,
    0,
    0,
    0,
    0,
    0,
    0,
    0,
    0,
    0,
    0,
    0,
    0,
    0,
    0,
    0,
    0,
    0,
    0,
    0,
    0,
    0,
    0,
    0,
    0,
    0,
    0,
    0,
    0,
    0,
    0,
    0,
    0,
    0,
    0,
    0,
    0,
    0,
    0,
    0,
    0,
    0,
    0,
    0,
    0,
    0,
    0,
    0,
    0,
    0,
    0,
    0,
    0,
    0,
    0,
    0,
    0,
    0,
    0,
    0,
    0,
    0,
    0,
    0,
    0,
    0,
    0,
    0,
    0,
    0,
    0,
    0,
    0,
    0,
    0,
    0,
    0,
    0,
    0,
    0,
    0,
    0,
    0,
    0,
    0,
    0,
    0,
    0,
    0,
    0,
    0,
    0,
    0,
    0,
    0,
    0,
    0,
    0,
    0,
    0,
    0,
    0,
    0,
    0,
    0,
    0,
    0,
    0,
    0,
    0,
    0,
    0,
    0,
    0,
    0,
    0,
    0,
    0,
    0,
    0,
    0,
    0,
    0,
    0,
    0,
    0,
    0,
    0,
    0,
    0,
    0,
    0,
    0,
    0,
    0,
    0,
    0,
    0,
    0,
    0,
    0,
    0,
    0,
    0,
    0,
    0,
    0,
    0,
    0,
    0,
    0,
    0,
    0,
    0,
    0,
    0,
    0,
    0,
    0,
    0,
    0,
    0,
    0,
    0,
    0,
    0,
    0,
    0,
    0,
    0,
    0,
    0,
    0,
    0,
    0,
    0,
    0,
    0,
    0,
    0,
    0,
    0,
    0,
    0,
    0,
    0,
    0,
    0,
    0,
    0,
    0,
    0,
    0,
    0,
    0,
    0,
    0,
    0,
    0,
    0,
    0,
    0,
    0,
    0,
    0,
    0,
    0,
    0,
    0,
    0,
    0,
    0,
    0,
    0,
    0,
    0,
    0,
    0,
    0,
    0,
    0,
    0,
    0,
    0,
    0,
    0,
    0,
    0,
    0,
    0,
    0,
    0,
    0,
    0,
    0,
    0,
    0,
    0,
    0,
    0,
    0,
    0,
    0,
    0,
    0,
    0,
    0,
    0,
    0,
    0,
    0,
    0,
    0,
    0,
    0,
    0,
    0,
    0,
    0,
    0,
    0,
    0,
    0,
    0,
    0,
    0,
    0,
    0,
    0,
    0,
    0,
    0,
    0,
    0,
    0,
    0,
    0,
    0,
    0,
    0,
    0,
    0,
    0,
    0,
    0,
    0,
    0,
    0,
    0,
    0,
    0,
    0,
    0,
    0,
    0,
    0,
    0,
    0,
    0,
    0,
    0,
    0,
    0,
    0,
    0,
    0,
    0,
    0,
    0,
    0,
    0,
    0,
    0,
    0,
    0,
    0,
    0,
    0,
    0,
    0,
    0,
    0,
    0,
    0,
    0,
    0,
    0,
    0,
    0,
    0,
    0,
    0,
    0,
    0,
    0,
    0,
    0,
    0,
    0,
    0,
    0,
    0,
    0,
    0,
    0,
    0,
    0,
    0,
    0,
    0,
    0,
    0,
    0,
    0,
    0,
    0,
    0,
    0,
    0,
    0,
    0,
    0,
    0,
    0,
    0,
    0,
    0,
    0,
    0,
    0,
    0,
    0,
    0,
    0,
    0,
    0,
    0,
    0,
    0,
    0,
    0,
    0,
    0,
    0,
    0,
    0,
    0,
    0,
    0,
    0,
    0,
    0,
    0,
    0,
    0,
    0,
    0,
    0,
    0,
    0,
    0,
    0,
    0,
    0,
    0,
    0,
    0,
    0,
    0,
    0,
    0,
    0,
    0,
    0,
    0,
    0,
    0,
    0,
    0,
    0,
    0,
    0,
    0,
    0,
    0,
    0,
    0,
    0,
    0,
    0,
    0,
    0,
    0,
    0,
    0,
    0,
    0,
    0,
    0,
    0,
    0,
    0,
    0,
    0,
    0,
    0,
    0,
    0,
    0,
    0,
    0,
    0,
    0,
    0,
    0,
    0,
    0,
    0,
    0,
    0,
    0,
    0,
    0,
    0,
    0,
    0,
    0,
    0,
    0,
    0,
    0,
    0,
    0,
    0,
    0,
    0,
    0,
    0,
    0,
    0,
    0,
    0,
    0,
    0,
    0,
    0,
    0,
    0,
    0,
    0,
    0,
    0,
    0,
    0,
    0,
    0,
    0,
    0,
    0,
    0,
    0,
    0,
    0,
    0,
    0,
    0,
    0,
    0,
    0,
    0,
    0,
    0,
    0,
    0,
    0,
    0,
    0,
    0,
    0,
    0,
    0,
    0,
    0,
    0,
    0,
    0,
    0,
    0,
    0,
    0,
    0,
    0,
    0,
    0,
    0,
    0,
    0,
    0,
    0,
    0,
    0,
    0,
    0,
    0,
    0,
    0,
    0,
    0,
    0,
    0,
    0,
    0,
    0,
    0,
    0,
    0,
    0,
    0,
    0,
    0,
    0,
    0,
    0,
    0,
    0,
    0,
    0,
    0,
    0,
    0,
    0,
    0,
    0,
    0,
    0,
    0,
    0,
    0,
    0,
    0,
    0,
    0,
    0,
    0,
    0,
    0,
    0,
    0,
    0,
    0,
    0,
    0,
    0,
    0,
    0,
    0,
    0,
    0,
    0,
    0,
    0,
    0,
    0,
    0,
    0,
    0,
    0,
    0,
    0,
    0,
    0,
    0,
    0,
    0,
    0,
    0,
    0,
    0,
    0,
    0,
    0,
    0,
    0,
    0,
    0,
    0,
    0,
    0,
    0,
    0,
    0,
    0,
    0,
    0,
    0,
    0,
    0,
    0,
    0,
    0,
    0,
    0,
    0,
    0,
    0,
    0,
    0,
    0,
    0,
    0,
    0,
    0,
    0,
    0,
    0,
    0,
    0,
    0,
    0,
    0,
    0,
    0,
    0,
    0,
    0,
    0,
    0,
    0,
    0,
    0,
    0,
    0,
    0,
    0,
    0,
    0,
    0,
    0,
    0,
    0,
    0,
    0,
    0,
    0,
    0,
    0,
    0,
    0,
    0,
    0,
    0,
    0,
    0,
    0,
    0,
    0,
    0,
    0,
    0,
    0,
    0,
    0,
    0,
    0,
    0,
    0,
    0,
    0,
    0,
    0,
    0,
    0,
    0,
    0,
    0,
    0,
    0,
    0,
    0,
    0,
    0,
    0,
    0,
    0,
    0,
    0,
    0,
    0,
    0,
    0,
    0,
    0,
    0,
    0,
    0,
    0,
    0,
    0,
    0,
    0,
    0,
    0,
    0,
    0,
    0,
    0,
    0,
    0,
    0,
    0,
    0,
    0,
    0,
    0,
    0,
    0,
    0,
    0,
    0,
    0,
    0,
    0,
    0,
    0,
    0,
    0,
    0,
    0,
    0,
    0,
    0,
    0,
    0,
    0,
    0,
    0,
    0,
    0,
    0,
    0,
    0,
    0,
    0,
    0,
    0,
    0,
    0,
    0,
    0,
    0,
    0,
    0,
    0,
    0,
    0,
    0,
    0,
    0,
    0,
    0,
    0,
    0,
    0,
    0,
    0,
    0,
    0,
    0,
    0,
    0,
    0,
    0,
    0,
    0,
    0,
    0,
    0,
    0,
    0,
    0,
    0,
    0,
    0,
    0,
    0,
    0,
    0,
    0,
    0,
    0,
    0,
    0,
    0,
    0,
    0,
    0,
    0,
    0,
    0,
    0,
    0,
    0,
    0,
    0,
    0,
    0,
    0,
    0,
    0,
    0,
    0,
    0,
    0,
    0,
    0,
    0,
    0,
    0,
    0,
    0,
    0,
    0,
    0,
    0,
    0,
    0,
    0,
    0,
    0,
    0,
    0,
    0,
    0,
    0,
    0,
    0,
    0,
    0,
    0,
    0,
    0,
    0,
    0,
    0,
    0,
    0,
    0,
    0,
    0,
    0,
    0,
    0,
    0,
    0,
    0,
    0,
    0,
    0,
    0,
    0,
    0,
    0,
    0,
    0,
    0,
    0,
    0,
    0,
    0,
    0,
    0,
    0,
    0,
    0,
    0,
    0,
    0,
    0,
    0,
    0,
    0,
    0,
    0,
    0,
    0,
    0,
    0,
    0,
    0,
    0,
    0,
    0,
    0,
    0,
    0,
    0,
    0,
    0,
    0,
    0,
    0,
    0,
    0,
    0,
    0,
    0,
    0,
    0,
    0,
    0,
    0,
    0,
    0,
    0,
    0,
    0,
    0,
    0,
    0,
    0,
    0,
    0,
    0,
    0,
    0,
    0,
    0,
    0,
    0,
    0,
    0,
    0,
    0,
    0,
    0,
    0,
    0,
    0,
    0,
    0,
    0,
    0,
    0,
    0,
    0,
    0,
    0,
    0,
    0,
    0,
    0,
    0,
    0,
    0,
    0,
    0,
    0,
    0,
    0,
    0,
    0,
    0,
    0,
    0,
    0,
    0,
    0,
    0,
    0,
    0,
    0,
    0,
    0,
    0,
    0,
    0,
    0,
    0,
    0,
    0,
    0,
    0,
    0,
    0,
    0,
    0,
    0,
    0,
    0,
    0,
    0,
    0,
    0,
    0,
    0,
    0,
    0,
    0,
    0,
    0,
    0,
    0,
    0,
    0,
    0,
    0,
    0,
    0,
    0,
    0,
    0,
    0,
    0,
    0,
    0,
    0,
    0,
    0,
    0,
    0,
    0,
    0,
    0,
    0,
    0,
    0,
    0,
    0,
    0,
    0,
    0,
    0,
    0,
    0,
    0,
    0,
    0,
    0,
    0,
    0,
    0,
    0,
    0,
    0,
    0,
    0,
    0,
    0,
    0,
    0,
    0,
    0,
    0,
    0,
    0,
    0,
    0,
    0,
    0,
    0,
    0,
    0,
    0,
    0,
    0,
    0,
    0,
    0,
    0,
    0,
    0,
    0,
    0,
    0,
    0,
    0,
    0,
    0,
    0,
    0,
    0,
    0,
    0,
    0,
    0,
    0,
    0,
    0,
    0,
    0,
    0,
    0,
    0,
    0,
    0,
    0,
    0,
    0,
    0,
    0,
    0,
    0,
    0,
    0,
    0,
    0,
    0,
    0,
    0,
    0,
    0,
    0,
    0,
    0,
    0,
    0,
    0,
    0,
    0,
    0,
    0,
    0,
    0,
    0,
    0,
    0,
    0,
    0,
    0,
    0,
    0,
    0,
    0,
    0,
    0,
    0,
    0,
    0,
    0,
    0,
    0,
    0,
    0,
    0,
    0,
    0,
    0,
    0,
    0,
    0,
    0,
    0,
    0,
    0,
    0,
    0,
    0,
    0,
    0,
    0,
    0,
    0,
    0,
    0,
    0,
    0,
    0,
    0,
    0,
    0,
    0,
    0,
    0,
    0,
    0,
    0,
    0,
    0,
    0,
    0,
    0,
    0,
    0,
    0,
    0,
    0,
    0,
    0,
    0,
    0,
    0,
    0,
    0,
    0,
    0,
    0,
    0,
    0,
    0,
    0,
    0,
    0,
    0,
    0,
    0,
    0,
    0,
    0,
    0,
    0,
    0,
    0,
    0,
    0,
    0,
    0,
    0,
    0,
    0,
    0,
    0,
    0,
    0,
    0,
    0,
    0,
    0,
    0,
    0,
    0,
    0,
    0,
    0,
    0,
    0,
    0,
    0,
    0,
    0,
    0,
    0,
    0,
    0,
    0,
    0,
    0,
    0,
    0,
    0,
    0,
    0,
    0,
    0,
    0,
    0,
    0,
    0,
    0,
    0,
    0,
    0,
    0,
    0,
    0,
    0,
    0,
    0,
    0,
    0,
    0,
    0,
    0,
    0,
    0,
    0,
    0,
    0,
    0,
    0,
    0,
    0,
    0,
    0,
    0,
    0,
    0,
    0,
    0,
    0,
    0,
    0,
    0,
    0,
    0,
    0,
    0,
    0,
    0,
    0,
    0,
    0,
    0,
    0,
    0,
    0,
    0,
    0,
    0,
    0,
    0,
    0,
    0,
    0,
    0,
    0,
    0,
    0,
    0,
    0,
    0,
    0,
    0,
    0,
    0,
    0,
    0,
    0,
    0,
    0,
    0,
    0,
    0,
    0,
    0,
    0,
    0,
    0,
    0,
    0,
    0,
    0,
    0,
    0,
    0,
    0,
    0,
    0,
    0,
    0,
    0,
    0,
    0,
    0,
    0,
    0,
    0,
    0,
    0,
    0,
    0,
    0,
    0,
    0,
    0,
    0,
    0,
    0,
    0,
    0,
    0,
    0,
    0,
    0,
    0,
    0,
    0,
    0,
    0,
    0,
    0,
    0,
    0,
    0,
    0,
    0,
    0,
    0,
    0,
    0,
    0,
    0,
    0,
    0,
    0,
    0,
    0,
    0,
    0,
    0,
    0,
    0,
    0,
    0,
    0,
    0,
    0,
    0,
    0,
    0,
    0,
    0,
    0,
    0,
    0,
    0,
    0,
    0,
    0,
    0,
    0,
    0,
    0,
    0,
    0,
    0,
    0,
    0,
    0,
    0,
    0,
    0,
    0,
    0,
    0,
    0,
    0,
    0,
    0,
    0,
    0,
    0,
    0,
    0,
    0,
    0,
    0,
    0,
    0,
    0,
    0,
    0,
    0,
    0,
    0,
    0,
    0,
    0,
    0,
    0,
    0,
    0,
    0,
    0,
    0,
    0,
    0,
    0,
    0,
    0,
    0,
    0,
    0,
    0,
    0,
    0,
    0,
    0,
    0,
    0,
    0,
    0,
    0,
    0,
    0,
    0,
    0,
    0,
    0,
    0,
    0,
    0,
    0,
    0,
    0,
    0,
    0,
    0,
    0,
    0,
    0,
    0,
    0,
    0,
    0,
    0,
    0,
    0,
    0,
    0,
    0,
    0,
    0,
    0,
    0,
    0,
    0,
    0,
    0,
    0,
    0,
    0,
    0,
    0,
    0,
    0,
    0,
    0,
    0,
    0,
    0,
    0,
    0,
    0,
    0,
    0,
    0,
    0,
    0,
    0,
    0,
    0,
    0,
    0,
    0,
    0,
    0,
    0,
    0,
    0,
    0,
    0,
    0,
    0,
    0,
    0,
    0,
    0,
    0,
    0,
    0,
    0,
    0,
    0,
    0,
    0,
    0,
    0,
    0,
    0,
    0,
    0,
    0,
    0,
    0,
    0,
    0,
    0,
    0,
    0,
    0,
    0,
    0,
    0,
    0,
    0,
    0,
    0,
    0,
    0,
    0,
    0,
    0,
    0,
    0,
    0,
    0,
    0,
    0,
    0,
    0,
    0,
    0,
    0,
    0,
    0,
    0,
    0,
    0,
    0,
    0,
    0,
    0,
    0,
    0,
    0,
    0,
    0,
    0,
    0,
    0,
    0,
    0,
    0,
    0,
    0,
    0,
    0,
    0,
    0,
    0,
    0,
    0,
    0,
    0,
    0,
    0,
    0,
    0,
    0,
    0,
    0,
    0,
    0,
    0,
    0,
    0,
    0,
    0,
    0,
    0,
    0,
    0,
    0,
    0,
    0,
    0,
    0,
    0,
    0,
    0,
    0,
    0,
    0,
    0,
    0,
    0,
    0,
    0,
    0,
    0,
    0,
    0,
    0,
    0,
    0,
    0,
    0,
    0,
    0,
    0,
    0,
    0,
    0,
    0,
    0,
    0,
    0,
    0,
    0,
    0,
    0,
    0,
    0,
    0,
    0,
    0,
    0,
    0,
    0,
    0,
    0,
    0,
    0,
    0,
    0,
    0,
    0,
    0,
    0,
    0,
    0,
    0,
    0,
    0,
    0,
    0,
    0,
    0,
    0,
    0,
    0,
    0,
    0,
    0,
    0,
    0,
    0,
    0,
    0,
    0,
    0,
    0,
    0,
    0,
    0,
    0,
    0,
    0,
    0,
    0,
    0,
    0,
    0,
    0,
    0,
    0,
    0,
    0,
    0,
    0,
    0,
    0,
    0,
    0,
    0,
    0,
    0,
    0,
    0,
    0,
    0,
    0,
    0,
    0,
    0,
    0,
    0,
    0,
    0,
    0,
    0,
    0,
    0,
    0,
    0,
    0,
    0,
    0,
    0,
    0,
    0,
    0,
    0,
    0,
    0,
    0,
    0,
    0,
    0,
    0,
    0,
    0,
    0,
    0,
    0,
    0,
    0,
    0,
    0,
    0,
    0,
    0,
    0,
    0,
    0,
    0,
    0,
    0,
    0,
    0,
    0,
    0,
    0,
    0,
    0,
    0,
    0,
    0,
    0,
    0,
    0,
    0,
    0,
    0,
    0,
    0,
    0,
    0,
    0,
    0,
    0,
    0,
    0,
    0,
    0,
    0,
    0,
    0,
    0,
    0,
    0,
    0,
    0,
    0,
    0,
    0,
    0,
    0,
    0,
    0,
    0,
    0,
    0,
    0,
    0,
    0,
    0,
    0,
    0,
    0,
    0,
    0,
    0,
    0,
    0,
    0,
    0,
    0,
    0,
    0,
    0,
    0,
    0,
    0,
    0,
    0,
    0,
    0,
    0,
    0,
    0,
    0,
    0,
    0,
    0,
    0,
    0,
    0,
    0,
    0,
    0,
    0,
    0,
    0,
    0,
    0,
    0,
    0,
    0,
    0,
    0,
    0,
    0,
    0,
    0,
    0,
    0,
    0,
    0,
    0,
    0,
    0,
    0,
    0,
    0,
    0,
    0,
    0,
    0,
    0,
    0,
    0,
    0,
    0,
    0,
    0,
    0,
    0,
    0,
    0,
    0,
    0,
    0,
    0,
    0,
    0,
    0,
    0,
    0,
    0,
    0,
    0,
    0,
    0,
    0,
    0,
    0,
    0,
    0,
    0,
    0,
    0,
    0,
    0,
    0,
    0,
    0,
    0,
    0,
    0,
    0,
    0,
    0,
    0,
    0,
    0,
    0,
    0,
    0,
    0,
    0,
    0,
    0,
    0,
    0,
    0,
    0,
    0,
    0,
    0,
    0,
    0,
    0,
    0,
    0,
    0,
    0,
    0,
    0,
    0,
    0,
    0,
    0,
    0,
    0,
    0,
    0,
    0,
    0,
    0,
    0,
    0,
    0,
    0,
    0,
    0,
    0,
    0,
    0,
    0,
    0,
    0,
    0,
    0,
    0,
    0,
    0,
    0,
    0,
    0,
    0,
    0,
    0,
    0,
    0,
    0,
    0,
    0,
    0,
    0,
    0,
    0,
    0,
    0,
    0,
    0,
    0,
    0,
    0,
    0,
    0,
    0,
    0,
    0,
    0,
    0,
    0,
    0,
    0,
    0,
    0,
    0,
    0,
    0,
    0,
    0,
    0,
    0,
    0,
    0,
    0,
    0,
    0,
    0,
    0,
    0,
    0,
    0,
    0,
    0,
    0,
    0,
    0,
    0,
    0,
    0,
    0,
    0,
    0,
    0,
    0,
    0,
    0,
    0,
    0,
    0,
    0,
    0,
    0,
    0,
    0,
    0,
    0,
    0,
    0,
    0,
    0,
    0,
    0,
    0,
    0,
    0,
    0,
    0,
    0,
    0,
    0,
    0,
    0,
    0,
    0,
    0,
    0,
    0,
    0,
    0,
    0,
    0,
    0,
    0,
    0,
    0,
    0,
    0,
    0,
    0,
    0,
    0,
    0,
    0,
    0,
    0,
    0,
    0,
    0,
    0,
    0,
    0,
    0,
    0,
    0,
    0,
    0,
    0,
    0,
    0,
    0,
    0,
    0,
    0,
    0,
    0,
    0,
    0,
    0,
    0,
    0,
    0,
    0,
    0,
    0,
    0,
    0,
    0,
    0,
    0,
    0,
    0,
    0,
    0,
    0,
    0,
    0,
    0,
    0,
    0,
    0,
    0,
    0,
    0,
    0,
    0,
    0,
    0,
    0,
    0,
    0,
    0,
    0,
    0,
    0,
    0,
    0,
    0,
    0,
    0,
    0,
    0,
    0,
    0,
    0,
    0,
    0,
    0,
    0,
    0,
    0,
    0,
    0,
    0,
    0,
    0,
    0,
    0,
    0,
    0,
    0,
    0,
    0,
    0,
    0,
    0,
    0,
    0,
    0,
    0,
    0,
    0,
    0,
    0,
    0,
    0,
    0,
    0,
    0,
    0,
    0,
    0,
    0,
    0,
    0,
    0,
    0,
    0,
    0,
    0,
    0,
    0,
    0,
    0,
    0,
    0,
    0,
    0,
    0,
    0,
    0,
    0,
    0,
    0,
    0,
    0,
    0,
    0,
    0,
    0,
    0,
    0,
    0,
    0,
    0,
    0,
    0,
    0,
    0,
    0,
    0,
    0,
    0,
    0,
    0,
    0,
    0,
    0,
    0,
    0,
    0,
    0,
    0,
    0,
    0,
    0,
    0,
    0,
    0,
    0,
    0,
    0,
    0,
    0,
    0,
    0,
    0,
    0,
    0,
    0,
    0,
    0,
    0,
    0,
    0,
    0,
    0,
    0,
    0,
    0,
    0,
    0,
    0,
    0,
    0,
    0,
    0,
    0,
    0,
    0,
    0,
    0,
    0,
    0,
    0,
    0,
    0,
    0,
    0,
    0,
    0,
    0,
    0,
    0,
    0,
    0,
    0,
    0,
    0,
    0,
    0,
    0,
    0,
    0,
    0,
    0,
    0,
    0,
    0,
    0,
    0,
    0,
    0,
    0,
    0,
    0,
    0,
    0,
    0,
    0,
    0,
    0,
    0,
    0,
    0,
    0,
    0,
    0,
    0,
    0,
    0,
    0,
    0,
    0,
    0,
    0,
    0,
    0,
    0,
    0,
    0,
    0,
    0,
    0,
    0,
    0,
    0,
    0,
    0,
    0,
    0,
    0,
    0,
    0,
    0,
    0,
    0,
    0,
    0,
    0,
    0,
    0,
    0,
    0,
    0,
    0,
    0,
    0,
    0,
    0,
    0,
    0,
    0,
    0,
    0,
    0,
    0,
    0,
    0,
    0,
    0,
    0,
    0,
    0,
    0,
    0,
    0,
    0,
    0,
    0,
    0,
    0,
    0,
    0,
    0,
    0,
    0,
    0,
    0,
    0,
    0,
    0,
    0,
    0,
    0,
    0,
    0,
    0,
    0,
    0,
    0,
    0,
    0,
    0,
    0,
    0,
    0,
    0,
    0,
    0,
    0,
    0,
    0,
    0,
    0,
    0,
    0,
    0,
    0,
    0,
    0,
    0,
    0,
    0,
    0,
    0,
    0,
    0,
    0,
    0,
    0,
    0,
    0,
    0,
    0,
    0,
    0,
    0,
    0,
    0,
    0,
    0,
    0,
    0,
    0,
    0,
    0,
    0,
    0,
    0,
    0,
    0,
    0,
    0,
    0,
    0,
    0,
    0,
    0,
    0,
    0,
    0,
    0,
    0,
    0,
    0,
    0,
    0,
    0,
    0,
    0,
    0,
    0,
    0,
    0,
    0,
    0,
    0,
    0,
    0,
    0,
    0,
    0,
    0,
    0,
    0,
    0,
    0,
    0,
    0,
    0,
    0,
    0,
    0,
    0,
    0,
    0,
    0,
    0,
    0,
    0,
    0,
    0,
    0,
    0,
    0,
    0,
    0,
    0,
    0,
    0,
    0,
    0
   ]
  },
  {
   "type": "objectgroup",
   "id": 2,
   "name": "objecten",
   "visible": true,
   "opacity": 1,
   "draworder": "topdown",
   "objects": [
    {
     "id": 1,
     "visible": true,
     "rotation": 0,
     "name": "toren",
     "gid": 769,
     "x": 4704,
     "y": 864,
     "width": 379,
     "height": 871,
     "properties": []
    },
    {
     "id": 2,
     "visible": true,
     "rotation": 0,
     "name": "schuurtje",
     "gid": 777,
     "x": 5024,
     "y": 832,
     "width": 460,
     "height": 285,
     "properties": []
    },
    {
     "id": 3,
     "visible": true,
     "rotation": 0,
     "name": "put",
     "gid": 778,
     "x": 4960,
     "y": 1184,
     "width": 460,
     "height": 285,
     "properties": []
    },
    {
     "id": 4,
     "visible": true,
     "rotation": 0,
     "name": "houtstapel",
     "gid": 779,
     "x": 5024,
     "y": 992,
     "width": 460,
     "height": 285,
     "properties": []
    },
    {
     "id": 5,
     "visible": true,
     "rotation": 0,
     "name": "waslijn",
     "gid": 780,
     "x": 4608,
     "y": 1152,
     "width": 460,
     "height": 285,
     "properties": []
    },
    {
     "id": 6,
     "visible": true,
     "rotation": 0,
     "name": "moestuin",
     "gid": 781,
     "x": 4512,
     "y": 928,
     "width": 460,
     "height": 285,
     "properties": []
    },
    {
     "id": 7,
     "visible": true,
     "rotation": 0,
     "name": "bank",
     "gid": 782,
     "x": 5088,
     "y": 992,
     "width": 460,
     "height": 285,
     "properties": []
    },
    {
     "id": 8,
     "visible": true,
     "rotation": 0,
     "name": "lantaarn",
     "gid": 783,
     "x": 4640,
     "y": 1120,
     "width": 460,
     "height": 285,
     "properties": []
    },
    {
     "id": 9,
     "visible": true,
     "rotation": 0,
     "name": "den",
     "gid": 603,
     "x": 4288,
     "y": 512,
     "width": 346,
     "height": 308,
     "properties": []
    },
    {
     "id": 10,
     "visible": true,
     "rotation": 0,
     "name": "herfstEik",
     "gid": 602,
     "x": 4480,
     "y": 576,
     "width": 346,
     "height": 308,
     "properties": []
    },
    {
     "id": 11,
     "visible": true,
     "rotation": 0,
     "name": "den",
     "gid": 603,
     "x": 4448,
     "y": 512,
     "width": 346,
     "height": 308,
     "properties": []
    },
    {
     "id": 12,
     "visible": true,
     "rotation": 0,
     "name": "eik",
     "gid": 601,
     "x": 4672,
     "y": 544,
     "width": 346,
     "height": 308,
     "properties": []
    },
    {
     "id": 13,
     "visible": true,
     "rotation": 0,
     "name": "den",
     "gid": 603,
     "x": 4864,
     "y": 512,
     "width": 346,
     "height": 308,
     "properties": []
    },
    {
     "id": 14,
     "visible": true,
     "rotation": 0,
     "name": "berk",
     "gid": 604,
     "x": 5056,
     "y": 512,
     "width": 346,
     "height": 308,
     "properties": []
    },
    {
     "id": 15,
     "visible": true,
     "rotation": 0,
     "name": "herfstEik",
     "gid": 602,
     "x": 5216,
     "y": 512,
     "width": 346,
     "height": 308,
     "properties": []
    },
    {
     "id": 16,
     "visible": true,
     "rotation": 0,
     "name": "den",
     "gid": 603,
     "x": 5408,
     "y": 544,
     "width": 346,
     "height": 308,
     "properties": []
    },
    {
     "id": 17,
     "visible": true,
     "rotation": 0,
     "name": "dodeBoom",
     "gid": 605,
     "x": 4544,
     "y": 640,
     "width": 346,
     "height": 308,
     "properties": []
    },
    {
     "id": 18,
     "visible": true,
     "rotation": 0,
     "name": "den",
     "gid": 603,
     "x": 5312,
     "y": 640,
     "width": 346,
     "height": 308,
     "properties": []
    },
    {
     "id": 19,
     "visible": true,
     "rotation": 0,
     "name": "berk",
     "gid": 604,
     "x": 4352,
     "y": 672,
     "width": 346,
     "height": 308,
     "properties": []
    },
    {
     "id": 20,
     "visible": true,
     "rotation": 0,
     "name": "eik",
     "gid": 601,
     "x": 5472,
     "y": 736,
     "width": 346,
     "height": 308,
     "properties": []
    },
    {
     "id": 21,
     "visible": true,
     "rotation": 0,
     "name": "den",
     "gid": 603,
     "x": 5440,
     "y": 960,
     "width": 346,
     "height": 308,
     "properties": []
    },
    {
     "id": 22,
     "visible": true,
     "rotation": 0,
     "name": "eik",
     "gid": 601,
     "x": 5472,
     "y": 1152,
     "width": 346,
     "height": 308,
     "properties": []
    },
    {
     "id": 23,
     "visible": true,
     "rotation": 0,
     "name": "berk",
     "gid": 604,
     "x": 5376,
     "y": 1312,
     "width": 346,
     "height": 308,
     "properties": []
    },
    {
     "id": 24,
     "visible": true,
     "rotation": 0,
     "name": "den",
     "gid": 603,
     "x": 5472,
     "y": 1376,
     "width": 346,
     "height": 308,
     "properties": []
    },
    {
     "id": 25,
     "visible": true,
     "rotation": 0,
     "name": "eik",
     "gid": 601,
     "x": 5248,
     "y": 1440,
     "width": 346,
     "height": 308,
     "properties": []
    },
    {
     "id": 26,
     "visible": true,
     "rotation": 0,
     "name": "den",
     "gid": 603,
     "x": 5056,
     "y": 1472,
     "width": 346,
     "height": 308,
     "properties": []
    },
    {
     "id": 27,
     "visible": true,
     "rotation": 0,
     "name": "berk",
     "gid": 604,
     "x": 4896,
     "y": 1472,
     "width": 346,
     "height": 308,
     "properties": []
    },
    {
     "id": 28,
     "visible": true,
     "rotation": 0,
     "name": "eik",
     "gid": 601,
     "x": 4704,
     "y": 1472,
     "width": 346,
     "height": 308,
     "properties": []
    },
    {
     "id": 29,
     "visible": true,
     "rotation": 0,
     "name": "den",
     "gid": 603,
     "x": 4512,
     "y": 1440,
     "width": 346,
     "height": 308,
     "properties": []
    },
    {
     "id": 30,
     "visible": true,
     "rotation": 0,
     "name": "den",
     "gid": 603,
     "x": 4224,
     "y": 1248,
     "width": 346,
     "height": 308,
     "properties": []
    },
    {
     "id": 31,
     "visible": true,
     "rotation": 0,
     "name": "berk",
     "gid": 604,
     "x": 4224,
     "y": 1088,
     "width": 346,
     "height": 308,
     "properties": []
    },
    {
     "id": 32,
     "visible": true,
     "rotation": 0,
     "name": "eik",
     "gid": 601,
     "x": 4224,
     "y": 864,
     "width": 346,
     "height": 308,
     "properties": []
    },
    {
     "id": 33,
     "visible": true,
     "rotation": 0,
     "name": "den",
     "gid": 603,
     "x": 4224,
     "y": 672,
     "width": 346,
     "height": 308,
     "properties": []
    },
    {
     "id": 34,
     "visible": true,
     "rotation": 0,
     "name": "wilg",
     "gid": 606,
     "x": 4288,
     "y": 1344,
     "width": 346,
     "height": 308,
     "properties": []
    },
    {
     "id": 35,
     "visible": true,
     "rotation": 0,
     "name": "appelboom",
     "gid": 607,
     "x": 4448,
     "y": 1248,
     "width": 346,
     "height": 308,
     "properties": []
    },
    {
     "id": 36,
     "visible": true,
     "rotation": 0,
     "name": "eik",
     "gid": 601,
     "x": 5120,
     "y": 640,
     "width": 346,
     "height": 308,
     "properties": []
    },
    {
     "id": 37,
     "visible": true,
     "rotation": 0,
     "name": "struik",
     "gid": 633,
     "x": 4320,
     "y": 608,
     "width": 123,
     "height": 119,
     "properties": []
    },
    {
     "id": 38,
     "visible": true,
     "rotation": 0,
     "name": "struik",
     "gid": 633,
     "x": 4768,
     "y": 576,
     "width": 123,
     "height": 119,
     "properties": []
    },
    {
     "id": 39,
     "visible": true,
     "rotation": 0,
     "name": "bessenStruik",
     "gid": 634,
     "x": 4960,
     "y": 576,
     "width": 123,
     "height": 119,
     "properties": []
    },
    {
     "id": 40,
     "visible": true,
     "rotation": 0,
     "name": "struik",
     "gid": 633,
     "x": 5312,
     "y": 576,
     "width": 123,
     "height": 119,
     "properties": []
    },
    {
     "id": 41,
     "visible": true,
     "rotation": 0,
     "name": "bessenStruik",
     "gid": 634,
     "x": 5408,
     "y": 832,
     "width": 123,
     "height": 119,
     "properties": []
    },
    {
     "id": 42,
     "visible": true,
     "rotation": 0,
     "name": "struik",
     "gid": 633,
     "x": 5408,
     "y": 1248,
     "width": 123,
     "height": 119,
     "properties": []
    },
    {
     "id": 43,
     "visible": true,
     "rotation": 0,
     "name": "struik",
     "gid": 633,
     "x": 5152,
     "y": 1440,
     "width": 123,
     "height": 119,
     "properties": []
    },
    {
     "id": 44,
     "visible": true,
     "rotation": 0,
     "name": "bessenStruik",
     "gid": 634,
     "x": 4800,
     "y": 1440,
     "width": 123,
     "height": 119,
     "properties": []
    },
    {
     "id": 45,
     "visible": true,
     "rotation": 0,
     "name": "struik",
     "gid": 633,
     "x": 4256,
     "y": 1152,
     "width": 123,
     "height": 119,
     "properties": []
    },
    {
     "id": 46,
     "visible": true,
     "rotation": 0,
     "name": "struik",
     "gid": 633,
     "x": 4224,
     "y": 768,
     "width": 123,
     "height": 119,
     "properties": []
    },
    {
     "id": 47,
     "visible": true,
     "rotation": 0,
     "name": "boomstronk",
     "gid": 640,
     "x": 4896,
     "y": 640,
     "width": 123,
     "height": 119,
     "properties": []
    },
    {
     "id": 48,
     "visible": true,
     "rotation": 0,
     "name": "boomstronk",
     "gid": 640,
     "x": 4320,
     "y": 1280,
     "width": 123,
     "height": 119,
     "properties": []
    },
    {
     "id": 49,
     "visible": true,
     "rotation": 0,
     "name": "rots",
     "gid": 641,
     "x": 5344,
     "y": 1344,
     "width": 123,
     "height": 119,
     "properties": []
    },
    {
     "id": 50,
     "visible": true,
     "rotation": 0,
     "name": "rots",
     "gid": 641,
     "x": 4256,
     "y": 576,
     "width": 123,
     "height": 119,
     "properties": []
    },
    {
     "id": 51,
     "visible": true,
     "rotation": 0,
     "name": "struik",
     "gid": 633,
     "x": 4192,
     "y": 512,
     "width": 123,
     "height": 119,
     "properties": []
    },
    {
     "id": 52,
     "visible": true,
     "rotation": 0,
     "name": "struik",
     "gid": 633,
     "x": 5504,
     "y": 512,
     "width": 123,
     "height": 119,
     "properties": []
    },
    {
     "id": 53,
     "visible": true,
     "rotation": 0,
     "name": "struik",
     "gid": 633,
     "x": 5504,
     "y": 1440,
     "width": 123,
     "height": 119,
     "properties": []
    },
    {
     "id": 54,
     "visible": true,
     "rotation": 0,
     "name": "struik",
     "gid": 633,
     "x": 4192,
     "y": 1440,
     "width": 123,
     "height": 119,
     "properties": []
    },
    {
     "id": 55,
     "visible": true,
     "rotation": 0,
     "name": "struik",
     "gid": 633,
     "x": 4608,
     "y": 512,
     "width": 123,
     "height": 119,
     "properties": []
    },
    {
     "id": 56,
     "visible": true,
     "rotation": 0,
     "name": "berk",
     "gid": 604,
     "x": 3840,
     "y": 128,
     "width": 346,
     "height": 308,
     "properties": []
    },
    {
     "id": 57,
     "visible": true,
     "rotation": 0,
     "name": "berk",
     "gid": 604,
     "x": 4032,
     "y": 320,
     "width": 346,
     "height": 308,
     "properties": []
    },
    {
     "id": 58,
     "visible": true,
     "rotation": 0,
     "name": "eik",
     "gid": 601,
     "x": 4064,
     "y": 320,
     "width": 346,
     "height": 308,
     "properties": []
    },
    {
     "id": 59,
     "visible": true,
     "rotation": 0,
     "name": "eik",
     "gid": 601,
     "x": 4096,
     "y": 320,
     "width": 346,
     "height": 308,
     "properties": []
    },
    {
     "id": 60,
     "visible": true,
     "rotation": 0,
     "name": "den",
     "gid": 603,
     "x": 4128,
     "y": 320,
     "width": 346,
     "height": 308,
     "properties": []
    },
    {
     "id": 61,
     "visible": true,
     "rotation": 0,
     "name": "eik",
     "gid": 601,
     "x": 4160,
     "y": 320,
     "width": 346,
     "height": 308,
     "properties": []
    },
    {
     "id": 62,
     "visible": true,
     "rotation": 0,
     "name": "den",
     "gid": 603,
     "x": 4192,
     "y": 320,
     "width": 346,
     "height": 308,
     "properties": []
    },
    {
     "id": 63,
     "visible": true,
     "rotation": 0,
     "name": "den",
     "gid": 603,
     "x": 4224,
     "y": 320,
     "width": 346,
     "height": 308,
     "properties": []
    },
    {
     "id": 64,
     "visible": true,
     "rotation": 0,
     "name": "den",
     "gid": 603,
     "x": 4256,
     "y": 320,
     "width": 346,
     "height": 308,
     "properties": []
    },
    {
     "id": 65,
     "visible": true,
     "rotation": 0,
     "name": "herfstEik",
     "gid": 602,
     "x": 4288,
     "y": 320,
     "width": 346,
     "height": 308,
     "properties": []
    },
    {
     "id": 66,
     "visible": true,
     "rotation": 0,
     "name": "herfstEik",
     "gid": 602,
     "x": 4320,
     "y": 320,
     "width": 346,
     "height": 308,
     "properties": []
    },
    {
     "id": 67,
     "visible": true,
     "rotation": 0,
     "name": "herfstEik",
     "gid": 602,
     "x": 4352,
     "y": 320,
     "width": 346,
     "height": 308,
     "properties": []
    },
    {
     "id": 68,
     "visible": true,
     "rotation": 0,
     "name": "berk",
     "gid": 604,
     "x": 4384,
     "y": 320,
     "width": 346,
     "height": 308,
     "properties": []
    },
    {
     "id": 69,
     "visible": true,
     "rotation": 0,
     "name": "berk",
     "gid": 604,
     "x": 4416,
     "y": 320,
     "width": 346,
     "height": 308,
     "properties": []
    },
    {
     "id": 70,
     "visible": true,
     "rotation": 0,
     "name": "eik",
     "gid": 601,
     "x": 4448,
     "y": 320,
     "width": 346,
     "height": 308,
     "properties": []
    },
    {
     "id": 71,
     "visible": true,
     "rotation": 0,
     "name": "dodeBoom",
     "gid": 605,
     "x": 4480,
     "y": 320,
     "width": 346,
     "height": 308,
     "properties": []
    },
    {
     "id": 72,
     "visible": true,
     "rotation": 0,
     "name": "herfstEik",
     "gid": 602,
     "x": 4512,
     "y": 320,
     "width": 346,
     "height": 308,
     "properties": []
    },
    {
     "id": 73,
     "visible": true,
     "rotation": 0,
     "name": "den",
     "gid": 603,
     "x": 4544,
     "y": 320,
     "width": 346,
     "height": 308,
     "properties": []
    },
    {
     "id": 74,
     "visible": true,
     "rotation": 0,
     "name": "eik",
     "gid": 601,
     "x": 4576,
     "y": 320,
     "width": 346,
     "height": 308,
     "properties": []
    },
    {
     "id": 75,
     "visible": true,
     "rotation": 0,
     "name": "dodeBoom",
     "gid": 605,
     "x": 4608,
     "y": 320,
     "width": 346,
     "height": 308,
     "properties": []
    },
    {
     "id": 76,
     "visible": true,
     "rotation": 0,
     "name": "herfstEik",
     "gid": 602,
     "x": 4640,
     "y": 320,
     "width": 346,
     "height": 308,
     "properties": []
    },
    {
     "id": 77,
     "visible": true,
     "rotation": 0,
     "name": "herfstEik",
     "gid": 602,
     "x": 4672,
     "y": 320,
     "width": 346,
     "height": 308,
     "properties": []
    },
    {
     "id": 78,
     "visible": true,
     "rotation": 0,
     "name": "den",
     "gid": 603,
     "x": 4704,
     "y": 320,
     "width": 346,
     "height": 308,
     "properties": []
    },
    {
     "id": 79,
     "visible": true,
     "rotation": 0,
     "name": "dodeBoom",
     "gid": 605,
     "x": 4736,
     "y": 320,
     "width": 346,
     "height": 308,
     "properties": []
    },
    {
     "id": 80,
     "visible": true,
     "rotation": 0,
     "name": "den",
     "gid": 603,
     "x": 4768,
     "y": 320,
     "width": 346,
     "height": 308,
     "properties": []
    },
    {
     "id": 81,
     "visible": true,
     "rotation": 0,
     "name": "eik",
     "gid": 601,
     "x": 4800,
     "y": 320,
     "width": 346,
     "height": 308,
     "properties": []
    },
    {
     "id": 82,
     "visible": true,
     "rotation": 0,
     "name": "den",
     "gid": 603,
     "x": 4832,
     "y": 320,
     "width": 346,
     "height": 308,
     "properties": []
    },
    {
     "id": 83,
     "visible": true,
     "rotation": 0,
     "name": "den",
     "gid": 603,
     "x": 4864,
     "y": 320,
     "width": 346,
     "height": 308,
     "properties": []
    },
    {
     "id": 84,
     "visible": true,
     "rotation": 0,
     "name": "den",
     "gid": 603,
     "x": 4896,
     "y": 320,
     "width": 346,
     "height": 308,
     "properties": []
    },
    {
     "id": 85,
     "visible": true,
     "rotation": 0,
     "name": "berk",
     "gid": 604,
     "x": 4928,
     "y": 320,
     "width": 346,
     "height": 308,
     "properties": []
    },
    {
     "id": 86,
     "visible": true,
     "rotation": 0,
     "name": "den",
     "gid": 603,
     "x": 4960,
     "y": 320,
     "width": 346,
     "height": 308,
     "properties": []
    },
    {
     "id": 87,
     "visible": true,
     "rotation": 0,
     "name": "berk",
     "gid": 604,
     "x": 4992,
     "y": 320,
     "width": 346,
     "height": 308,
     "properties": []
    },
    {
     "id": 88,
     "visible": true,
     "rotation": 0,
     "name": "berk",
     "gid": 604,
     "x": 5024,
     "y": 320,
     "width": 346,
     "height": 308,
     "properties": []
    },
    {
     "id": 89,
     "visible": true,
     "rotation": 0,
     "name": "berk",
     "gid": 604,
     "x": 5056,
     "y": 320,
     "width": 346,
     "height": 308,
     "properties": []
    },
    {
     "id": 90,
     "visible": true,
     "rotation": 0,
     "name": "herfstEik",
     "gid": 602,
     "x": 5088,
     "y": 320,
     "width": 346,
     "height": 308,
     "properties": []
    },
    {
     "id": 91,
     "visible": true,
     "rotation": 0,
     "name": "den",
     "gid": 603,
     "x": 5120,
     "y": 320,
     "width": 346,
     "height": 308,
     "properties": []
    },
    {
     "id": 92,
     "visible": true,
     "rotation": 0,
     "name": "den",
     "gid": 603,
     "x": 5152,
     "y": 320,
     "width": 346,
     "height": 308,
     "properties": []
    },
    {
     "id": 93,
     "visible": true,
     "rotation": 0,
     "name": "eik",
     "gid": 601,
     "x": 5184,
     "y": 320,
     "width": 346,
     "height": 308,
     "properties": []
    },
    {
     "id": 94,
     "visible": true,
     "rotation": 0,
     "name": "dodeBoom",
     "gid": 605,
     "x": 5216,
     "y": 320,
     "width": 346,
     "height": 308,
     "properties": []
    },
    {
     "id": 95,
     "visible": true,
     "rotation": 0,
     "name": "dodeBoom",
     "gid": 605,
     "x": 5248,
     "y": 320,
     "width": 346,
     "height": 308,
     "properties": []
    },
    {
     "id": 96,
     "visible": true,
     "rotation": 0,
     "name": "den",
     "gid": 603,
     "x": 5280,
     "y": 320,
     "width": 346,
     "height": 308,
     "properties": []
    },
    {
     "id": 97,
     "visible": true,
     "rotation": 0,
     "name": "herfstEik",
     "gid": 602,
     "x": 5312,
     "y": 320,
     "width": 346,
     "height": 308,
     "properties": []
    },
    {
     "id": 98,
     "visible": true,
     "rotation": 0,
     "name": "den",
     "gid": 603,
     "x": 5344,
     "y": 320,
     "width": 346,
     "height": 308,
     "properties": []
    },
    {
     "id": 99,
     "visible": true,
     "rotation": 0,
     "name": "berk",
     "gid": 604,
     "x": 5376,
     "y": 320,
     "width": 346,
     "height": 308,
     "properties": []
    },
    {
     "id": 100,
     "visible": true,
     "rotation": 0,
     "name": "den",
     "gid": 603,
     "x": 5408,
     "y": 320,
     "width": 346,
     "height": 308,
     "properties": []
    },
    {
     "id": 101,
     "visible": true,
     "rotation": 0,
     "name": "dodeBoom",
     "gid": 605,
     "x": 5440,
     "y": 320,
     "width": 346,
     "height": 308,
     "properties": []
    },
    {
     "id": 102,
     "visible": true,
     "rotation": 0,
     "name": "dodeBoom",
     "gid": 605,
     "x": 5472,
     "y": 320,
     "width": 346,
     "height": 308,
     "properties": []
    },
    {
     "id": 103,
     "visible": true,
     "rotation": 0,
     "name": "eik",
     "gid": 601,
     "x": 5504,
     "y": 320,
     "width": 346,
     "height": 308,
     "properties": []
    },
    {
     "id": 104,
     "visible": true,
     "rotation": 0,
     "name": "den",
     "gid": 603,
     "x": 5536,
     "y": 320,
     "width": 346,
     "height": 308,
     "properties": []
    },
    {
     "id": 105,
     "visible": true,
     "rotation": 0,
     "name": "den",
     "gid": 603,
     "x": 5568,
     "y": 320,
     "width": 346,
     "height": 308,
     "properties": []
    },
    {
     "id": 106,
     "visible": true,
     "rotation": 0,
     "name": "herfstEik",
     "gid": 602,
     "x": 5600,
     "y": 320,
     "width": 346,
     "height": 308,
     "properties": []
    },
    {
     "id": 107,
     "visible": true,
     "rotation": 0,
     "name": "dodeBoom",
     "gid": 605,
     "x": 5632,
     "y": 320,
     "width": 346,
     "height": 308,
     "properties": []
    },
    {
     "id": 108,
     "visible": true,
     "rotation": 0,
     "name": "den",
     "gid": 603,
     "x": 5664,
     "y": 320,
     "width": 346,
     "height": 308,
     "properties": []
    },
    {
     "id": 109,
     "visible": true,
     "rotation": 0,
     "name": "den",
     "gid": 603,
     "x": 4032,
     "y": 352,
     "width": 346,
     "height": 308,
     "properties": []
    },
    {
     "id": 110,
     "visible": true,
     "rotation": 0,
     "name": "herfstEik",
     "gid": 602,
     "x": 4064,
     "y": 352,
     "width": 346,
     "height": 308,
     "properties": []
    },
    {
     "id": 111,
     "visible": true,
     "rotation": 0,
     "name": "den",
     "gid": 603,
     "x": 4096,
     "y": 352,
     "width": 346,
     "height": 308,
     "properties": []
    },
    {
     "id": 112,
     "visible": true,
     "rotation": 0,
     "name": "herfstEik",
     "gid": 602,
     "x": 4160,
     "y": 352,
     "width": 346,
     "height": 308,
     "properties": []
    },
    {
     "id": 113,
     "visible": true,
     "rotation": 0,
     "name": "den",
     "gid": 603,
     "x": 4192,
     "y": 352,
     "width": 346,
     "height": 308,
     "properties": []
    },
    {
     "id": 114,
     "visible": true,
     "rotation": 0,
     "name": "dodeBoom",
     "gid": 605,
     "x": 4288,
     "y": 352,
     "width": 346,
     "height": 308,
     "properties": []
    },
    {
     "id": 115,
     "visible": true,
     "rotation": 0,
     "name": "berk",
     "gid": 604,
     "x": 4320,
     "y": 352,
     "width": 346,
     "height": 308,
     "properties": []
    },
    {
     "id": 116,
     "visible": true,
     "rotation": 0,
     "name": "herfstEik",
     "gid": 602,
     "x": 4352,
     "y": 352,
     "width": 346,
     "height": 308,
     "properties": []
    },
    {
     "id": 117,
     "visible": true,
     "rotation": 0,
     "name": "berk",
     "gid": 604,
     "x": 4384,
     "y": 352,
     "width": 346,
     "height": 308,
     "properties": []
    },
    {
     "id": 118,
     "visible": true,
     "rotation": 0,
     "name": "den",
     "gid": 603,
     "x": 4416,
     "y": 352,
     "width": 346,
     "height": 308,
     "properties": []
    },
    {
     "id": 119,
     "visible": true,
     "rotation": 0,
     "name": "den",
     "gid": 603,
     "x": 4448,
     "y": 352,
     "width": 346,
     "height": 308,
     "properties": []
    },
    {
     "id": 120,
     "visible": true,
     "rotation": 0,
     "name": "den",
     "gid": 603,
     "x": 4480,
     "y": 352,
     "width": 346,
     "height": 308,
     "properties": []
    },
    {
     "id": 121,
     "visible": true,
     "rotation": 0,
     "name": "den",
     "gid": 603,
     "x": 4512,
     "y": 352,
     "width": 346,
     "height": 308,
     "properties": []
    },
    {
     "id": 122,
     "visible": true,
     "rotation": 0,
     "name": "herfstEik",
     "gid": 602,
     "x": 4544,
     "y": 352,
     "width": 346,
     "height": 308,
     "properties": []
    },
    {
     "id": 123,
     "visible": true,
     "rotation": 0,
     "name": "dodeBoom",
     "gid": 605,
     "x": 4576,
     "y": 352,
     "width": 346,
     "height": 308,
     "properties": []
    },
    {
     "id": 124,
     "visible": true,
     "rotation": 0,
     "name": "berk",
     "gid": 604,
     "x": 4608,
     "y": 352,
     "width": 346,
     "height": 308,
     "properties": []
    },
    {
     "id": 125,
     "visible": true,
     "rotation": 0,
     "name": "den",
     "gid": 603,
     "x": 4640,
     "y": 352,
     "width": 346,
     "height": 308,
     "properties": []
    },
    {
     "id": 126,
     "visible": true,
     "rotation": 0,
     "name": "den",
     "gid": 603,
     "x": 4672,
     "y": 352,
     "width": 346,
     "height": 308,
     "properties": []
    },
    {
     "id": 127,
     "visible": true,
     "rotation": 0,
     "name": "dodeBoom",
     "gid": 605,
     "x": 4704,
     "y": 352,
     "width": 346,
     "height": 308,
     "properties": []
    },
    {
     "id": 128,
     "visible": true,
     "rotation": 0,
     "name": "den",
     "gid": 603,
     "x": 4768,
     "y": 352,
     "width": 346,
     "height": 308,
     "properties": []
    },
    {
     "id": 129,
     "visible": true,
     "rotation": 0,
     "name": "herfstEik",
     "gid": 602,
     "x": 4864,
     "y": 352,
     "width": 346,
     "height": 308,
     "properties": []
    },
    {
     "id": 130,
     "visible": true,
     "rotation": 0,
     "name": "den",
     "gid": 603,
     "x": 4896,
     "y": 352,
     "width": 346,
     "height": 308,
     "properties": []
    },
    {
     "id": 131,
     "visible": true,
     "rotation": 0,
     "name": "eik",
     "gid": 601,
     "x": 4928,
     "y": 352,
     "width": 346,
     "height": 308,
     "properties": []
    },
    {
     "id": 132,
     "visible": true,
     "rotation": 0,
     "name": "eik",
     "gid": 601,
     "x": 4960,
     "y": 352,
     "width": 346,
     "height": 308,
     "properties": []
    },
    {
     "id": 133,
     "visible": true,
     "rotation": 0,
     "name": "den",
     "gid": 603,
     "x": 4992,
     "y": 352,
     "width": 346,
     "height": 308,
     "properties": []
    },
    {
     "id": 134,
     "visible": true,
     "rotation": 0,
     "name": "berk",
     "gid": 604,
     "x": 5120,
     "y": 352,
     "width": 346,
     "height": 308,
     "properties": []
    },
    {
     "id": 135,
     "visible": true,
     "rotation": 0,
     "name": "eik",
     "gid": 601,
     "x": 5216,
     "y": 352,
     "width": 346,
     "height": 308,
     "properties": []
    },
    {
     "id": 136,
     "visible": true,
     "rotation": 0,
     "name": "berk",
     "gid": 604,
     "x": 5248,
     "y": 352,
     "width": 346,
     "height": 308,
     "properties": []
    },
    {
     "id": 137,
     "visible": true,
     "rotation": 0,
     "name": "den",
     "gid": 603,
     "x": 5280,
     "y": 352,
     "width": 346,
     "height": 308,
     "properties": []
    },
    {
     "id": 138,
     "visible": true,
     "rotation": 0,
     "name": "herfstEik",
     "gid": 602,
     "x": 5312,
     "y": 352,
     "width": 346,
     "height": 308,
     "properties": []
    },
    {
     "id": 139,
     "visible": true,
     "rotation": 0,
     "name": "eik",
     "gid": 601,
     "x": 5344,
     "y": 352,
     "width": 346,
     "height": 308,
     "properties": []
    },
    {
     "id": 140,
     "visible": true,
     "rotation": 0,
     "name": "eik",
     "gid": 601,
     "x": 5376,
     "y": 352,
     "width": 346,
     "height": 308,
     "properties": []
    },
    {
     "id": 141,
     "visible": true,
     "rotation": 0,
     "name": "den",
     "gid": 603,
     "x": 5408,
     "y": 352,
     "width": 346,
     "height": 308,
     "properties": []
    },
    {
     "id": 142,
     "visible": true,
     "rotation": 0,
     "name": "den",
     "gid": 603,
     "x": 5440,
     "y": 352,
     "width": 346,
     "height": 308,
     "properties": []
    },
    {
     "id": 143,
     "visible": true,
     "rotation": 0,
     "name": "dodeBoom",
     "gid": 605,
     "x": 5472,
     "y": 352,
     "width": 346,
     "height": 308,
     "properties": []
    },
    {
     "id": 144,
     "visible": true,
     "rotation": 0,
     "name": "eik",
     "gid": 601,
     "x": 5504,
     "y": 352,
     "width": 346,
     "height": 308,
     "properties": []
    },
    {
     "id": 145,
     "visible": true,
     "rotation": 0,
     "name": "dodeBoom",
     "gid": 605,
     "x": 5536,
     "y": 352,
     "width": 346,
     "height": 308,
     "properties": []
    },
    {
     "id": 146,
     "visible": true,
     "rotation": 0,
     "name": "den",
     "gid": 603,
     "x": 5600,
     "y": 352,
     "width": 346,
     "height": 308,
     "properties": []
    },
    {
     "id": 147,
     "visible": true,
     "rotation": 0,
     "name": "berk",
     "gid": 604,
     "x": 5632,
     "y": 352,
     "width": 346,
     "height": 308,
     "properties": []
    },
    {
     "id": 148,
     "visible": true,
     "rotation": 0,
     "name": "herfstEik",
     "gid": 602,
     "x": 5664,
     "y": 352,
     "width": 346,
     "height": 308,
     "properties": []
    },
    {
     "id": 149,
     "visible": true,
     "rotation": 0,
     "name": "eik",
     "gid": 601,
     "x": 4032,
     "y": 384,
     "width": 346,
     "height": 308,
     "properties": []
    },
    {
     "id": 150,
     "visible": true,
     "rotation": 0,
     "name": "berk",
     "gid": 604,
     "x": 4128,
     "y": 384,
     "width": 346,
     "height": 308,
     "properties": []
    },
    {
     "id": 151,
     "visible": true,
     "rotation": 0,
     "name": "dodeBoom",
     "gid": 605,
     "x": 4288,
     "y": 384,
     "width": 346,
     "height": 308,
     "properties": []
    },
    {
     "id": 152,
     "visible": true,
     "rotation": 0,
     "name": "berk",
     "gid": 604,
     "x": 4480,
     "y": 384,
     "width": 346,
     "height": 308,
     "properties": []
    },
    {
     "id": 153,
     "visible": true,
     "rotation": 0,
     "name": "dodeBoom",
     "gid": 605,
     "x": 4704,
     "y": 384,
     "width": 346,
     "height": 308,
     "properties": []
    },
    {
     "id": 154,
     "visible": true,
     "rotation": 0,
     "name": "dodeBoom",
     "gid": 605,
     "x": 4928,
     "y": 384,
     "width": 346,
     "height": 308,
     "properties": []
    },
    {
     "id": 155,
     "visible": true,
     "rotation": 0,
     "name": "eik",
     "gid": 601,
     "x": 5024,
     "y": 384,
     "width": 346,
     "height": 308,
     "properties": []
    },
    {
     "id": 156,
     "visible": true,
     "rotation": 0,
     "name": "den",
     "gid": 603,
     "x": 5056,
     "y": 384,
     "width": 346,
     "height": 308,
     "properties": []
    },
    {
     "id": 157,
     "visible": true,
     "rotation": 0,
     "name": "berk",
     "gid": 604,
     "x": 5088,
     "y": 384,
     "width": 346,
     "height": 308,
     "properties": []
    },
    {
     "id": 158,
     "visible": true,
     "rotation": 0,
     "name": "den",
     "gid": 603,
     "x": 5184,
     "y": 384,
     "width": 346,
     "height": 308,
     "properties": []
    },
    {
     "id": 159,
     "visible": true,
     "rotation": 0,
     "name": "herfstEik",
     "gid": 602,
     "x": 5216,
     "y": 384,
     "width": 346,
     "height": 308,
     "properties": []
    },
    {
     "id": 160,
     "visible": true,
     "rotation": 0,
     "name": "berk",
     "gid": 604,
     "x": 5280,
     "y": 384,
     "width": 346,
     "height": 308,
     "properties": []
    },
    {
     "id": 161,
     "visible": true,
     "rotation": 0,
     "name": "dodeBoom",
     "gid": 605,
     "x": 5312,
     "y": 384,
     "width": 346,
     "height": 308,
     "properties": []
    },
    {
     "id": 162,
     "visible": true,
     "rotation": 0,
     "name": "herfstEik",
     "gid": 602,
     "x": 5344,
     "y": 384,
     "width": 346,
     "height": 308,
     "properties": []
    },
    {
     "id": 163,
     "visible": true,
     "rotation": 0,
     "name": "den",
     "gid": 603,
     "x": 5440,
     "y": 384,
     "width": 346,
     "height": 308,
     "properties": []
    },
    {
     "id": 164,
     "visible": true,
     "rotation": 0,
     "name": "herfstEik",
     "gid": 602,
     "x": 5504,
     "y": 384,
     "width": 346,
     "height": 308,
     "properties": []
    },
    {
     "id": 165,
     "visible": true,
     "rotation": 0,
     "name": "den",
     "gid": 603,
     "x": 5632,
     "y": 384,
     "width": 346,
     "height": 308,
     "properties": []
    },
    {
     "id": 166,
     "visible": true,
     "rotation": 0,
     "name": "den",
     "gid": 603,
     "x": 5664,
     "y": 384,
     "width": 346,
     "height": 308,
     "properties": []
    },
    {
     "id": 167,
     "visible": true,
     "rotation": 0,
     "name": "berk",
     "gid": 604,
     "x": 4032,
     "y": 416,
     "width": 346,
     "height": 308,
     "properties": []
    },
    {
     "id": 168,
     "visible": true,
     "rotation": 0,
     "name": "dodeBoom",
     "gid": 605,
     "x": 4064,
     "y": 416,
     "width": 346,
     "height": 308,
     "properties": []
    },
    {
     "id": 169,
     "visible": true,
     "rotation": 0,
     "name": "eik",
     "gid": 601,
     "x": 4096,
     "y": 416,
     "width": 346,
     "height": 308,
     "properties": []
    },
    {
     "id": 170,
     "visible": true,
     "rotation": 0,
     "name": "herfstEik",
     "gid": 602,
     "x": 4128,
     "y": 416,
     "width": 346,
     "height": 308,
     "properties": []
    },
    {
     "id": 171,
     "visible": true,
     "rotation": 0,
     "name": "herfstEik",
     "gid": 602,
     "x": 4224,
     "y": 416,
     "width": 346,
     "height": 308,
     "properties": []
    },
    {
     "id": 172,
     "visible": true,
     "rotation": 0,
     "name": "den",
     "gid": 603,
     "x": 4640,
     "y": 416,
     "width": 346,
     "height": 308,
     "properties": []
    },
    {
     "id": 173,
     "visible": true,
     "rotation": 0,
     "name": "eik",
     "gid": 601,
     "x": 4736,
     "y": 416,
     "width": 346,
     "height": 308,
     "properties": []
    },
    {
     "id": 174,
     "visible": true,
     "rotation": 0,
     "name": "eik",
     "gid": 601,
     "x": 4896,
     "y": 416,
     "width": 346,
     "height": 308,
     "properties": []
    },
    {
     "id": 175,
     "visible": true,
     "rotation": 0,
     "name": "eik",
     "gid": 601,
     "x": 4960,
     "y": 416,
     "width": 346,
     "height": 308,
     "properties": []
    },
    {
     "id": 176,
     "visible": true,
     "rotation": 0,
     "name": "herfstEik",
     "gid": 602,
     "x": 5056,
     "y": 416,
     "width": 346,
     "height": 308,
     "properties": []
    },
    {
     "id": 177,
     "visible": true,
     "rotation": 0,
     "name": "dodeBoom",
     "gid": 605,
     "x": 5216,
     "y": 416,
     "width": 346,
     "height": 308,
     "properties": []
    },
    {
     "id": 178,
     "visible": true,
     "rotation": 0,
     "name": "den",
     "gid": 603,
     "x": 5344,
     "y": 416,
     "width": 346,
     "height": 308,
     "properties": []
    },
    {
     "id": 179,
     "visible": true,
     "rotation": 0,
     "name": "dodeBoom",
     "gid": 605,
     "x": 5600,
     "y": 416,
     "width": 346,
     "height": 308,
     "properties": []
    },
    {
     "id": 180,
     "visible": true,
     "rotation": 0,
     "name": "berk",
     "gid": 604,
     "x": 5632,
     "y": 416,
     "width": 346,
     "height": 308,
     "properties": []
    },
    {
     "id": 181,
     "visible": true,
     "rotation": 0,
     "name": "dodeBoom",
     "gid": 605,
     "x": 5664,
     "y": 416,
     "width": 346,
     "height": 308,
     "properties": []
    },
    {
     "id": 182,
     "visible": true,
     "rotation": 0,
     "name": "dodeBoom",
     "gid": 605,
     "x": 4032,
     "y": 448,
     "width": 346,
     "height": 308,
     "properties": []
    },
    {
     "id": 183,
     "visible": true,
     "rotation": 0,
     "name": "den",
     "gid": 603,
     "x": 5568,
     "y": 448,
     "width": 346,
     "height": 308,
     "properties": []
    },
    {
     "id": 184,
     "visible": true,
     "rotation": 0,
     "name": "dodeBoom",
     "gid": 605,
     "x": 5632,
     "y": 448,
     "width": 346,
     "height": 308,
     "properties": []
    },
    {
     "id": 185,
     "visible": true,
     "rotation": 0,
     "name": "eik",
     "gid": 601,
     "x": 5664,
     "y": 448,
     "width": 346,
     "height": 308,
     "properties": []
    },
    {
     "id": 186,
     "visible": true,
     "rotation": 0,
     "name": "eik",
     "gid": 601,
     "x": 4032,
     "y": 480,
     "width": 346,
     "height": 308,
     "properties": []
    },
    {
     "id": 187,
     "visible": true,
     "rotation": 0,
     "name": "den",
     "gid": 603,
     "x": 4064,
     "y": 480,
     "width": 346,
     "height": 308,
     "properties": []
    },
    {
     "id": 188,
     "visible": true,
     "rotation": 0,
     "name": "dodeBoom",
     "gid": 605,
     "x": 5600,
     "y": 480,
     "width": 346,
     "height": 308,
     "properties": []
    },
    {
     "id": 189,
     "visible": true,
     "rotation": 0,
     "name": "herfstEik",
     "gid": 602,
     "x": 5664,
     "y": 480,
     "width": 346,
     "height": 308,
     "properties": []
    },
    {
     "id": 190,
     "visible": true,
     "rotation": 0,
     "name": "den",
     "gid": 603,
     "x": 4032,
     "y": 512,
     "width": 346,
     "height": 308,
     "properties": []
    },
    {
     "id": 191,
     "visible": true,
     "rotation": 0,
     "name": "eik",
     "gid": 601,
     "x": 4064,
     "y": 512,
     "width": 346,
     "height": 308,
     "properties": []
    },
    {
     "id": 192,
     "visible": true,
     "rotation": 0,
     "name": "den",
     "gid": 603,
     "x": 4096,
     "y": 512,
     "width": 346,
     "height": 308,
     "properties": []
    },
    {
     "id": 193,
     "visible": true,
     "rotation": 0,
     "name": "eik",
     "gid": 601,
     "x": 4128,
     "y": 512,
     "width": 346,
     "height": 308,
     "properties": []
    },
    {
     "id": 194,
     "visible": true,
     "rotation": 0,
     "name": "den",
     "gid": 603,
     "x": 5600,
     "y": 512,
     "width": 346,
     "height": 308,
     "properties": []
    },
    {
     "id": 195,
     "visible": true,
     "rotation": 0,
     "name": "eik",
     "gid": 601,
     "x": 5632,
     "y": 512,
     "width": 346,
     "height": 308,
     "properties": []
    },
    {
     "id": 196,
     "visible": true,
     "rotation": 0,
     "name": "herfstEik",
     "gid": 602,
     "x": 5664,
     "y": 512,
     "width": 346,
     "height": 308,
     "properties": []
    },
    {
     "id": 197,
     "visible": true,
     "rotation": 0,
     "name": "den",
     "gid": 603,
     "x": 4032,
     "y": 544,
     "width": 346,
     "height": 308,
     "properties": []
    },
    {
     "id": 198,
     "visible": true,
     "rotation": 0,
     "name": "den",
     "gid": 603,
     "x": 4064,
     "y": 544,
     "width": 346,
     "height": 308,
     "properties": []
    },
    {
     "id": 199,
     "visible": true,
     "rotation": 0,
     "name": "den",
     "gid": 603,
     "x": 4128,
     "y": 544,
     "width": 346,
     "height": 308,
     "properties": []
    },
    {
     "id": 200,
     "visible": true,
     "rotation": 0,
     "name": "den",
     "gid": 603,
     "x": 5600,
     "y": 544,
     "width": 346,
     "height": 308,
     "properties": []
    },
    {
     "id": 201,
     "visible": true,
     "rotation": 0,
     "name": "den",
     "gid": 603,
     "x": 5664,
     "y": 544,
     "width": 346,
     "height": 308,
     "properties": []
    },
    {
     "id": 202,
     "visible": true,
     "rotation": 0,
     "name": "eik",
     "gid": 601,
     "x": 4032,
     "y": 576,
     "width": 346,
     "height": 308,
     "properties": []
    },
    {
     "id": 203,
     "visible": true,
     "rotation": 0,
     "name": "herfstEik",
     "gid": 602,
     "x": 4096,
     "y": 576,
     "width": 346,
     "height": 308,
     "properties": []
    },
    {
     "id": 204,
     "visible": true,
     "rotation": 0,
     "name": "den",
     "gid": 603,
     "x": 4128,
     "y": 576,
     "width": 346,
     "height": 308,
     "properties": []
    },
    {
     "id": 205,
     "visible": true,
     "rotation": 0,
     "name": "eik",
     "gid": 601,
     "x": 5632,
     "y": 576,
     "width": 346,
     "height": 308,
     "properties": []
    },
    {
     "id": 206,
     "visible": true,
     "rotation": 0,
     "name": "dodeBoom",
     "gid": 605,
     "x": 5664,
     "y": 576,
     "width": 346,
     "height": 308,
     "properties": []
    },
    {
     "id": 207,
     "visible": true,
     "rotation": 0,
     "name": "herfstEik",
     "gid": 602,
     "x": 4032,
     "y": 608,
     "width": 346,
     "height": 308,
     "properties": []
    },
    {
     "id": 208,
     "visible": true,
     "rotation": 0,
     "name": "berk",
     "gid": 604,
     "x": 4064,
     "y": 608,
     "width": 346,
     "height": 308,
     "properties": []
    },
    {
     "id": 209,
     "visible": true,
     "rotation": 0,
     "name": "herfstEik",
     "gid": 602,
     "x": 4096,
     "y": 608,
     "width": 346,
     "height": 308,
     "properties": []
    },
    {
     "id": 210,
     "visible": true,
     "rotation": 0,
     "name": "herfstEik",
     "gid": 602,
     "x": 4128,
     "y": 608,
     "width": 346,
     "height": 308,
     "properties": []
    },
    {
     "id": 211,
     "visible": true,
     "rotation": 0,
     "name": "den",
     "gid": 603,
     "x": 5600,
     "y": 608,
     "width": 346,
     "height": 308,
     "properties": []
    },
    {
     "id": 212,
     "visible": true,
     "rotation": 0,
     "name": "herfstEik",
     "gid": 602,
     "x": 5664,
     "y": 608,
     "width": 346,
     "height": 308,
     "properties": []
    },
    {
     "id": 213,
     "visible": true,
     "rotation": 0,
     "name": "den",
     "gid": 603,
     "x": 4032,
     "y": 640,
     "width": 346,
     "height": 308,
     "properties": []
    },
    {
     "id": 214,
     "visible": true,
     "rotation": 0,
     "name": "eik",
     "gid": 601,
     "x": 4064,
     "y": 640,
     "width": 346,
     "height": 308,
     "properties": []
    },
    {
     "id": 215,
     "visible": true,
     "rotation": 0,
     "name": "eik",
     "gid": 601,
     "x": 4096,
     "y": 640,
     "width": 346,
     "height": 308,
     "properties": []
    },
    {
     "id": 216,
     "visible": true,
     "rotation": 0,
     "name": "den",
     "gid": 603,
     "x": 5600,
     "y": 640,
     "width": 346,
     "height": 308,
     "properties": []
    },
    {
     "id": 217,
     "visible": true,
     "rotation": 0,
     "name": "den",
     "gid": 603,
     "x": 5632,
     "y": 640,
     "width": 346,
     "height": 308,
     "properties": []
    },
    {
     "id": 218,
     "visible": true,
     "rotation": 0,
     "name": "herfstEik",
     "gid": 602,
     "x": 5664,
     "y": 640,
     "width": 346,
     "height": 308,
     "properties": []
    },
    {
     "id": 219,
     "visible": true,
     "rotation": 0,
     "name": "eik",
     "gid": 601,
     "x": 4032,
     "y": 672,
     "width": 346,
     "height": 308,
     "properties": []
    },
    {
     "id": 220,
     "visible": true,
     "rotation": 0,
     "name": "den",
     "gid": 603,
     "x": 4064,
     "y": 672,
     "width": 346,
     "height": 308,
     "properties": []
    },
    {
     "id": 221,
     "visible": true,
     "rotation": 0,
     "name": "herfstEik",
     "gid": 602,
     "x": 4096,
     "y": 672,
     "width": 346,
     "height": 308,
     "properties": []
    },
    {
     "id": 222,
     "visible": true,
     "rotation": 0,
     "name": "berk",
     "gid": 604,
     "x": 5568,
     "y": 672,
     "width": 346,
     "height": 308,
     "properties": []
    },
    {
     "id": 223,
     "visible": true,
     "rotation": 0,
     "name": "den",
     "gid": 603,
     "x": 5632,
     "y": 672,
     "width": 346,
     "height": 308,
     "properties": []
    },
    {
     "id": 224,
     "visible": true,
     "rotation": 0,
     "name": "dodeBoom",
     "gid": 605,
     "x": 5664,
     "y": 672,
     "width": 346,
     "height": 308,
     "properties": []
    },
    {
     "id": 225,
     "visible": true,
     "rotation": 0,
     "name": "dodeBoom",
     "gid": 605,
     "x": 4032,
     "y": 704,
     "width": 346,
     "height": 308,
     "properties": []
    },
    {
     "id": 226,
     "visible": true,
     "rotation": 0,
     "name": "eik",
     "gid": 601,
     "x": 4064,
     "y": 704,
     "width": 346,
     "height": 308,
     "properties": []
    },
    {
     "id": 227,
     "visible": true,
     "rotation": 0,
     "name": "dodeBoom",
     "gid": 605,
     "x": 4128,
     "y": 704,
     "width": 346,
     "height": 308,
     "properties": []
    },
    {
     "id": 228,
     "visible": true,
     "rotation": 0,
     "name": "dodeBoom",
     "gid": 605,
     "x": 5568,
     "y": 704,
     "width": 346,
     "height": 308,
     "properties": []
    },
    {
     "id": 229,
     "visible": true,
     "rotation": 0,
     "name": "den",
     "gid": 603,
     "x": 5600,
     "y": 704,
     "width": 346,
     "height": 308,
     "properties": []
    },
    {
     "id": 230,
     "visible": true,
     "rotation": 0,
     "name": "den",
     "gid": 603,
     "x": 5664,
     "y": 704,
     "width": 346,
     "height": 308,
     "properties": []
    },
    {
     "id": 231,
     "visible": true,
     "rotation": 0,
     "name": "den",
     "gid": 603,
     "x": 4032,
     "y": 736,
     "width": 346,
     "height": 308,
     "properties": []
    },
    {
     "id": 232,
     "visible": true,
     "rotation": 0,
     "name": "den",
     "gid": 603,
     "x": 4064,
     "y": 736,
     "width": 346,
     "height": 308,
     "properties": []
    },
    {
     "id": 233,
     "visible": true,
     "rotation": 0,
     "name": "herfstEik",
     "gid": 602,
     "x": 4096,
     "y": 736,
     "width": 346,
     "height": 308,
     "properties": []
    },
    {
     "id": 234,
     "visible": true,
     "rotation": 0,
     "name": "den",
     "gid": 603,
     "x": 5632,
     "y": 736,
     "width": 346,
     "height": 308,
     "properties": []
    },
    {
     "id": 235,
     "visible": true,
     "rotation": 0,
     "name": "eik",
     "gid": 601,
     "x": 5664,
     "y": 736,
     "width": 346,
     "height": 308,
     "properties": []
    },
    {
     "id": 236,
     "visible": true,
     "rotation": 0,
     "name": "den",
     "gid": 603,
     "x": 4032,
     "y": 768,
     "width": 346,
     "height": 308,
     "properties": []
    },
    {
     "id": 237,
     "visible": true,
     "rotation": 0,
     "name": "eik",
     "gid": 601,
     "x": 4096,
     "y": 768,
     "width": 346,
     "height": 308,
     "properties": []
    },
    {
     "id": 238,
     "visible": true,
     "rotation": 0,
     "name": "den",
     "gid": 603,
     "x": 5568,
     "y": 768,
     "width": 346,
     "height": 308,
     "properties": []
    },
    {
     "id": 239,
     "visible": true,
     "rotation": 0,
     "name": "herfstEik",
     "gid": 602,
     "x": 5600,
     "y": 768,
     "width": 346,
     "height": 308,
     "properties": []
    },
    {
     "id": 240,
     "visible": true,
     "rotation": 0,
     "name": "herfstEik",
     "gid": 602,
     "x": 5632,
     "y": 768,
     "width": 346,
     "height": 308,
     "properties": []
    },
    {
     "id": 241,
     "visible": true,
     "rotation": 0,
     "name": "den",
     "gid": 603,
     "x": 5664,
     "y": 768,
     "width": 346,
     "height": 308,
     "properties": []
    },
    {
     "id": 242,
     "visible": true,
     "rotation": 0,
     "name": "berk",
     "gid": 604,
     "x": 4032,
     "y": 800,
     "width": 346,
     "height": 308,
     "properties": []
    },
    {
     "id": 243,
     "visible": true,
     "rotation": 0,
     "name": "herfstEik",
     "gid": 602,
     "x": 4096,
     "y": 800,
     "width": 346,
     "height": 308,
     "properties": []
    },
    {
     "id": 244,
     "visible": true,
     "rotation": 0,
     "name": "berk",
     "gid": 604,
     "x": 5600,
     "y": 800,
     "width": 346,
     "height": 308,
     "properties": []
    },
    {
     "id": 245,
     "visible": true,
     "rotation": 0,
     "name": "den",
     "gid": 603,
     "x": 5664,
     "y": 800,
     "width": 346,
     "height": 308,
     "properties": []
    },
    {
     "id": 246,
     "visible": true,
     "rotation": 0,
     "name": "den",
     "gid": 603,
     "x": 4032,
     "y": 832,
     "width": 346,
     "height": 308,
     "properties": []
    },
    {
     "id": 247,
     "visible": true,
     "rotation": 0,
     "name": "dodeBoom",
     "gid": 605,
     "x": 4064,
     "y": 832,
     "width": 346,
     "height": 308,
     "properties": []
    },
    {
     "id": 248,
     "visible": true,
     "rotation": 0,
     "name": "den",
     "gid": 603,
     "x": 5600,
     "y": 832,
     "width": 346,
     "height": 308,
     "properties": []
    },
    {
     "id": 249,
     "visible": true,
     "rotation": 0,
     "name": "den",
     "gid": 603,
     "x": 5632,
     "y": 832,
     "width": 346,
     "height": 308,
     "properties": []
    },
    {
     "id": 250,
     "visible": true,
     "rotation": 0,
     "name": "den",
     "gid": 603,
     "x": 5664,
     "y": 832,
     "width": 346,
     "height": 308,
     "properties": []
    },
    {
     "id": 251,
     "visible": true,
     "rotation": 0,
     "name": "eik",
     "gid": 601,
     "x": 4032,
     "y": 864,
     "width": 346,
     "height": 308,
     "properties": []
    },
    {
     "id": 252,
     "visible": true,
     "rotation": 0,
     "name": "herfstEik",
     "gid": 602,
     "x": 4064,
     "y": 864,
     "width": 346,
     "height": 308,
     "properties": []
    },
    {
     "id": 253,
     "visible": true,
     "rotation": 0,
     "name": "den",
     "gid": 603,
     "x": 4096,
     "y": 864,
     "width": 346,
     "height": 308,
     "properties": []
    },
    {
     "id": 254,
     "visible": true,
     "rotation": 0,
     "name": "dodeBoom",
     "gid": 605,
     "x": 4128,
     "y": 864,
     "width": 346,
     "height": 308,
     "properties": []
    },
    {
     "id": 255,
     "visible": true,
     "rotation": 0,
     "name": "dodeBoom",
     "gid": 605,
     "x": 5600,
     "y": 864,
     "width": 346,
     "height": 308,
     "properties": []
    },
    {
     "id": 256,
     "visible": true,
     "rotation": 0,
     "name": "berk",
     "gid": 604,
     "x": 5632,
     "y": 864,
     "width": 346,
     "height": 308,
     "properties": []
    },
    {
     "id": 257,
     "visible": true,
     "rotation": 0,
     "name": "herfstEik",
     "gid": 602,
     "x": 5664,
     "y": 864,
     "width": 346,
     "height": 308,
     "properties": []
    },
    {
     "id": 258,
     "visible": true,
     "rotation": 0,
     "name": "berk",
     "gid": 604,
     "x": 4032,
     "y": 896,
     "width": 346,
     "height": 308,
     "properties": []
    },
    {
     "id": 259,
     "visible": true,
     "rotation": 0,
     "name": "den",
     "gid": 603,
     "x": 4064,
     "y": 896,
     "width": 346,
     "height": 308,
     "properties": []
    },
    {
     "id": 260,
     "visible": true,
     "rotation": 0,
     "name": "den",
     "gid": 603,
     "x": 4096,
     "y": 896,
     "width": 346,
     "height": 308,
     "properties": []
    },
    {
     "id": 261,
     "visible": true,
     "rotation": 0,
     "name": "den",
     "gid": 603,
     "x": 4128,
     "y": 896,
     "width": 346,
     "height": 308,
     "properties": []
    },
    {
     "id": 262,
     "visible": true,
     "rotation": 0,
     "name": "herfstEik",
     "gid": 602,
     "x": 5632,
     "y": 896,
     "width": 346,
     "height": 308,
     "properties": []
    },
    {
     "id": 263,
     "visible": true,
     "rotation": 0,
     "name": "dodeBoom",
     "gid": 605,
     "x": 5664,
     "y": 896,
     "width": 346,
     "height": 308,
     "properties": []
    },
    {
     "id": 264,
     "visible": true,
     "rotation": 0,
     "name": "den",
     "gid": 603,
     "x": 4032,
     "y": 928,
     "width": 346,
     "height": 308,
     "properties": []
    },
    {
     "id": 265,
     "visible": true,
     "rotation": 0,
     "name": "berk",
     "gid": 604,
     "x": 4064,
     "y": 928,
     "width": 346,
     "height": 308,
     "properties": []
    },
    {
     "id": 266,
     "visible": true,
     "rotation": 0,
     "name": "eik",
     "gid": 601,
     "x": 5568,
     "y": 928,
     "width": 346,
     "height": 308,
     "properties": []
    },
    {
     "id": 267,
     "visible": true,
     "rotation": 0,
     "name": "dodeBoom",
     "gid": 605,
     "x": 5632,
     "y": 928,
     "width": 346,
     "height": 308,
     "properties": []
    },
    {
     "id": 268,
     "visible": true,
     "rotation": 0,
     "name": "eik",
     "gid": 601,
     "x": 5664,
     "y": 928,
     "width": 346,
     "height": 308,
     "properties": []
    },
    {
     "id": 269,
     "visible": true,
     "rotation": 0,
     "name": "eik",
     "gid": 601,
     "x": 4032,
     "y": 960,
     "width": 346,
     "height": 308,
     "properties": []
    },
    {
     "id": 270,
     "visible": true,
     "rotation": 0,
     "name": "den",
     "gid": 603,
     "x": 4064,
     "y": 960,
     "width": 346,
     "height": 308,
     "properties": []
    },
    {
     "id": 271,
     "visible": true,
     "rotation": 0,
     "name": "eik",
     "gid": 601,
     "x": 5632,
     "y": 960,
     "width": 346,
     "height": 308,
     "properties": []
    },
    {
     "id": 272,
     "visible": true,
     "rotation": 0,
     "name": "den",
     "gid": 603,
     "x": 5664,
     "y": 960,
     "width": 346,
     "height": 308,
     "properties": []
    },
    {
     "id": 273,
     "visible": true,
     "rotation": 0,
     "name": "herfstEik",
     "gid": 602,
     "x": 4032,
     "y": 992,
     "width": 346,
     "height": 308,
     "properties": []
    },
    {
     "id": 274,
     "visible": true,
     "rotation": 0,
     "name": "dodeBoom",
     "gid": 605,
     "x": 4064,
     "y": 992,
     "width": 346,
     "height": 308,
     "properties": []
    },
    {
     "id": 275,
     "visible": true,
     "rotation": 0,
     "name": "herfstEik",
     "gid": 602,
     "x": 4096,
     "y": 992,
     "width": 346,
     "height": 308,
     "properties": []
    },
    {
     "id": 276,
     "visible": true,
     "rotation": 0,
     "name": "den",
     "gid": 603,
     "x": 5632,
     "y": 992,
     "width": 346,
     "height": 308,
     "properties": []
    },
    {
     "id": 277,
     "visible": true,
     "rotation": 0,
     "name": "eik",
     "gid": 601,
     "x": 5664,
     "y": 992,
     "width": 346,
     "height": 308,
     "properties": []
    },
    {
     "id": 278,
     "visible": true,
     "rotation": 0,
     "name": "dodeBoom",
     "gid": 605,
     "x": 4032,
     "y": 1024,
     "width": 346,
     "height": 308,
     "properties": []
    },
    {
     "id": 279,
     "visible": true,
     "rotation": 0,
     "name": "herfstEik",
     "gid": 602,
     "x": 4064,
     "y": 1024,
     "width": 346,
     "height": 308,
     "properties": []
    },
    {
     "id": 280,
     "visible": true,
     "rotation": 0,
     "name": "herfstEik",
     "gid": 602,
     "x": 5568,
     "y": 1024,
     "width": 346,
     "height": 308,
     "properties": []
    },
    {
     "id": 281,
     "visible": true,
     "rotation": 0,
     "name": "dodeBoom",
     "gid": 605,
     "x": 5600,
     "y": 1024,
     "width": 346,
     "height": 308,
     "properties": []
    },
    {
     "id": 282,
     "visible": true,
     "rotation": 0,
     "name": "berk",
     "gid": 604,
     "x": 5664,
     "y": 1024,
     "width": 346,
     "height": 308,
     "properties": []
    },
    {
     "id": 283,
     "visible": true,
     "rotation": 0,
     "name": "den",
     "gid": 603,
     "x": 4032,
     "y": 1056,
     "width": 346,
     "height": 308,
     "properties": []
    },
    {
     "id": 284,
     "visible": true,
     "rotation": 0,
     "name": "eik",
     "gid": 601,
     "x": 4064,
     "y": 1056,
     "width": 346,
     "height": 308,
     "properties": []
    },
    {
     "id": 285,
     "visible": true,
     "rotation": 0,
     "name": "eik",
     "gid": 601,
     "x": 4096,
     "y": 1056,
     "width": 346,
     "height": 308,
     "properties": []
    },
    {
     "id": 286,
     "visible": true,
     "rotation": 0,
     "name": "den",
     "gid": 603,
     "x": 5568,
     "y": 1056,
     "width": 346,
     "height": 308,
     "properties": []
    },
    {
     "id": 287,
     "visible": true,
     "rotation": 0,
     "name": "berk",
     "gid": 604,
     "x": 5664,
     "y": 1056,
     "width": 346,
     "height": 308,
     "properties": []
    },
    {
     "id": 288,
     "visible": true,
     "rotation": 0,
     "name": "dodeBoom",
     "gid": 605,
     "x": 4032,
     "y": 1088,
     "width": 346,
     "height": 308,
     "properties": []
    },
    {
     "id": 289,
     "visible": true,
     "rotation": 0,
     "name": "eik",
     "gid": 601,
     "x": 4064,
     "y": 1088,
     "width": 346,
     "height": 308,
     "properties": []
    },
    {
     "id": 290,
     "visible": true,
     "rotation": 0,
     "name": "berk",
     "gid": 604,
     "x": 4096,
     "y": 1088,
     "width": 346,
     "height": 308,
     "properties": []
    },
    {
     "id": 291,
     "visible": true,
     "rotation": 0,
     "name": "eik",
     "gid": 601,
     "x": 5664,
     "y": 1088,
     "width": 346,
     "height": 308,
     "properties": []
    },
    {
     "id": 292,
     "visible": true,
     "rotation": 0,
     "name": "den",
     "gid": 603,
     "x": 4032,
     "y": 1120,
     "width": 346,
     "height": 308,
     "properties": []
    },
    {
     "id": 293,
     "visible": true,
     "rotation": 0,
     "name": "berk",
     "gid": 604,
     "x": 4064,
     "y": 1120,
     "width": 346,
     "height": 308,
     "properties": []
    },
    {
     "id": 294,
     "visible": true,
     "rotation": 0,
     "name": "eik",
     "gid": 601,
     "x": 5664,
     "y": 1120,
     "width": 346,
     "height": 308,
     "properties": []
    },
    {
     "id": 295,
     "visible": true,
     "rotation": 0,
     "name": "herfstEik",
     "gid": 602,
     "x": 4032,
     "y": 1152,
     "width": 346,
     "height": 308,
     "properties": []
    },
    {
     "id": 296,
     "visible": true,
     "rotation": 0,
     "name": "herfstEik",
     "gid": 602,
     "x": 4064,
     "y": 1152,
     "width": 346,
     "height": 308,
     "properties": []
    },
    {
     "id": 297,
     "visible": true,
     "rotation": 0,
     "name": "herfstEik",
     "gid": 602,
     "x": 5568,
     "y": 1152,
     "width": 346,
     "height": 308,
     "properties": []
    },
    {
     "id": 298,
     "visible": true,
     "rotation": 0,
     "name": "dodeBoom",
     "gid": 605,
     "x": 5632,
     "y": 1152,
     "width": 346,
     "height": 308,
     "properties": []
    },
    {
     "id": 299,
     "visible": true,
     "rotation": 0,
     "name": "berk",
     "gid": 604,
     "x": 5664,
     "y": 1152,
     "width": 346,
     "height": 308,
     "properties": []
    },
    {
     "id": 300,
     "visible": true,
     "rotation": 0,
     "name": "berk",
     "gid": 604,
     "x": 4032,
     "y": 1184,
     "width": 346,
     "height": 308,
     "properties": []
    },
    {
     "id": 301,
     "visible": true,
     "rotation": 0,
     "name": "den",
     "gid": 603,
     "x": 4064,
     "y": 1184,
     "width": 346,
     "height": 308,
     "properties": []
    },
    {
     "id": 302,
     "visible": true,
     "rotation": 0,
     "name": "den",
     "gid": 603,
     "x": 5568,
     "y": 1184,
     "width": 346,
     "height": 308,
     "properties": []
    },
    {
     "id": 303,
     "visible": true,
     "rotation": 0,
     "name": "herfstEik",
     "gid": 602,
     "x": 5664,
     "y": 1184,
     "width": 346,
     "height": 308,
     "properties": []
    },
    {
     "id": 304,
     "visible": true,
     "rotation": 0,
     "name": "eik",
     "gid": 601,
     "x": 4032,
     "y": 1216,
     "width": 346,
     "height": 308,
     "properties": []
    },
    {
     "id": 305,
     "visible": true,
     "rotation": 0,
     "name": "berk",
     "gid": 604,
     "x": 4064,
     "y": 1216,
     "width": 346,
     "height": 308,
     "properties": []
    },
    {
     "id": 306,
     "visible": true,
     "rotation": 0,
     "name": "den",
     "gid": 603,
     "x": 4096,
     "y": 1216,
     "width": 346,
     "height": 308,
     "properties": []
    },
    {
     "id": 307,
     "visible": true,
     "rotation": 0,
     "name": "herfstEik",
     "gid": 602,
     "x": 5600,
     "y": 1216,
     "width": 346,
     "height": 308,
     "properties": []
    },
    {
     "id": 308,
     "visible": true,
     "rotation": 0,
     "name": "berk",
     "gid": 604,
     "x": 5632,
     "y": 1216,
     "width": 346,
     "height": 308,
     "properties": []
    },
    {
     "id": 309,
     "visible": true,
     "rotation": 0,
     "name": "dodeBoom",
     "gid": 605,
     "x": 5664,
     "y": 1216,
     "width": 346,
     "height": 308,
     "properties": []
    },
    {
     "id": 310,
     "visible": true,
     "rotation": 0,
     "name": "den",
     "gid": 603,
     "x": 4032,
     "y": 1248,
     "width": 346,
     "height": 308,
     "properties": []
    },
    {
     "id": 311,
     "visible": true,
     "rotation": 0,
     "name": "dodeBoom",
     "gid": 605,
     "x": 4096,
     "y": 1248,
     "width": 346,
     "height": 308,
     "properties": []
    },
    {
     "id": 312,
     "visible": true,
     "rotation": 0,
     "name": "den",
     "gid": 603,
     "x": 5600,
     "y": 1248,
     "width": 346,
     "height": 308,
     "properties": []
    },
    {
     "id": 313,
     "visible": true,
     "rotation": 0,
     "name": "den",
     "gid": 603,
     "x": 5632,
     "y": 1248,
     "width": 346,
     "height": 308,
     "properties": []
    },
    {
     "id": 314,
     "visible": true,
     "rotation": 0,
     "name": "herfstEik",
     "gid": 602,
     "x": 5664,
     "y": 1248,
     "width": 346,
     "height": 308,
     "properties": []
    },
    {
     "id": 315,
     "visible": true,
     "rotation": 0,
     "name": "den",
     "gid": 603,
     "x": 4032,
     "y": 1280,
     "width": 346,
     "height": 308,
     "properties": []
    },
    {
     "id": 316,
     "visible": true,
     "rotation": 0,
     "name": "eik",
     "gid": 601,
     "x": 4064,
     "y": 1280,
     "width": 346,
     "height": 308,
     "properties": []
    },
    {
     "id": 317,
     "visible": true,
     "rotation": 0,
     "name": "berk",
     "gid": 604,
     "x": 4128,
     "y": 1280,
     "width": 346,
     "height": 308,
     "properties": []
    },
    {
     "id": 318,
     "visible": true,
     "rotation": 0,
     "name": "berk",
     "gid": 604,
     "x": 5632,
     "y": 1280,
     "width": 346,
     "height": 308,
     "properties": []
    },
    {
     "id": 319,
     "visible": true,
     "rotation": 0,
     "name": "eik",
     "gid": 601,
     "x": 5664,
     "y": 1280,
     "width": 346,
     "height": 308,
     "properties": []
    },
    {
     "id": 320,
     "visible": true,
     "rotation": 0,
     "name": "berk",
     "gid": 604,
     "x": 4032,
     "y": 1312,
     "width": 346,
     "height": 308,
     "properties": []
    },
    {
     "id": 321,
     "visible": true,
     "rotation": 0,
     "name": "berk",
     "gid": 604,
     "x": 4064,
     "y": 1312,
     "width": 346,
     "height": 308,
     "properties": []
    },
    {
     "id": 322,
     "visible": true,
     "rotation": 0,
     "name": "eik",
     "gid": 601,
     "x": 4096,
     "y": 1312,
     "width": 346,
     "height": 308,
     "properties": []
    },
    {
     "id": 323,
     "visible": true,
     "rotation": 0,
     "name": "den",
     "gid": 603,
     "x": 5600,
     "y": 1312,
     "width": 346,
     "height": 308,
     "properties": []
    },
    {
     "id": 324,
     "visible": true,
     "rotation": 0,
     "name": "dodeBoom",
     "gid": 605,
     "x": 5664,
     "y": 1312,
     "width": 346,
     "height": 308,
     "properties": []
    },
    {
     "id": 325,
     "visible": true,
     "rotation": 0,
     "name": "den",
     "gid": 603,
     "x": 4032,
     "y": 1344,
     "width": 346,
     "height": 308,
     "properties": []
    },
    {
     "id": 326,
     "visible": true,
     "rotation": 0,
     "name": "herfstEik",
     "gid": 602,
     "x": 4064,
     "y": 1344,
     "width": 346,
     "height": 308,
     "properties": []
    },
    {
     "id": 327,
     "visible": true,
     "rotation": 0,
     "name": "berk",
     "gid": 604,
     "x": 4096,
     "y": 1344,
     "width": 346,
     "height": 308,
     "properties": []
    },
    {
     "id": 328,
     "visible": true,
     "rotation": 0,
     "name": "berk",
     "gid": 604,
     "x": 5632,
     "y": 1344,
     "width": 346,
     "height": 308,
     "properties": []
    },
    {
     "id": 329,
     "visible": true,
     "rotation": 0,
     "name": "herfstEik",
     "gid": 602,
     "x": 5664,
     "y": 1344,
     "width": 346,
     "height": 308,
     "properties": []
    },
    {
     "id": 330,
     "visible": true,
     "rotation": 0,
     "name": "den",
     "gid": 603,
     "x": 5568,
     "y": 1376,
     "width": 346,
     "height": 308,
     "properties": []
    },
    {
     "id": 331,
     "visible": true,
     "rotation": 0,
     "name": "dodeBoom",
     "gid": 605,
     "x": 5632,
     "y": 1376,
     "width": 346,
     "height": 308,
     "properties": []
    },
    {
     "id": 332,
     "visible": true,
     "rotation": 0,
     "name": "eik",
     "gid": 601,
     "x": 5664,
     "y": 1376,
     "width": 346,
     "height": 308,
     "properties": []
    },
    {
     "id": 333,
     "visible": true,
     "rotation": 0,
     "name": "dodeBoom",
     "gid": 605,
     "x": 5632,
     "y": 1408,
     "width": 346,
     "height": 308,
     "properties": []
    },
    {
     "id": 334,
     "visible": true,
     "rotation": 0,
     "name": "herfstEik",
     "gid": 602,
     "x": 5664,
     "y": 1408,
     "width": 346,
     "height": 308,
     "properties": []
    },
    {
     "id": 335,
     "visible": true,
     "rotation": 0,
     "name": "herfstEik",
     "gid": 602,
     "x": 5600,
     "y": 1440,
     "width": 346,
     "height": 308,
     "properties": []
    },
    {
     "id": 336,
     "visible": true,
     "rotation": 0,
     "name": "dodeBoom",
     "gid": 605,
     "x": 5632,
     "y": 1440,
     "width": 346,
     "height": 308,
     "properties": []
    },
    {
     "id": 337,
     "visible": true,
     "rotation": 0,
     "name": "berk",
     "gid": 604,
     "x": 5664,
     "y": 1440,
     "width": 346,
     "height": 308,
     "properties": []
    },
    {
     "id": 338,
     "visible": true,
     "rotation": 0,
     "name": "den",
     "gid": 603,
     "x": 4032,
     "y": 1472,
     "width": 346,
     "height": 308,
     "properties": []
    },
    {
     "id": 339,
     "visible": true,
     "rotation": 0,
     "name": "dodeBoom",
     "gid": 605,
     "x": 5632,
     "y": 1472,
     "width": 346,
     "height": 308,
     "properties": []
    },
    {
     "id": 340,
     "visible": true,
     "rotation": 0,
     "name": "den",
     "gid": 603,
     "x": 5664,
     "y": 1472,
     "width": 346,
     "height": 308,
     "properties": []
    },
    {
     "id": 341,
     "visible": true,
     "rotation": 0,
     "name": "herfstEik",
     "gid": 602,
     "x": 4032,
     "y": 1504,
     "width": 346,
     "height": 308,
     "properties": []
    },
    {
     "id": 342,
     "visible": true,
     "rotation": 0,
     "name": "berk",
     "gid": 604,
     "x": 4064,
     "y": 1504,
     "width": 346,
     "height": 308,
     "properties": []
    },
    {
     "id": 343,
     "visible": true,
     "rotation": 0,
     "name": "herfstEik",
     "gid": 602,
     "x": 4096,
     "y": 1504,
     "width": 346,
     "height": 308,
     "properties": []
    },
    {
     "id": 344,
     "visible": true,
     "rotation": 0,
     "name": "den",
     "gid": 603,
     "x": 5632,
     "y": 1504,
     "width": 346,
     "height": 308,
     "properties": []
    },
    {
     "id": 345,
     "visible": true,
     "rotation": 0,
     "name": "herfstEik",
     "gid": 602,
     "x": 5664,
     "y": 1504,
     "width": 346,
     "height": 308,
     "properties": []
    },
    {
     "id": 346,
     "visible": true,
     "rotation": 0,
     "name": "dodeBoom",
     "gid": 605,
     "x": 4032,
     "y": 1536,
     "width": 346,
     "height": 308,
     "properties": []
    },
    {
     "id": 347,
     "visible": true,
     "rotation": 0,
     "name": "den",
     "gid": 603,
     "x": 4064,
     "y": 1536,
     "width": 346,
     "height": 308,
     "properties": []
    },
    {
     "id": 348,
     "visible": true,
     "rotation": 0,
     "name": "eik",
     "gid": 601,
     "x": 4224,
     "y": 1536,
     "width": 346,
     "height": 308,
     "properties": []
    },
    {
     "id": 349,
     "visible": true,
     "rotation": 0,
     "name": "herfstEik",
     "gid": 602,
     "x": 4288,
     "y": 1536,
     "width": 346,
     "height": 308,
     "properties": []
    },
    {
     "id": 350,
     "visible": true,
     "rotation": 0,
     "name": "berk",
     "gid": 604,
     "x": 4352,
     "y": 1536,
     "width": 346,
     "height": 308,
     "properties": []
    },
    {
     "id": 351,
     "visible": true,
     "rotation": 0,
     "name": "eik",
     "gid": 601,
     "x": 4480,
     "y": 1536,
     "width": 346,
     "height": 308,
     "properties": []
    },
    {
     "id": 352,
     "visible": true,
     "rotation": 0,
     "name": "den",
     "gid": 603,
     "x": 4544,
     "y": 1536,
     "width": 346,
     "height": 308,
     "properties": []
    },
    {
     "id": 353,
     "visible": true,
     "rotation": 0,
     "name": "berk",
     "gid": 604,
     "x": 4736,
     "y": 1536,
     "width": 346,
     "height": 308,
     "properties": []
    },
    {
     "id": 354,
     "visible": true,
     "rotation": 0,
     "name": "den",
     "gid": 603,
     "x": 4992,
     "y": 1536,
     "width": 346,
     "height": 308,
     "properties": []
    },
    {
     "id": 355,
     "visible": true,
     "rotation": 0,
     "name": "berk",
     "gid": 604,
     "x": 5056,
     "y": 1536,
     "width": 346,
     "height": 308,
     "properties": []
    },
    {
     "id": 356,
     "visible": true,
     "rotation": 0,
     "name": "den",
     "gid": 603,
     "x": 5504,
     "y": 1536,
     "width": 346,
     "height": 308,
     "properties": []
    },
    {
     "id": 357,
     "visible": true,
     "rotation": 0,
     "name": "eik",
     "gid": 601,
     "x": 5568,
     "y": 1536,
     "width": 346,
     "height": 308,
     "properties": []
    },
    {
     "id": 358,
     "visible": true,
     "rotation": 0,
     "name": "eik",
     "gid": 601,
     "x": 5632,
     "y": 1536,
     "width": 346,
     "height": 308,
     "properties": []
    },
    {
     "id": 359,
     "visible": true,
     "rotation": 0,
     "name": "eik",
     "gid": 601,
     "x": 5664,
     "y": 1536,
     "width": 346,
     "height": 308,
     "properties": []
    },
    {
     "id": 360,
     "visible": true,
     "rotation": 0,
     "name": "den",
     "gid": 603,
     "x": 4032,
     "y": 1568,
     "width": 346,
     "height": 308,
     "properties": []
    },
    {
     "id": 361,
     "visible": true,
     "rotation": 0,
     "name": "den",
     "gid": 603,
     "x": 4064,
     "y": 1568,
     "width": 346,
     "height": 308,
     "properties": []
    },
    {
     "id": 362,
     "visible": true,
     "rotation": 0,
     "name": "dodeBoom",
     "gid": 605,
     "x": 4256,
     "y": 1568,
     "width": 346,
     "height": 308,
     "properties": []
    },
    {
     "id": 363,
     "visible": true,
     "rotation": 0,
     "name": "berk",
     "gid": 604,
     "x": 4576,
     "y": 1568,
     "width": 346,
     "height": 308,
     "properties": []
    },
    {
     "id": 364,
     "visible": true,
     "rotation": 0,
     "name": "den",
     "gid": 603,
     "x": 4608,
     "y": 1568,
     "width": 346,
     "height": 308,
     "properties": []
    },
    {
     "id": 365,
     "visible": true,
     "rotation": 0,
     "name": "den",
     "gid": 603,
     "x": 4672,
     "y": 1568,
     "width": 346,
     "height": 308,
     "properties": []
    },
    {
     "id": 366,
     "visible": true,
     "rotation": 0,
     "name": "eik",
     "gid": 601,
     "x": 4704,
     "y": 1568,
     "width": 346,
     "height": 308,
     "properties": []
    },
    {
     "id": 367,
     "visible": true,
     "rotation": 0,
     "name": "herfstEik",
     "gid": 602,
     "x": 4768,
     "y": 1568,
     "width": 346,
     "height": 308,
     "properties": []
    },
    {
     "id": 368,
     "visible": true,
     "rotation": 0,
     "name": "berk",
     "gid": 604,
     "x": 4832,
     "y": 1568,
     "width": 346,
     "height": 308,
     "properties": []
    },
    {
     "id": 369,
     "visible": true,
     "rotation": 0,
     "name": "berk",
     "gid": 604,
     "x": 4960,
     "y": 1568,
     "width": 346,
     "height": 308,
     "properties": []
    },
    {
     "id": 370,
     "visible": true,
     "rotation": 0,
     "name": "herfstEik",
     "gid": 602,
     "x": 5088,
     "y": 1568,
     "width": 346,
     "height": 308,
     "properties": []
    },
    {
     "id": 371,
     "visible": true,
     "rotation": 0,
     "name": "herfstEik",
     "gid": 602,
     "x": 5216,
     "y": 1568,
     "width": 346,
     "height": 308,
     "properties": []
    },
    {
     "id": 372,
     "visible": true,
     "rotation": 0,
     "name": "eik",
     "gid": 601,
     "x": 5248,
     "y": 1568,
     "width": 346,
     "height": 308,
     "properties": []
    },
    {
     "id": 373,
     "visible": true,
     "rotation": 0,
     "name": "den",
     "gid": 603,
     "x": 5280,
     "y": 1568,
     "width": 346,
     "height": 308,
     "properties": []
    },
    {
     "id": 374,
     "visible": true,
     "rotation": 0,
     "name": "eik",
     "gid": 601,
     "x": 5408,
     "y": 1568,
     "width": 346,
     "height": 308,
     "properties": []
    },
    {
     "id": 375,
     "visible": true,
     "rotation": 0,
     "name": "den",
     "gid": 603,
     "x": 5440,
     "y": 1568,
     "width": 346,
     "height": 308,
     "properties": []
    },
    {
     "id": 376,
     "visible": true,
     "rotation": 0,
     "name": "eik",
     "gid": 601,
     "x": 5472,
     "y": 1568,
     "width": 346,
     "height": 308,
     "properties": []
    },
    {
     "id": 377,
     "visible": true,
     "rotation": 0,
     "name": "herfstEik",
     "gid": 602,
     "x": 5664,
     "y": 1568,
     "width": 346,
     "height": 308,
     "properties": []
    },
    {
     "id": 378,
     "visible": true,
     "rotation": 0,
     "name": "den",
     "gid": 603,
     "x": 4032,
     "y": 1600,
     "width": 346,
     "height": 308,
     "properties": []
    },
    {
     "id": 379,
     "visible": true,
     "rotation": 0,
     "name": "den",
     "gid": 603,
     "x": 4096,
     "y": 1600,
     "width": 346,
     "height": 308,
     "properties": []
    },
    {
     "id": 380,
     "visible": true,
     "rotation": 0,
     "name": "herfstEik",
     "gid": 602,
     "x": 4160,
     "y": 1600,
     "width": 346,
     "height": 308,
     "properties": []
    },
    {
     "id": 381,
     "visible": true,
     "rotation": 0,
     "name": "den",
     "gid": 603,
     "x": 4224,
     "y": 1600,
     "width": 346,
     "height": 308,
     "properties": []
    },
    {
     "id": 382,
     "visible": true,
     "rotation": 0,
     "name": "berk",
     "gid": 604,
     "x": 4256,
     "y": 1600,
     "width": 346,
     "height": 308,
     "properties": []
    },
    {
     "id": 383,
     "visible": true,
     "rotation": 0,
     "name": "berk",
     "gid": 604,
     "x": 4288,
     "y": 1600,
     "width": 346,
     "height": 308,
     "properties": []
    },
    {
     "id": 384,
     "visible": true,
     "rotation": 0,
     "name": "den",
     "gid": 603,
     "x": 4384,
     "y": 1600,
     "width": 346,
     "height": 308,
     "properties": []
    },
    {
     "id": 385,
     "visible": true,
     "rotation": 0,
     "name": "berk",
     "gid": 604,
     "x": 4416,
     "y": 1600,
     "width": 346,
     "height": 308,
     "properties": []
    },
    {
     "id": 386,
     "visible": true,
     "rotation": 0,
     "name": "den",
     "gid": 603,
     "x": 4448,
     "y": 1600,
     "width": 346,
     "height": 308,
     "properties": []
    },
    {
     "id": 387,
     "visible": true,
     "rotation": 0,
     "name": "dodeBoom",
     "gid": 605,
     "x": 4512,
     "y": 1600,
     "width": 346,
     "height": 308,
     "properties": []
    },
    {
     "id": 388,
     "visible": true,
     "rotation": 0,
     "name": "herfstEik",
     "gid": 602,
     "x": 4576,
     "y": 1600,
     "width": 346,
     "height": 308,
     "properties": []
    },
    {
     "id": 389,
     "visible": true,
     "rotation": 0,
     "name": "den",
     "gid": 603,
     "x": 4672,
     "y": 1600,
     "width": 346,
     "height": 308,
     "properties": []
    },
    {
     "id": 390,
     "visible": true,
     "rotation": 0,
     "name": "den",
     "gid": 603,
     "x": 4736,
     "y": 1600,
     "width": 346,
     "height": 308,
     "properties": []
    },
    {
     "id": 391,
     "visible": true,
     "rotation": 0,
     "name": "eik",
     "gid": 601,
     "x": 4768,
     "y": 1600,
     "width": 346,
     "height": 308,
     "properties": []
    },
    {
     "id": 392,
     "visible": true,
     "rotation": 0,
     "name": "dodeBoom",
     "gid": 605,
     "x": 4832,
     "y": 1600,
     "width": 346,
     "height": 308,
     "properties": []
    },
    {
     "id": 393,
     "visible": true,
     "rotation": 0,
     "name": "den",
     "gid": 603,
     "x": 4992,
     "y": 1600,
     "width": 346,
     "height": 308,
     "properties": []
    },
    {
     "id": 394,
     "visible": true,
     "rotation": 0,
     "name": "den",
     "gid": 603,
     "x": 5024,
     "y": 1600,
     "width": 346,
     "height": 308,
     "properties": []
    },
    {
     "id": 395,
     "visible": true,
     "rotation": 0,
     "name": "herfstEik",
     "gid": 602,
     "x": 5056,
     "y": 1600,
     "width": 346,
     "height": 308,
     "properties": []
    },
    {
     "id": 396,
     "visible": true,
     "rotation": 0,
     "name": "den",
     "gid": 603,
     "x": 5088,
     "y": 1600,
     "width": 346,
     "height": 308,
     "properties": []
    },
    {
     "id": 397,
     "visible": true,
     "rotation": 0,
     "name": "berk",
     "gid": 604,
     "x": 5120,
     "y": 1600,
     "width": 346,
     "height": 308,
     "properties": []
    },
    {
     "id": 398,
     "visible": true,
     "rotation": 0,
     "name": "den",
     "gid": 603,
     "x": 5216,
     "y": 1600,
     "width": 346,
     "height": 308,
     "properties": []
    },
    {
     "id": 399,
     "visible": true,
     "rotation": 0,
     "name": "eik",
     "gid": 601,
     "x": 5248,
     "y": 1600,
     "width": 346,
     "height": 308,
     "properties": []
    },
    {
     "id": 400,
     "visible": true,
     "rotation": 0,
     "name": "herfstEik",
     "gid": 602,
     "x": 5280,
     "y": 1600,
     "width": 346,
     "height": 308,
     "properties": []
    },
    {
     "id": 401,
     "visible": true,
     "rotation": 0,
     "name": "dodeBoom",
     "gid": 605,
     "x": 5312,
     "y": 1600,
     "width": 346,
     "height": 308,
     "properties": []
    },
    {
     "id": 402,
     "visible": true,
     "rotation": 0,
     "name": "den",
     "gid": 603,
     "x": 5344,
     "y": 1600,
     "width": 346,
     "height": 308,
     "properties": []
    },
    {
     "id": 403,
     "visible": true,
     "rotation": 0,
     "name": "den",
     "gid": 603,
     "x": 5376,
     "y": 1600,
     "width": 346,
     "height": 308,
     "properties": []
    },
    {
     "id": 404,
     "visible": true,
     "rotation": 0,
     "name": "den",
     "gid": 603,
     "x": 5408,
     "y": 1600,
     "width": 346,
     "height": 308,
     "properties": []
    },
    {
     "id": 405,
     "visible": true,
     "rotation": 0,
     "name": "herfstEik",
     "gid": 602,
     "x": 5440,
     "y": 1600,
     "width": 346,
     "height": 308,
     "properties": []
    },
    {
     "id": 406,
     "visible": true,
     "rotation": 0,
     "name": "eik",
     "gid": 601,
     "x": 5568,
     "y": 1600,
     "width": 346,
     "height": 308,
     "properties": []
    },
    {
     "id": 407,
     "visible": true,
     "rotation": 0,
     "name": "berk",
     "gid": 604,
     "x": 5664,
     "y": 1600,
     "width": 346,
     "height": 308,
     "properties": []
    },
    {
     "id": 408,
     "visible": true,
     "rotation": 0,
     "name": "herfstEik",
     "gid": 602,
     "x": 4032,
     "y": 1632,
     "width": 346,
     "height": 308,
     "properties": []
    },
    {
     "id": 409,
     "visible": true,
     "rotation": 0,
     "name": "berk",
     "gid": 604,
     "x": 4064,
     "y": 1632,
     "width": 346,
     "height": 308,
     "properties": []
    },
    {
     "id": 410,
     "visible": true,
     "rotation": 0,
     "name": "herfstEik",
     "gid": 602,
     "x": 4096,
     "y": 1632,
     "width": 346,
     "height": 308,
     "properties": []
    },
    {
     "id": 411,
     "visible": true,
     "rotation": 0,
     "name": "den",
     "gid": 603,
     "x": 4128,
     "y": 1632,
     "width": 346,
     "height": 308,
     "properties": []
    },
    {
     "id": 412,
     "visible": true,
     "rotation": 0,
     "name": "dodeBoom",
     "gid": 605,
     "x": 4160,
     "y": 1632,
     "width": 346,
     "height": 308,
     "properties": []
    },
    {
     "id": 413,
     "visible": true,
     "rotation": 0,
     "name": "herfstEik",
     "gid": 602,
     "x": 4192,
     "y": 1632,
     "width": 346,
     "height": 308,
     "properties": []
    },
    {
     "id": 414,
     "visible": true,
     "rotation": 0,
     "name": "den",
     "gid": 603,
     "x": 4224,
     "y": 1632,
     "width": 346,
     "height": 308,
     "properties": []
    },
    {
     "id": 415,
     "visible": true,
     "rotation": 0,
     "name": "den",
     "gid": 603,
     "x": 4256,
     "y": 1632,
     "width": 346,
     "height": 308,
     "properties": []
    },
    {
     "id": 416,
     "visible": true,
     "rotation": 0,
     "name": "den",
     "gid": 603,
     "x": 4288,
     "y": 1632,
     "width": 346,
     "height": 308,
     "properties": []
    },
    {
     "id": 417,
     "visible": true,
     "rotation": 0,
     "name": "eik",
     "gid": 601,
     "x": 4320,
     "y": 1632,
     "width": 346,
     "height": 308,
     "properties": []
    },
    {
     "id": 418,
     "visible": true,
     "rotation": 0,
     "name": "berk",
     "gid": 604,
     "x": 4352,
     "y": 1632,
     "width": 346,
     "height": 308,
     "properties": []
    },
    {
     "id": 419,
     "visible": true,
     "rotation": 0,
     "name": "herfstEik",
     "gid": 602,
     "x": 4384,
     "y": 1632,
     "width": 346,
     "height": 308,
     "properties": []
    },
    {
     "id": 420,
     "visible": true,
     "rotation": 0,
     "name": "berk",
     "gid": 604,
     "x": 4416,
     "y": 1632,
     "width": 346,
     "height": 308,
     "properties": []
    },
    {
     "id": 421,
     "visible": true,
     "rotation": 0,
     "name": "den",
     "gid": 603,
     "x": 4448,
     "y": 1632,
     "width": 346,
     "height": 308,
     "properties": []
    },
    {
     "id": 422,
     "visible": true,
     "rotation": 0,
     "name": "eik",
     "gid": 601,
     "x": 4480,
     "y": 1632,
     "width": 346,
     "height": 308,
     "properties": []
    },
    {
     "id": 423,
     "visible": true,
     "rotation": 0,
     "name": "dodeBoom",
     "gid": 605,
     "x": 4512,
     "y": 1632,
     "width": 346,
     "height": 308,
     "properties": []
    },
    {
     "id": 424,
     "visible": true,
     "rotation": 0,
     "name": "eik",
     "gid": 601,
     "x": 4544,
     "y": 1632,
     "width": 346,
     "height": 308,
     "properties": []
    },
    {
     "id": 425,
     "visible": true,
     "rotation": 0,
     "name": "den",
     "gid": 603,
     "x": 4576,
     "y": 1632,
     "width": 346,
     "height": 308,
     "properties": []
    },
    {
     "id": 426,
     "visible": true,
     "rotation": 0,
     "name": "dodeBoom",
     "gid": 605,
     "x": 4608,
     "y": 1632,
     "width": 346,
     "height": 308,
     "properties": []
    },
    {
     "id": 427,
     "visible": true,
     "rotation": 0,
     "name": "eik",
     "gid": 601,
     "x": 4640,
     "y": 1632,
     "width": 346,
     "height": 308,
     "properties": []
    },
    {
     "id": 428,
     "visible": true,
     "rotation": 0,
     "name": "herfstEik",
     "gid": 602,
     "x": 4672,
     "y": 1632,
     "width": 346,
     "height": 308,
     "properties": []
    },
    {
     "id": 429,
     "visible": true,
     "rotation": 0,
     "name": "berk",
     "gid": 604,
     "x": 4704,
     "y": 1632,
     "width": 346,
     "height": 308,
     "properties": []
    },
    {
     "id": 430,
     "visible": true,
     "rotation": 0,
     "name": "herfstEik",
     "gid": 602,
     "x": 4736,
     "y": 1632,
     "width": 346,
     "height": 308,
     "properties": []
    },
    {
     "id": 431,
     "visible": true,
     "rotation": 0,
     "name": "dodeBoom",
     "gid": 605,
     "x": 4768,
     "y": 1632,
     "width": 346,
     "height": 308,
     "properties": []
    },
    {
     "id": 432,
     "visible": true,
     "rotation": 0,
     "name": "eik",
     "gid": 601,
     "x": 4800,
     "y": 1632,
     "width": 346,
     "height": 308,
     "properties": []
    },
    {
     "id": 433,
     "visible": true,
     "rotation": 0,
     "name": "eik",
     "gid": 601,
     "x": 4832,
     "y": 1632,
     "width": 346,
     "height": 308,
     "properties": []
    },
    {
     "id": 434,
     "visible": true,
     "rotation": 0,
     "name": "berk",
     "gid": 604,
     "x": 4864,
     "y": 1632,
     "width": 346,
     "height": 308,
     "properties": []
    },
    {
     "id": 435,
     "visible": true,
     "rotation": 0,
     "name": "eik",
     "gid": 601,
     "x": 4896,
     "y": 1632,
     "width": 346,
     "height": 308,
     "properties": []
    },
    {
     "id": 436,
     "visible": true,
     "rotation": 0,
     "name": "eik",
     "gid": 601,
     "x": 4928,
     "y": 1632,
     "width": 346,
     "height": 308,
     "properties": []
    },
    {
     "id": 437,
     "visible": true,
     "rotation": 0,
     "name": "herfstEik",
     "gid": 602,
     "x": 4960,
     "y": 1632,
     "width": 346,
     "height": 308,
     "properties": []
    },
    {
     "id": 438,
     "visible": true,
     "rotation": 0,
     "name": "berk",
     "gid": 604,
     "x": 4992,
     "y": 1632,
     "width": 346,
     "height": 308,
     "properties": []
    },
    {
     "id": 439,
     "visible": true,
     "rotation": 0,
     "name": "den",
     "gid": 603,
     "x": 5024,
     "y": 1632,
     "width": 346,
     "height": 308,
     "properties": []
    },
    {
     "id": 440,
     "visible": true,
     "rotation": 0,
     "name": "herfstEik",
     "gid": 602,
     "x": 5056,
     "y": 1632,
     "width": 346,
     "height": 308,
     "properties": []
    },
    {
     "id": 441,
     "visible": true,
     "rotation": 0,
     "name": "berk",
     "gid": 604,
     "x": 5088,
     "y": 1632,
     "width": 346,
     "height": 308,
     "properties": []
    },
    {
     "id": 442,
     "visible": true,
     "rotation": 0,
     "name": "herfstEik",
     "gid": 602,
     "x": 5120,
     "y": 1632,
     "width": 346,
     "height": 308,
     "properties": []
    },
    {
     "id": 443,
     "visible": true,
     "rotation": 0,
     "name": "dodeBoom",
     "gid": 605,
     "x": 5152,
     "y": 1632,
     "width": 346,
     "height": 308,
     "properties": []
    },
    {
     "id": 444,
     "visible": true,
     "rotation": 0,
     "name": "den",
     "gid": 603,
     "x": 5184,
     "y": 1632,
     "width": 346,
     "height": 308,
     "properties": []
    },
    {
     "id": 445,
     "visible": true,
     "rotation": 0,
     "name": "dodeBoom",
     "gid": 605,
     "x": 5216,
     "y": 1632,
     "width": 346,
     "height": 308,
     "properties": []
    },
    {
     "id": 446,
     "visible": true,
     "rotation": 0,
     "name": "eik",
     "gid": 601,
     "x": 5248,
     "y": 1632,
     "width": 346,
     "height": 308,
     "properties": []
    },
    {
     "id": 447,
     "visible": true,
     "rotation": 0,
     "name": "herfstEik",
     "gid": 602,
     "x": 5280,
     "y": 1632,
     "width": 346,
     "height": 308,
     "properties": []
    },
    {
     "id": 448,
     "visible": true,
     "rotation": 0,
     "name": "eik",
     "gid": 601,
     "x": 5312,
     "y": 1632,
     "width": 346,
     "height": 308,
     "properties": []
    },
    {
     "id": 449,
     "visible": true,
     "rotation": 0,
     "name": "den",
     "gid": 603,
     "x": 5344,
     "y": 1632,
     "width": 346,
     "height": 308,
     "properties": []
    },
    {
     "id": 450,
     "visible": true,
     "rotation": 0,
     "name": "den",
     "gid": 603,
     "x": 5376,
     "y": 1632,
     "width": 346,
     "height": 308,
     "properties": []
    },
    {
     "id": 451,
     "visible": true,
     "rotation": 0,
     "name": "eik",
     "gid": 601,
     "x": 5408,
     "y": 1632,
     "width": 346,
     "height": 308,
     "properties": []
    },
    {
     "id": 452,
     "visible": true,
     "rotation": 0,
     "name": "den",
     "gid": 603,
     "x": 5440,
     "y": 1632,
     "width": 346,
     "height": 308,
     "properties": []
    },
    {
     "id": 453,
     "visible": true,
     "rotation": 0,
     "name": "berk",
     "gid": 604,
     "x": 5472,
     "y": 1632,
     "width": 346,
     "height": 308,
     "properties": []
    },
    {
     "id": 454,
     "visible": true,
     "rotation": 0,
     "name": "eik",
     "gid": 601,
     "x": 5504,
     "y": 1632,
     "width": 346,
     "height": 308,
     "properties": []
    },
    {
     "id": 455,
     "visible": true,
     "rotation": 0,
     "name": "den",
     "gid": 603,
     "x": 5536,
     "y": 1632,
     "width": 346,
     "height": 308,
     "properties": []
    },
    {
     "id": 456,
     "visible": true,
     "rotation": 0,
     "name": "den",
     "gid": 603,
     "x": 5568,
     "y": 1632,
     "width": 346,
     "height": 308,
     "properties": []
    },
    {
     "id": 457,
     "visible": true,
     "rotation": 0,
     "name": "den",
     "gid": 603,
     "x": 5600,
     "y": 1632,
     "width": 346,
     "height": 308,
     "properties": []
    },
    {
     "id": 458,
     "visible": true,
     "rotation": 0,
     "name": "den",
     "gid": 603,
     "x": 5632,
     "y": 1632,
     "width": 346,
     "height": 308,
     "properties": []
    },
    {
     "id": 459,
     "visible": true,
     "rotation": 0,
     "name": "den",
     "gid": 603,
     "x": 5664,
     "y": 1632,
     "width": 346,
     "height": 308,
     "properties": []
    },
    {
     "id": 460,
     "visible": true,
     "rotation": 0,
     "name": "wolf",
     "point": true,
     "x": 4448,
     "y": 608,
     "width": 0,
     "height": 0,
     "properties": [
      {
       "name": "wezen",
       "type": "string",
       "value": "wolf"
      },
      {
       "name": "straal",
       "type": "string",
       "value": "7"
      }
     ]
    },
    {
     "id": 461,
     "visible": true,
     "rotation": 0,
     "name": "meester",
     "point": true,
     "x": 4480,
     "y": 896,
     "width": 0,
     "height": 0,
     "properties": [
      {
       "name": "wezen",
       "type": "string",
       "value": "meester"
      },
      {
       "name": "straal",
       "type": "string",
       "value": "2"
      }
     ]
    },
    {
     "id": 462,
     "visible": true,
     "rotation": 0,
     "name": "deur van de toren",
     "point": true,
     "x": 4928,
     "y": 1152,
     "width": 0,
     "height": 0,
     "properties": [
      {
       "name": "overgang",
       "type": "string",
       "value": "toren"
      },
      {
       "name": "komt",
       "type": "string",
       "value": "154,37"
      }
     ]
    },
    {
     "gid": 677,
     "height": 632,
     "id": 463,
     "name": "",
     "opacity": 1,
     "rotation": 0,
     "type": "",
     "visible": true,
     "width": 648,
     "x": 856,
     "y": 872,
     "properties": []
    },
    {
     "gid": 693,
     "height": 632,
     "id": 464,
     "name": "",
     "opacity": 1,
     "rotation": 0,
     "type": "",
     "visible": true,
     "width": 648,
     "x": 1138.333333333333,
     "y": 1003,
     "properties": []
    },
    {
     "gid": 691,
     "height": 632,
     "id": 465,
     "name": "",
     "opacity": 1,
     "rotation": 0,
     "type": "",
     "visible": true,
     "width": 648,
     "x": 1117.333333333333,
     "y": 1641.333333333333,
     "properties": []
    },
    {
     "gid": 602,
     "height": 308,
     "id": 466,
     "name": "",
     "opacity": 1,
     "rotation": 0,
     "type": "",
     "visible": true,
     "width": 346,
     "x": 802.9999999999999,
     "y": 1290.333333333333,
     "properties": []
    },
    {
     "gid": 602,
     "height": 308,
     "id": 467,
     "name": "",
     "opacity": 1,
     "rotation": 0,
     "type": "",
     "visible": true,
     "width": 346,
     "x": 1457.666666666667,
     "y": 1025,
     "properties": []
    },
    {
     "gid": 604,
     "height": 308,
     "id": 468,
     "name": "",
     "opacity": 1,
     "rotation": 0,
     "type": "",
     "visible": true,
     "width": 346,
     "x": 1226.333333333333,
     "y": 836.3333333333333,
     "properties": []
    },
    {
     "gid": 604,
     "height": 308,
     "id": 469,
     "name": "",
     "opacity": 1,
     "rotation": 0,
     "type": "",
     "visible": true,
     "width": 346,
     "x": 1481,
     "y": 1000.333333333333,
     "properties": []
    },
    {
     "gid": 604,
     "height": 308,
     "id": 470,
     "name": "",
     "opacity": 1,
     "rotation": 0,
     "type": "",
     "visible": true,
     "width": 346,
     "x": 1235.333333333333,
     "y": 971.333333333333,
     "properties": []
    },
    {
     "gid": 606,
     "height": 308,
     "id": 471,
     "name": "",
     "opacity": 1,
     "rotation": 0,
     "type": "",
     "visible": true,
     "width": 346,
     "x": 1584,
     "y": 1344,
     "properties": []
    },
    {
     "gid": 606,
     "height": 308,
     "id": 472,
     "name": "",
     "opacity": 1,
     "rotation": 0,
     "type": "",
     "visible": true,
     "width": 346,
     "x": 1450,
     "y": 1343.333333333333,
     "properties": []
    },
    {
     "gid": 606,
     "height": 308,
     "id": 473,
     "name": "",
     "opacity": 1,
     "rotation": 0,
     "type": "",
     "visible": true,
     "width": 346,
     "x": 1501.333333333333,
     "y": 1556,
     "properties": []
    },
    {
     "gid": 607,
     "height": 308,
     "id": 474,
     "name": "",
     "opacity": 1,
     "rotation": 0,
     "type": "",
     "visible": true,
     "width": 346,
     "x": 1205,
     "y": 1355,
     "properties": []
    },
    {
     "gid": 605,
     "height": 308,
     "id": 475,
     "name": "",
     "opacity": 1,
     "rotation": 0,
     "type": "",
     "visible": true,
     "width": 346,
     "x": 1460,
     "y": 1814.66666666667,
     "properties": []
    },
    {
     "gid": 605,
     "height": 308,
     "id": 476,
     "name": "",
     "opacity": 1,
     "rotation": 0,
     "type": "",
     "visible": true,
     "width": 346,
     "x": 1625.333333333333,
     "y": 1906.66666666667,
     "properties": []
    },
    {
     "gid": 605,
     "height": 308,
     "id": 477,
     "name": "",
     "opacity": 1,
     "rotation": 0,
     "type": "",
     "visible": true,
     "width": 346,
     "x": 1595.333333333333,
     "y": 1974,
     "properties": []
    },
    {
     "gid": 603,
     "height": 308,
     "id": 478,
     "name": "",
     "opacity": 1,
     "rotation": 0,
     "type": "",
     "visible": true,
     "width": 346,
     "x": 1435.333333333333,
     "y": 1876.66666666667,
     "properties": []
    },
    {
     "gid": 603,
     "height": 308,
     "id": 479,
     "name": "",
     "opacity": 1,
     "rotation": 0,
     "type": "",
     "visible": true,
     "width": 346,
     "x": 1474.333333333333,
     "y": 1721.666666666667,
     "properties": []
    },
    {
     "gid": 603,
     "height": 308,
     "id": 480,
     "name": "",
     "opacity": 1,
     "rotation": 0,
     "type": "",
     "visible": true,
     "width": 346,
     "x": 1760,
     "y": 1913.33333333333,
     "properties": []
    },
    {
     "gid": 603,
     "height": 308,
     "id": 481,
     "name": "",
     "opacity": 1,
     "rotation": 0,
     "type": "",
     "visible": true,
     "width": 346,
     "x": 2005.66666666667,
     "y": 1778.3333333333298,
     "properties": []
    },
    {
     "gid": 603,
     "height": 308,
     "id": 482,
     "name": "",
     "opacity": 1,
     "rotation": 0,
     "type": "",
     "visible": true,
     "width": 346,
     "x": 1854.66666666667,
     "y": 1085.333333333333,
     "properties": []
    },
    {
     "gid": 601,
     "height": 308,
     "id": 483,
     "name": "",
     "opacity": 1,
     "rotation": 0,
     "type": "",
     "visible": true,
     "width": 346,
     "x": 1933,
     "y": 1072.333333333333,
     "properties": []
    },
    {
     "gid": 634,
     "height": 119,
     "id": 484,
     "name": "",
     "opacity": 1,
     "rotation": 0,
     "type": "",
     "visible": true,
     "width": 123,
     "x": 2014.58333333333,
     "y": 1206.75,
     "properties": []
    },
    {
     "gid": 634,
     "height": 119,
     "id": 485,
     "name": "",
     "opacity": 1,
     "rotation": 0,
     "type": "",
     "visible": true,
     "width": 123,
     "x": 2079.9166666666697,
     "y": 1260.083333333333,
     "properties": []
    },
    {
     "gid": 634,
     "height": 119,
     "id": 486,
     "name": "",
     "opacity": 1,
     "rotation": 0,
     "type": "",
     "visible": true,
     "width": 123,
     "x": 1963.58333333333,
     "y": 1319.083333333333,
     "properties": []
    },
    {
     "gid": 634,
     "height": 119,
     "id": 487,
     "name": "",
     "opacity": 1,
     "rotation": 0,
     "type": "",
     "visible": true,
     "width": 123,
     "x": 1897.91666666667,
     "y": 1155.416666666667,
     "properties": []
    },
    {
     "gid": 633,
     "height": 119,
     "id": 488,
     "name": "",
     "opacity": 1,
     "rotation": 0,
     "type": "",
     "visible": true,
     "width": 123,
     "x": 1727.25,
     "y": 1112.75,
     "properties": []
    },
    {
     "gid": 633,
     "height": 119,
     "id": 489,
     "name": "",
     "opacity": 1,
     "rotation": 0,
     "type": "",
     "visible": true,
     "width": 123,
     "x": 1662.916666666667,
     "y": 1102.416666666667,
     "properties": []
    },
    {
     "gid": 633,
     "height": 119,
     "id": 490,
     "name": "",
     "opacity": 1,
     "rotation": 0,
     "type": "",
     "visible": true,
     "width": 123,
     "x": 1696.25,
     "y": 1157.083333333333,
     "properties": []
    },
    {
     "gid": 633,
     "height": 119,
     "id": 491,
     "name": "",
     "opacity": 1,
     "rotation": 0,
     "type": "",
     "visible": true,
     "width": 123,
     "x": 1696.916666666667,
     "y": 1127.083333333333,
     "properties": []
    },
    {
     "gid": 633,
     "height": 119,
     "id": 492,
     "name": "",
     "opacity": 1,
     "rotation": 0,
     "type": "",
     "visible": true,
     "width": 123,
     "x": 1686.916666666667,
     "y": 1086.416666666667,
     "properties": []
    },
    {
     "gid": 636,
     "height": 119,
     "id": 493,
     "name": "",
     "opacity": 1,
     "rotation": 0,
     "type": "",
     "visible": true,
     "width": 123,
     "x": 1786.25,
     "y": 1252.416666666667,
     "properties": []
    },
    {
     "gid": 636,
     "height": 119,
     "id": 494,
     "name": "",
     "opacity": 1,
     "rotation": 0,
     "type": "",
     "visible": true,
     "width": 123,
     "x": 1777.25,
     "y": 1282.75,
     "properties": []
    },
    {
     "gid": 636,
     "height": 119,
     "id": 495,
     "name": "",
     "opacity": 1,
     "rotation": 0,
     "type": "",
     "visible": true,
     "width": 123,
     "x": 1851.91666666667,
     "y": 1358.75,
     "properties": []
    },
    {
     "gid": 636,
     "height": 119,
     "id": 496,
     "name": "",
     "opacity": 1,
     "rotation": 0,
     "type": "",
     "visible": true,
     "width": 123,
     "x": 1866.91666666667,
     "y": 1322.416666666667,
     "properties": []
    },
    {
     "gid": 636,
     "height": 119,
     "id": 497,
     "name": "",
     "opacity": 1,
     "rotation": 0,
     "type": "",
     "visible": true,
     "width": 123,
     "x": 1816.91666666667,
     "y": 1308.416666666667,
     "properties": []
    },
    {
     "gid": 636,
     "height": 119,
     "id": 498,
     "name": "",
     "opacity": 1,
     "rotation": 0,
     "type": "",
     "visible": true,
     "width": 123,
     "x": 1967.25,
     "y": 1328.75,
     "properties": []
    },
    {
     "gid": 636,
     "height": 119,
     "id": 499,
     "name": "",
     "opacity": 1,
     "rotation": 0,
     "type": "",
     "visible": true,
     "width": 123,
     "x": 1993.58333333333,
     "y": 1387.75,
     "properties": []
    },
    {
     "gid": 636,
     "height": 119,
     "id": 500,
     "name": "",
     "opacity": 1,
     "rotation": 0,
     "type": "",
     "visible": true,
     "width": 123,
     "x": 1907.91666666667,
     "y": 1414.75,
     "properties": []
    },
    {
     "gid": 637,
     "height": 119,
     "id": 501,
     "name": "",
     "opacity": 1,
     "rotation": 0,
     "type": "",
     "visible": true,
     "width": 123,
     "x": 1919.25,
     "y": 1234.083333333333,
     "properties": []
    },
    {
     "gid": 637,
     "height": 119,
     "id": 502,
     "name": "",
     "opacity": 1,
     "rotation": 0,
     "type": "",
     "visible": true,
     "width": 123,
     "x": 1855.58333333333,
     "y": 1209.75,
     "properties": []
    },
    {
     "gid": 637,
     "height": 119,
     "id": 503,
     "name": "",
     "opacity": 1,
     "rotation": 0,
     "type": "",
     "visible": true,
     "width": 123,
     "x": 1848.91666666667,
     "y": 1237.75,
     "properties": []
    },
    {
     "gid": 640,
     "height": 119,
     "id": 504,
     "name": "",
     "opacity": 1,
     "rotation": 0,
     "type": "",
     "visible": true,
     "width": 123,
     "x": 1855.58333333333,
     "y": 1563.083333333333,
     "properties": []
    },
    {
     "gid": 640,
     "height": 119,
     "id": 505,
     "name": "",
     "opacity": 1,
     "rotation": 0,
     "type": "",
     "visible": true,
     "width": 123,
     "x": 1953.25,
     "y": 1618.75,
     "properties": []
    },
    {
     "gid": 640,
     "height": 119,
     "id": 506,
     "name": "",
     "opacity": 1,
     "rotation": 0,
     "type": "",
     "visible": true,
     "width": 123,
     "x": 1259.25,
     "y": 1090.083333333333,
     "properties": []
    }
   ]
  }
 ]
}
